;FLAVOR:Marlin
;TIME:2428
;Filament used: 1.48392m
;Layer height: 0.2
;MINX:68.829
;MINY:89.486
;MINZ:0.2
;MAXX:151.191
;MAXY:130.497
;MAXZ:15
;Generated with Cura_SteamEngine 4.3.0
M140 S50
M105
M190 S50
M104 S200
M105
M109 S200
M82 ;absolute extrusion mode
M201 X500.00 Y500.00 Z100.00 E5000.00 ;Setup machine max acceleration
M203 X500.00 Y500.00 Z10.00 E50.00 ;Setup machine max feedrate
M204 P500.00 R1000.00 T500.00 ;Setup Print/Retract/Travel acceleration
M205 X8.00 Y8.00 Z0.40 E5.00 ;Setup Jerk
M220 S100 ;Reset Feedrate
M221 S100 ;Reset Flowrate

G28 ;Home

G92 E0 ;Reset Extruder
G1 Z2.0 F3000 ;Move Z Axis up
G1 X10.1 Y20 Z0.28 F5000.0 ;Move to start position
G1 X10.1 Y200.0 Z0.28 F1500.0 E15 ;Draw the first line
G1 X10.4 Y200.0 Z0.28 F5000.0 ;Move to side a little
G1 X10.4 Y20 Z0.28 F1500.0 E30 ;Draw the second line
G92 E0 ;Reset Extruder
G1 Z2.0 F3000 ;Move Z Axis up

G92 E0
G92 E0
G1 F2700 E-5
;LAYER_COUNT:75
;LAYER:0
M107
G0 F6000 X78.177 Y94.564 Z0.2
;TYPE:SKIRT
G1 F2700 E0
G1 F1200 X78.596 Y94.228 E0.01786
G1 X78.891 Y94 E0.03026
G1 X79.109 Y93.837 E0.03932
G1 X79.883 Y93.308 E0.0705
G1 X80.942 Y92.727 E0.11067
G1 X81.328 Y92.542 E0.12491
G1 X81.528 Y92.449 E0.13225
G1 X82.593 Y91.965 E0.17116
G1 X84.004 Y91.265 E0.22354
G1 X84.165 Y91.187 E0.22949
G1 X85.407 Y90.596 E0.27524
G1 X86.27 Y90.23 E0.30642
G1 X87.161 Y89.938 E0.3376
G1 X88.074 Y89.723 E0.3688
G1 X89.002 Y89.587 E0.4
G1 X89.53 Y89.546 E0.41761
G1 X90.022 Y89.519 E0.434
G1 X90.434 Y89.504 E0.44771
G1 X91.354 Y89.488 E0.47832
G1 X91.545 Y89.486 E0.48467
G1 X139.484 Y89.486 E2.07913
G1 X139.642 Y89.487 E2.08438
G1 X140.34 Y89.497 E2.1076
G1 X141.276 Y89.551 E2.13878
G1 X142.204 Y89.683 E2.16996
G1 X143.118 Y89.895 E2.20117
G1 X144.01 Y90.184 E2.23235
G1 X144.875 Y90.547 E2.26355
G1 X145.705 Y90.983 E2.29474
G1 X146.496 Y91.488 E2.32595
G1 X147.24 Y92.059 E2.35714
G1 X147.933 Y92.691 E2.38834
G1 X148.57 Y93.379 E2.41952
G1 X149.145 Y94.12 E2.45072
G1 X149.656 Y94.906 E2.4819
G1 X150.098 Y95.734 E2.51312
G1 X150.467 Y96.596 E2.5443
G1 X150.762 Y97.486 E2.57549
G1 X150.98 Y98.398 E2.60668
G1 X151.12 Y99.326 E2.63789
G1 X151.177 Y100.177 E2.66626
G1 X151.186 Y100.487 E2.67657
G1 X151.191 Y100.806 E2.68719
G1 X151.191 Y109.25 E2.96803
G1 X151.19 Y109.386 E2.97256
G1 X151.181 Y110.113 E2.99674
G1 X151.13 Y111.05 E3.02795
G1 X150.998 Y111.978 E3.05913
G1 X150.789 Y112.892 E3.09031
G1 X150.502 Y113.785 E3.12151
G1 X150.14 Y114.651 E3.15273
G1 X149.706 Y115.482 E3.18391
G1 X149.202 Y116.273 E3.2151
G1 X148.633 Y117.018 E3.24628
G1 X148.002 Y117.713 E3.27751
G1 X147.315 Y118.351 E3.30869
G1 X146.576 Y118.928 E3.33987
G1 X145.79 Y119.44 E3.37107
G1 X144.964 Y119.883 E3.40225
G1 X144.102 Y120.255 E3.43347
G1 X143.213 Y120.551 E3.46464
G1 X142.301 Y120.771 E3.49584
G1 X141.374 Y120.912 E3.52703
G1 X140.49 Y120.973 E3.5565
G1 X140.169 Y120.982 E3.56718
G1 X139.861 Y120.986 E3.57742
G1 X126.127 Y120.986 E4.03422
G1 X123.519 Y121.023 E4.12097
G1 X120.998 Y121.13 E4.20489
G1 X118.503 Y121.307 E4.28809
G1 X116.003 Y121.555 E4.37165
G1 X113.51 Y121.874 E4.45524
G1 X111.017 Y122.265 E4.53917
G1 X108.527 Y122.728 E4.62341
G1 X106.064 Y123.258 E4.7072
G1 X103.668 Y123.846 E4.78926
G1 X101.198 Y124.525 E4.87446
G1 X98.795 Y125.261 E4.95805
G1 X96.403 Y126.068 E5.04201
G1 X94.063 Y126.931 E5.12496
G1 X91.687 Y127.885 E5.21012
G1 X90.353 Y128.455 E5.25837
G1 X88.176 Y129.407 E5.3374
G1 X87.799 Y129.563 E5.35097
G1 X87.639 Y129.626 E5.35669
G1 X86.753 Y129.932 E5.38787
G1 X85.843 Y130.162 E5.41908
G1 X85.259 Y130.267 E5.43882
G1 X84.692 Y130.353 E5.45789
G1 X84.285 Y130.407 E5.47155
G1 X84.074 Y130.431 E5.47861
G1 X83.139 Y130.497 E5.50979
G1 X82.201 Y130.483 E5.54099
G1 X81.599 Y130.432 E5.56108
G1 X81.058 Y130.371 E5.57919
G1 X80.701 Y130.325 E5.59116
G1 X80.475 Y130.292 E5.59876
G1 X79.553 Y130.117 E5.62997
G1 X78.65 Y129.864 E5.66116
G1 X78.033 Y129.642 E5.68297
G1 X77.51 Y129.436 E5.70167
G1 X77.184 Y129.301 E5.71341
G1 X76.98 Y129.213 E5.72079
G1 X76.135 Y128.805 E5.752
G1 X75.329 Y128.327 E5.78317
G1 X74.792 Y127.954 E5.80492
G1 X74.357 Y127.632 E5.82292
G1 X74.114 Y127.447 E5.83308
G1 X73.924 Y127.298 E5.84111
G1 X73.211 Y126.688 E5.87232
G1 X72.553 Y126.02 E5.9035
G1 X72.093 Y125.476 E5.9272
G1 X71.756 Y125.051 E5.94524
G1 X71.546 Y124.778 E5.95669
G1 X71.41 Y124.595 E5.96428
G1 X70.883 Y123.819 E5.99548
G1 X70.424 Y123.001 E6.02667
G1 X70.178 Y122.481 E6.04581
G1 X69.976 Y122.024 E6.06243
G1 X69.821 Y121.655 E6.07574
G1 X69.72 Y121.402 E6.0848
G1 X69.41 Y120.517 E6.11599
G1 X69.176 Y119.609 E6.14717
G1 X69.064 Y118.997 E6.16787
G1 X68.98 Y118.451 E6.18624
G1 X68.929 Y118.076 E6.19883
G1 X68.9 Y117.832 E6.207
G1 X68.829 Y116.897 E6.23819
G1 X68.838 Y115.959 E6.26939
G1 X68.889 Y115.332 E6.29031
G1 X68.94 Y114.868 E6.30584
G1 X68.973 Y114.596 E6.31495
G1 X69.011 Y114.315 E6.32438
G1 X69.176 Y113.392 E6.35557
G1 X69.42 Y112.486 E6.38677
G1 X69.662 Y111.797 E6.41106
G1 X69.891 Y111.209 E6.43205
G1 X70.032 Y110.865 E6.44442
G1 X70.406 Y109.993 E6.47597
G1 X70.464 Y109.859 E6.48083
G1 X70.977 Y108.706 E6.5228
G1 X71.928 Y106.393 E6.60598
G1 X72.815 Y104.049 E6.68934
G1 X73.792 Y101.195 E6.78967
G1 X73.951 Y100.76 E6.80508
G1 X74.288 Y99.896 E6.83592
G1 X74.666 Y99.037 E6.86714
G1 X75.115 Y98.214 E6.89832
G1 X75.403 Y97.761 E6.91617
G1 X75.781 Y97.198 E6.93873
G1 X76.274 Y96.522 E6.96655
G1 X76.419 Y96.338 E6.97435
G1 X77.031 Y95.626 E7.00557
G1 X77.7 Y94.97 E7.03674
G1 X78.177 Y94.564 E7.05757
G0 F6000 X78.428 Y94.876
G1 F1200 X78.847 Y94.54 E7.07543
G1 X79.13 Y94.321 E7.08734
G1 X79.348 Y94.158 E7.09639
G1 X80.109 Y93.639 E7.12703
G1 X81.115 Y93.088 E7.16518
G1 X81.501 Y92.903 E7.17941
G1 X81.694 Y92.813 E7.1865
G1 X82.757 Y92.329 E7.22534
G1 X84.182 Y91.623 E7.27824
G1 X84.336 Y91.548 E7.28393
G1 X85.578 Y90.957 E7.32968
G1 X86.426 Y90.598 E7.36031
G1 X87.302 Y90.314 E7.39094
G1 X88.199 Y90.107 E7.42156
G1 X89.552 Y89.945 E7.46688
G1 X90.044 Y89.918 E7.48327
G1 X90.441 Y89.904 E7.49648
G1 X91.361 Y89.888 E7.52708
G1 X91.545 Y89.886 E7.5332
G1 X139.484 Y89.886 E9.12766
G1 X139.636 Y89.887 E9.13272
G1 X140.334 Y89.897 E9.15594
G1 X141.253 Y89.95 E9.18655
G1 X142.164 Y90.083 E9.21717
G1 X143.06 Y90.294 E9.24779
G1 X143.934 Y90.582 E9.2784
G1 X144.781 Y90.945 E9.30905
G1 X145.592 Y91.38 E9.33966
G1 X146.362 Y91.884 E9.37026
G1 X147.086 Y92.453 E9.40089
G1 X147.758 Y93.083 E9.43153
G1 X148.373 Y93.768 E9.46215
G1 X148.926 Y94.504 E9.49277
G1 X149.413 Y95.285 E9.52338
G1 X149.83 Y96.106 E9.55401
G1 X150.175 Y96.96 E9.58464
G1 X150.444 Y97.84 E9.61525
G1 X150.636 Y98.741 E9.64589
G1 X150.749 Y99.654 E9.67648
G1 X150.778 Y100.188 E9.69427
G1 X150.787 Y100.498 E9.70459
G1 X150.791 Y100.806 E9.71483
G1 X150.791 Y109.25 E9.99568
G1 X150.79 Y109.381 E10.00004
G1 X150.781 Y110.108 E10.02422
G1 X150.73 Y111.027 E10.05483
G1 X150.599 Y111.939 E10.08548
G1 X150.389 Y112.835 E10.11609
G1 X150.103 Y113.71 E10.1467
G1 X149.742 Y114.557 E10.17733
G1 X149.308 Y115.369 E10.20795
G1 X148.806 Y116.141 E10.23858
G1 X148.238 Y116.866 E10.26921
G1 X147.61 Y117.539 E10.29983
G1 X146.926 Y118.155 E10.33044
G1 X146.191 Y118.709 E10.36105
G1 X145.411 Y119.198 E10.39167
G1 X144.591 Y119.617 E10.4223
G1 X143.738 Y119.963 E10.45292
G1 X142.858 Y120.234 E10.48354
G1 X141.958 Y120.427 E10.51416
G1 X141.044 Y120.542 E10.5448
G1 X140.479 Y120.573 E10.56362
G1 X140.158 Y120.582 E10.5743
G1 X139.861 Y120.586 E10.58418
G1 X126.121 Y120.586 E11.04117
G1 X123.496 Y120.623 E11.12849
G1 X120.988 Y120.73 E11.21198
G1 X118.468 Y120.908 E11.296
G1 X115.953 Y121.157 E11.38006
G1 X113.464 Y121.476 E11.46352
G1 X110.912 Y121.877 E11.54945
G1 X108.481 Y122.329 E11.63169
G1 X105.982 Y122.867 E11.71671
G1 X103.546 Y123.464 E11.80013
G1 X101.08 Y124.142 E11.88519
G1 X98.687 Y124.875 E11.96843
G1 X96.273 Y125.689 E12.05316
G1 X93.923 Y126.556 E12.13647
G1 X91.506 Y127.527 E12.22311
G1 X90.151 Y128.106 E12.27212
G1 X88.015 Y129.04 E12.34966
G1 X87.653 Y129.191 E12.3627
G1 X87.493 Y129.254 E12.36842
G1 X86.622 Y129.554 E12.39906
G1 X85.729 Y129.777 E12.42968
G1 X85.199 Y129.871 E12.44758
G1 X84.632 Y129.957 E12.46665
G1 X84.24 Y130.009 E12.4798
G1 X84.029 Y130.033 E12.48687
G1 X83.111 Y130.097 E12.51747
G1 X82.19 Y130.082 E12.54811
G1 X81.643 Y130.034 E12.56637
G1 X81.102 Y129.973 E12.58448
G1 X80.758 Y129.929 E12.59602
G1 X80.532 Y129.896 E12.60361
G1 X79.628 Y129.723 E12.63423
G1 X78.742 Y129.473 E12.66485
G1 X78.179 Y129.27 E12.68475
G1 X77.656 Y129.064 E12.70345
G1 X77.342 Y128.934 E12.71475
G1 X77.138 Y128.846 E12.72214
G1 X76.31 Y128.445 E12.75274
G1 X75.519 Y127.974 E12.78336
G1 X75.03 Y127.633 E12.80319
G1 X74.595 Y127.311 E12.82119
G1 X74.361 Y127.132 E12.83099
G1 X74.171 Y126.983 E12.83902
G1 X73.472 Y126.384 E12.86963
G1 X72.827 Y125.727 E12.90026
G1 X72.406 Y125.228 E12.92197
G1 X72.069 Y124.803 E12.94001
G1 X71.867 Y124.54 E12.95104
G1 X71.731 Y124.357 E12.95862
G1 X71.215 Y123.595 E12.98923
G1 X70.766 Y122.791 E13.01986
G1 X70.544 Y122.319 E13.03721
G1 X70.342 Y121.862 E13.05383
G1 X70.192 Y121.507 E13.06665
G1 X70.091 Y121.254 E13.07571
G1 X69.788 Y120.385 E13.10632
G1 X69.56 Y119.493 E13.13694
G1 X69.459 Y118.936 E13.15577
G1 X69.375 Y118.39 E13.17414
G1 X69.326 Y118.029 E13.18626
G1 X69.297 Y117.785 E13.19443
G1 X69.228 Y116.867 E13.22505
G1 X69.239 Y115.946 E13.25568
G1 X69.286 Y115.376 E13.27471
G1 X69.337 Y114.912 E13.29023
G1 X69.37 Y114.649 E13.29905
G1 X69.408 Y114.368 E13.30848
G1 X69.57 Y113.462 E13.33909
G1 X69.811 Y112.574 E13.36969
G1 X70.035 Y111.942 E13.392
G1 X70.264 Y111.354 E13.41298
G1 X70.399 Y111.023 E13.42487
G1 X70.773 Y110.151 E13.45643
G1 X70.83 Y110.022 E13.46112
G1 X71.336 Y108.884 E13.50254
G1 X72.296 Y106.55 E13.58648
G1 X73.192 Y104.183 E13.67066
G1 X74.17 Y101.325 E13.77113
G1 X74.324 Y100.905 E13.78601
G1 X74.661 Y100.041 E13.81686
G1 X75.032 Y99.199 E13.84746
G1 X75.475 Y98.392 E13.87808
G1 X75.736 Y97.984 E13.89419
G1 X76.114 Y97.421 E13.91674
G1 X76.588 Y96.769 E13.94355
G1 X76.733 Y96.585 E13.95134
G1 X77.334 Y95.887 E13.98198
G1 X77.993 Y95.245 E14.01258
G1 X78.428 Y94.876 E14.03155
G0 F6000 X78.678 Y95.189
G1 F1200 X79.097 Y94.853 E14.04942
G1 X79.37 Y94.641 E14.06091
G1 X79.588 Y94.478 E14.06997
G1 X80.335 Y93.97 E14.10001
G1 X81.288 Y93.449 E14.13614
G1 X81.674 Y93.264 E14.15037
G1 X81.86 Y93.177 E14.1572
G1 X82.947 Y92.683 E14.19691
G1 X84.36 Y91.982 E14.24938
G1 X84.508 Y91.91 E14.25485
G1 X85.75 Y91.319 E14.3006
G1 X86.582 Y90.967 E14.33065
G1 X87.442 Y90.69 E14.3607
G1 X88.323 Y90.491 E14.39074
G1 X89.574 Y90.344 E14.43263
G1 X90.066 Y90.317 E14.44902
G1 X90.448 Y90.304 E14.46173
G1 X91.368 Y90.288 E14.49234
G1 X91.545 Y90.286 E14.49822
G1 X139.484 Y90.286 E16.09268
G1 X139.63 Y90.287 E16.09754
G1 X140.328 Y90.297 E16.12076
G1 X141.23 Y90.35 E16.15081
G1 X142.123 Y90.482 E16.18083
G1 X143.001 Y90.693 E16.21087
G1 X143.857 Y90.981 E16.2409
G1 X144.684 Y91.343 E16.27093
G1 X145.476 Y91.778 E16.30098
G1 X146.227 Y92.28 E16.33103
G1 X146.93 Y92.847 E16.36107
G1 X147.58 Y93.474 E16.39111
G1 X148.172 Y94.156 E16.42114
G1 X148.702 Y94.887 E16.45117
G1 X149.164 Y95.663 E16.48121
G1 X149.557 Y96.476 E16.51125
G1 X149.875 Y97.321 E16.54128
G1 X150.118 Y98.191 E16.57132
G1 X150.283 Y99.079 E16.60136
G1 X150.378 Y100.2 E16.63878
G1 X150.387 Y100.51 E16.64909
G1 X150.391 Y100.806 E16.65894
G1 X150.391 Y109.25 E16.93979
G1 X150.39 Y109.376 E16.94398
G1 X150.381 Y110.103 E16.96816
G1 X150.33 Y111.005 E16.99821
G1 X150.199 Y111.899 E17.02826
G1 X149.99 Y112.777 E17.05828
G1 X149.704 Y113.634 E17.08833
G1 X149.343 Y114.462 E17.11837
G1 X148.911 Y115.254 E17.14838
G1 X148.41 Y116.006 E17.17843
G1 X147.844 Y116.71 E17.20848
G1 X147.219 Y117.361 E17.23849
G1 X146.538 Y117.955 E17.26855
G1 X145.807 Y118.486 E17.2986
G1 X145.033 Y118.95 E17.32861
G1 X144.22 Y119.344 E17.35866
G1 X143.376 Y119.664 E17.38868
G1 X142.506 Y119.909 E17.41875
G1 X141.619 Y120.075 E17.44876
G1 X140.468 Y120.173 E17.48718
G1 X140.147 Y120.182 E17.49786
G1 X139.861 Y120.186 E17.50737
G1 X126.115 Y120.186 E17.96457
G1 X123.509 Y120.223 E18.05125
G1 X120.944 Y120.332 E18.13664
G1 X118.437 Y120.51 E18.22023
G1 X115.896 Y120.761 E18.30516
G1 X113.388 Y121.082 E18.38926
G1 X110.883 Y121.476 E18.4736
G1 X108.396 Y121.938 E18.55773
G1 X105.875 Y122.481 E18.6435
G1 X103.45 Y123.076 E18.72655
G1 X100.984 Y123.753 E18.81161
G1 X98.557 Y124.496 E18.89603
G1 X96.155 Y125.307 E18.98035
G1 X93.742 Y126.197 E19.06589
G1 X91.379 Y127.146 E19.15058
G1 X90.069 Y127.706 E19.19797
G1 X87.855 Y128.674 E19.27834
G1 X87.506 Y128.819 E19.29091
G1 X87.346 Y128.882 E19.29663
G1 X86.492 Y129.175 E19.32666
G1 X85.615 Y129.392 E19.3567
G1 X85.139 Y129.476 E19.37278
G1 X84.572 Y129.562 E19.39186
G1 X84.195 Y129.612 E19.4045
G1 X83.984 Y129.636 E19.41157
G1 X83.083 Y129.698 E19.44161
G1 X82.18 Y129.68 E19.47165
G1 X81.688 Y129.637 E19.48807
G1 X81.147 Y129.576 E19.50618
G1 X80.816 Y129.533 E19.51728
G1 X80.59 Y129.5 E19.52488
G1 X79.703 Y129.33 E19.55492
G1 X78.835 Y129.082 E19.58494
G1 X78.326 Y128.897 E19.60295
G1 X77.803 Y128.691 E19.62165
G1 X77.501 Y128.567 E19.63251
G1 X77.297 Y128.479 E19.6399
G1 X76.484 Y128.085 E19.66995
G1 X75.71 Y127.62 E19.69998
G1 X75.268 Y127.311 E19.71792
G1 X74.833 Y126.989 E19.73592
G1 X74.608 Y126.817 E19.74534
G1 X74.418 Y126.668 E19.75337
G1 X73.732 Y126.08 E19.78342
G1 X73.102 Y125.434 E19.81343
G1 X72.72 Y124.979 E19.83319
G1 X72.383 Y124.554 E19.85123
G1 X72.188 Y124.301 E19.86185
G1 X72.052 Y124.118 E19.86944
G1 X71.546 Y123.37 E19.89947
G1 X71.108 Y122.58 E19.92952
G1 X70.91 Y122.158 E19.94502
G1 X70.708 Y121.701 E19.96164
G1 X70.564 Y121.359 E19.97398
G1 X70.463 Y121.106 E19.98304
G1 X70.166 Y120.253 E20.01308
G1 X69.945 Y119.377 E20.04313
G1 X69.855 Y118.875 E20.0601
G1 X69.771 Y118.329 E20.07847
G1 X69.723 Y117.982 E20.09012
G1 X69.694 Y117.738 E20.09829
G1 X69.628 Y116.837 E20.12834
G1 X69.641 Y115.934 E20.15838
G1 X69.684 Y115.42 E20.17553
G1 X69.735 Y114.956 E20.19106
G1 X69.766 Y114.703 E20.19954
G1 X69.804 Y114.422 E20.20897
G1 X69.965 Y113.533 E20.23902
G1 X70.203 Y112.662 E20.26905
G1 X70.407 Y112.087 E20.28934
G1 X70.636 Y111.499 E20.31033
G1 X70.767 Y111.18 E20.3218
G1 X71.141 Y110.308 E20.35336
G1 X71.195 Y110.184 E20.35785
G1 X71.713 Y109.02 E20.40023
G1 X72.669 Y106.696 E20.48381
G1 X73.571 Y104.31 E20.56865
G1 X74.549 Y101.454 E20.66906
G1 X74.696 Y101.05 E20.68336
G1 X75.033 Y100.186 E20.7142
G1 X75.398 Y99.36 E20.74424
G1 X76.068 Y98.207 E20.78859
G1 X76.446 Y97.644 E20.81115
G1 X76.903 Y97.017 E20.83695
G1 X77.048 Y96.833 E20.84474
G1 X77.637 Y96.149 E20.87476
G1 X78.285 Y95.52 E20.9048
G1 X78.678 Y95.189 E20.92189
G1 F2700 E15.92189
;MESH:tail-wheel-swivel-3.stl
G0 F6000 X82.006 Y112.95
G0 X82.148 Y114.023
G0 X81.267 Y115.812
G0 X81.138 Y116.235
G0 X81.123 Y116.674
G0 X81.22 Y117.105
G0 X81.432 Y117.503
G0 X81.731 Y117.821
G0 X81.945 Y117.955
G0 X82.993 Y118.363
;TYPE:WALL-INNER
G1 F2700 E20.92189
G1 F1200 X83.465 Y118.251 E20.93803
G1 X83.892 Y118.023 E20.95413
G1 X84.246 Y117.691 E20.97027
G1 X84.498 Y117.284 E20.98619
G1 X84.64 Y116.82 E21.00233
G1 X84.657 Y116.335 E21.01847
G1 X84.55 Y115.865 E21.0345
G1 X84.321 Y115.437 E21.05065
G1 X83.991 Y115.081 E21.06679
G1 X83.575 Y114.822 E21.08309
G1 X83.11 Y114.681 E21.09925
G1 X82.625 Y114.666 E21.11539
G1 X82.154 Y114.775 E21.13147
G1 X81.726 Y115.004 E21.14762
G1 X81.373 Y115.337 E21.16376
G1 X81.12 Y115.744 E21.17969
G1 X80.978 Y116.208 E21.19583
G1 X80.961 Y116.69 E21.21188
G1 X81.068 Y117.163 E21.228
G1 X81.3 Y117.597 E21.24437
G1 X81.628 Y117.947 E21.26033
G1 X82.043 Y118.207 E21.27661
G1 X82.508 Y118.346 E21.29276
G1 X82.993 Y118.363 E21.3089
G0 F6000 X82.953 Y117.961
;TYPE:WALL-OUTER
G1 F1200 X83.322 Y117.874 E21.32151
G1 X83.657 Y117.695 E21.33414
G1 X83.934 Y117.435 E21.34678
G1 X84.131 Y117.117 E21.35922
G1 X84.242 Y116.754 E21.37184
G1 X84.255 Y116.373 E21.38452
G1 X84.172 Y116.006 E21.39704
G1 X83.993 Y115.671 E21.40967
G1 X83.734 Y115.392 E21.42233
G1 X83.408 Y115.189 E21.43511
G1 X83.045 Y115.079 E21.44772
G1 X82.665 Y115.067 E21.46037
G1 X82.296 Y115.153 E21.47297
G1 X81.961 Y115.332 E21.4856
