;FLAVOR:Marlin
;TIME:2528
;Filament used: 1.47362m
;Layer height: 0.2
;MINX:68.829
;MINY:89.486
;MINZ:0.2
;MAXX:151.191
;MAXY:130.497
;MAXZ:15
;Generated with Cura_SteamEngine 4.3.0
M140 S50
M105
M190 S50
M104 S200
M105
M109 S200
M82 ;absolute extrusion mode
M201 X500.00 Y500.00 Z100.00 E5000.00 ;Setup machine max acceleration
M203 X500.00 Y500.00 Z10.00 E50.00 ;Setup machine max feedrate
M204 P500.00 R1000.00 T500.00 ;Setup Print/Retract/Travel acceleration
M205 X8.00 Y8.00 Z0.40 E5.00 ;Setup Jerk
M220 S100 ;Reset Feedrate
M221 S100 ;Reset Flowrate

G28 ;Home

G92 E0 ;Reset Extruder
G1 Z2.0 F3000 ;Move Z Axis up
G1 X10.1 Y20 Z0.28 F5000.0 ;Move to start position
G1 X10.1 Y200.0 Z0.28 F1500.0 E15 ;Draw the first line
G1 X10.4 Y200.0 Z0.28 F5000.0 ;Move to side a little
G1 X10.4 Y20 Z0.28 F1500.0 E30 ;Draw the second line
G92 E0 ;Reset Extruder
G1 Z2.0 F3000 ;Move Z Axis up

G92 E0
G92 E0
G1 F2700 E-5
;LAYER_COUNT:75
;LAYER:0
M107
G0 F6000 X78.177 Y94.564 Z0.2
;TYPE:SKIRT
G1 F2700 E0
G1 F1200 X78.596 Y94.228 E0.01786
G1 X78.891 Y94 E0.03026
G1 X79.109 Y93.837 E0.03932
G1 X79.883 Y93.308 E0.0705
G1 X80.942 Y92.727 E0.11067
G1 X81.328 Y92.542 E0.12491
G1 X81.528 Y92.449 E0.13225
G1 X82.589 Y91.966 E0.17102
G1 X84.021 Y91.255 E0.2242
G1 X84.175 Y91.18 E0.22989
G1 X85.45 Y90.571 E0.27689
G1 X86.313 Y90.203 E0.30809
G1 X87.204 Y89.91 E0.33929
G1 X88.116 Y89.694 E0.37046
G1 X89.044 Y89.557 E0.40166
G1 X89.787 Y89.504 E0.42644
G1 X90.059 Y89.494 E0.43549
G1 X90.463 Y89.487 E0.44893
G1 X139.484 Y89.486 E2.07937
G1 X139.642 Y89.487 E2.08463
G1 X140.34 Y89.497 E2.10785
G1 X141.276 Y89.551 E2.13903
G1 X142.204 Y89.683 E2.17021
G1 X143.118 Y89.895 E2.20141
G1 X144.01 Y90.184 E2.2326
G1 X144.875 Y90.547 E2.2638
G1 X145.705 Y90.983 E2.29498
G1 X146.496 Y91.488 E2.3262
G1 X147.24 Y92.059 E2.35739
G1 X147.933 Y92.691 E2.38859
G1 X148.57 Y93.379 E2.41977
G1 X149.145 Y94.12 E2.45097
G1 X149.656 Y94.906 E2.48215
G1 X150.098 Y95.734 E2.51336
G1 X150.467 Y96.596 E2.54455
G1 X150.762 Y97.486 E2.57574
G1 X150.98 Y98.398 E2.60692
G1 X151.12 Y99.326 E2.63814
G1 X151.178 Y100.187 E2.66684
G1 X151.187 Y100.507 E2.67749
G1 X151.191 Y100.816 E2.68777
G1 X151.191 Y109.25 E2.96828
G1 X151.19 Y109.386 E2.97281
G1 X151.181 Y110.113 E2.99699
G1 X151.13 Y111.05 E3.0282
G1 X150.998 Y111.978 E3.05938
G1 X150.789 Y112.892 E3.09056
G1 X150.502 Y113.785 E3.12176
G1 X150.14 Y114.651 E3.15298
G1 X149.706 Y115.482 E3.18416
G1 X149.202 Y116.273 E3.21535
G1 X148.633 Y117.018 E3.24653
G1 X148.002 Y117.713 E3.27775
G1 X147.315 Y118.351 E3.30894
G1 X146.576 Y118.928 E3.34012
G1 X145.79 Y119.44 E3.37132
G1 X144.964 Y119.883 E3.4025
G1 X144.102 Y120.255 E3.43372
G1 X143.213 Y120.551 E3.46489
G1 X142.301 Y120.771 E3.49609
G1 X141.374 Y120.912 E3.52728
G1 X140.494 Y120.973 E3.55661
G1 X140.177 Y120.982 E3.56716
G1 X139.861 Y120.986 E3.57767
G1 X126.166 Y120.981 E4.03317
G1 X123.558 Y121.017 E4.11992
G1 X121.073 Y121.122 E4.20265
G1 X118.542 Y121.3 E4.28704
G1 X116.043 Y121.547 E4.37056
G1 X113.52 Y121.869 E4.45515
G1 X111.051 Y122.256 E4.53828
G1 X108.6 Y122.711 E4.62119
G1 X106.095 Y123.249 E4.70641
G1 X103.719 Y123.831 E4.78777
G1 X101.225 Y124.516 E4.87379
G1 X98.837 Y125.245 E4.95683
G1 X96.457 Y126.047 E5.04037
G1 X94.087 Y126.921 E5.12438
G1 X91.729 Y127.867 E5.20889
G1 X90.32 Y128.469 E5.25985
G1 X88.181 Y129.404 E5.33749
G1 X87.819 Y129.555 E5.35054
G1 X87.652 Y129.621 E5.35651
G1 X86.766 Y129.928 E5.3877
G1 X85.857 Y130.159 E5.41889
G1 X85.259 Y130.267 E5.4391
G1 X84.692 Y130.353 E5.45818
G1 X84.285 Y130.407 E5.47183
G1 X84.074 Y130.431 E5.4789
G1 X83.139 Y130.497 E5.51007
G1 X82.201 Y130.483 E5.54127
G1 X81.599 Y130.432 E5.56137
G1 X81.058 Y130.371 E5.57948
G1 X80.701 Y130.325 E5.59145
G1 X80.475 Y130.292 E5.59904
G1 X79.553 Y130.117 E5.63026
G1 X78.65 Y129.864 E5.66145
G1 X78.033 Y129.642 E5.68326
G1 X77.51 Y129.436 E5.70195
G1 X77.184 Y129.301 E5.71369
G1 X76.98 Y129.213 E5.72108
G1 X76.135 Y128.805 E5.75229
G1 X75.329 Y128.327 E5.78345
G1 X74.792 Y127.954 E5.8052
G1 X74.357 Y127.632 E5.8232
G1 X74.114 Y127.447 E5.83336
G1 X73.924 Y127.298 E5.84139
G1 X73.211 Y126.688 E5.8726
G1 X72.553 Y126.02 E5.90379
G1 X72.093 Y125.476 E5.92748
G1 X71.756 Y125.051 E5.94552
G1 X71.546 Y124.778 E5.95698
G1 X71.41 Y124.595 E5.96456
G1 X70.883 Y123.819 E5.99576
G1 X70.424 Y123.001 E6.02696
G1 X70.178 Y122.481 E6.04609
G1 X69.976 Y122.024 E6.06271
G1 X69.821 Y121.655 E6.07602
G1 X69.72 Y121.402 E6.08508
G1 X69.41 Y120.517 E6.11627
G1 X69.176 Y119.609 E6.14746
G1 X69.064 Y118.997 E6.16815
G1 X68.98 Y118.451 E6.18652
G1 X68.929 Y118.076 E6.19911
G1 X68.9 Y117.832 E6.20728
G1 X68.829 Y116.897 E6.23847
G1 X68.838 Y115.959 E6.26967
G1 X68.889 Y115.332 E6.29059
G1 X68.94 Y114.868 E6.30612
G1 X68.973 Y114.596 E6.31523
G1 X69.011 Y114.315 E6.32466
G1 X69.176 Y113.392 E6.35585
G1 X69.42 Y112.486 E6.38706
G1 X69.662 Y111.797 E6.41135
G1 X69.891 Y111.209 E6.43233
G1 X70.032 Y110.865 E6.4447
G1 X70.406 Y109.993 E6.47626
G1 X70.464 Y109.859 E6.48111
G1 X70.977 Y108.706 E6.52309
G1 X71.928 Y106.393 E6.60627
G1 X72.815 Y104.049 E6.68962
G1 X73.792 Y101.195 E6.78995
G1 X73.951 Y100.76 E6.80536
G1 X74.288 Y99.896 E6.8362
G1 X74.666 Y99.037 E6.86742
G1 X75.115 Y98.214 E6.8986
G1 X75.403 Y97.761 E6.91645
G1 X75.781 Y97.198 E6.93901
G1 X76.274 Y96.522 E6.96684
G1 X76.419 Y96.338 E6.97463
G1 X77.031 Y95.626 E7.00586
G1 X77.7 Y94.97 E7.03702
G1 X78.177 Y94.564 E7.05785
G0 F6000 X78.428 Y94.876
G1 F1200 X78.847 Y94.54 E7.07572
G1 X79.13 Y94.321 E7.08762
G1 X79.348 Y94.158 E7.09667
G1 X80.109 Y93.639 E7.12731
G1 X81.115 Y93.088 E7.16546
G1 X81.501 Y92.903 E7.1797
G1 X81.694 Y92.813 E7.18678
G1 X82.755 Y92.331 E7.22554
G1 X84.199 Y91.613 E7.27918
G1 X84.347 Y91.541 E7.28465
G1 X85.622 Y90.932 E7.33165
G1 X86.47 Y90.572 E7.36229
G1 X87.345 Y90.286 E7.3929
G1 X88.242 Y90.078 E7.42353
G1 X89.153 Y89.948 E7.45414
G1 X89.802 Y89.904 E7.47577
G1 X90.074 Y89.894 E7.48483
G1 X90.463 Y89.887 E7.49777
G1 X139.484 Y89.886 E9.12821
G1 X139.636 Y89.887 E9.13327
G1 X140.334 Y89.897 E9.15648
G1 X141.253 Y89.95 E9.1871
G1 X142.164 Y90.083 E9.21772
G1 X143.06 Y90.294 E9.24834
G1 X143.934 Y90.582 E9.27895
G1 X144.781 Y90.945 E9.30959
G1 X145.592 Y91.38 E9.3402
G1 X146.362 Y91.884 E9.37081
G1 X147.086 Y92.453 E9.40144
G1 X147.758 Y93.083 E9.43208
G1 X148.373 Y93.768 E9.4627
G1 X148.926 Y94.504 E9.49331
G1 X149.413 Y95.285 E9.52393
G1 X149.83 Y96.106 E9.55455
G1 X150.175 Y96.96 E9.58519
G1 X150.444 Y97.84 E9.61579
G1 X150.636 Y98.741 E9.64643
G1 X150.749 Y99.654 E9.67703
G1 X150.778 Y100.198 E9.69515
G1 X150.787 Y100.518 E9.7058
G1 X150.791 Y100.816 E9.71571
G1 X150.791 Y109.25 E9.99623
G1 X150.79 Y109.381 E10.00058
G1 X150.781 Y110.108 E10.02477
G1 X150.73 Y111.027 E10.05538
G1 X150.599 Y111.939 E10.08602
G1 X150.389 Y112.835 E10.11663
G1 X150.103 Y113.71 E10.14725
G1 X149.742 Y114.557 E10.17787
G1 X149.308 Y115.369 E10.2085
G1 X148.806 Y116.141 E10.23913
G1 X148.238 Y116.866 E10.26976
G1 X147.61 Y117.539 E10.30037
G1 X146.926 Y118.155 E10.33099
G1 X146.191 Y118.709 E10.3616
G1 X145.411 Y119.198 E10.39222
G1 X144.591 Y119.617 E10.42285
G1 X143.738 Y119.963 E10.45347
G1 X142.858 Y120.234 E10.48409
G1 X141.958 Y120.427 E10.51471
G1 X141.044 Y120.542 E10.54534
G1 X140.483 Y120.573 E10.56403
G1 X140.166 Y120.582 E10.57458
G1 X139.861 Y120.586 E10.58473
G1 X126.161 Y120.581 E11.04039
G1 X123.571 Y120.617 E11.12654
G1 X121.028 Y120.724 E11.2112
G1 X118.511 Y120.901 E11.29512
G1 X115.99 Y121.15 E11.37938
G1 X113.474 Y121.471 E11.46374
G1 X110.987 Y121.861 E11.54747
G1 X108.515 Y122.32 E11.63109
G1 X106.021 Y122.856 E11.71593
G1 X103.589 Y123.451 E11.79921
G1 X101.14 Y124.124 E11.88368
G1 X98.709 Y124.867 E11.96823
G1 X96.317 Y125.673 E12.05218
G1 X93.948 Y126.546 E12.13616
G1 X91.564 Y127.503 E12.2216
G1 X90.245 Y128.066 E12.2693
G1 X88.021 Y129.038 E12.35002
G1 X87.672 Y129.183 E12.36259
G1 X87.505 Y129.249 E12.36857
G1 X86.635 Y129.55 E12.39919
G1 X85.742 Y129.774 E12.42981
G1 X85.199 Y129.871 E12.44815
G1 X84.632 Y129.957 E12.46723
G1 X84.24 Y130.009 E12.48038
G1 X84.029 Y130.033 E12.48744
G1 X83.111 Y130.097 E12.51805
G1 X82.19 Y130.082 E12.54869
G1 X81.643 Y130.034 E12.56695
G1 X81.102 Y129.973 E12.58506
G1 X80.758 Y129.929 E12.59659
G1 X80.532 Y129.896 E12.60419
G1 X79.628 Y129.723 E12.6348
G1 X78.742 Y129.473 E12.66542
G1 X78.179 Y129.27 E12.68533
G1 X77.656 Y129.064 E12.70402
G1 X77.342 Y128.934 E12.71533
G1 X77.138 Y128.846 E12.72272
G1 X76.31 Y128.445 E12.75331
G1 X75.519 Y127.974 E12.78393
G1 X75.03 Y127.633 E12.80376
G1 X74.595 Y127.311 E12.82176
G1 X74.361 Y127.132 E12.83156
G1 X74.171 Y126.983 E12.83959
G1 X73.472 Y126.384 E12.87021
G1 X72.827 Y125.727 E12.90083
G1 X72.406 Y125.228 E12.92255
G1 X72.069 Y124.803 E12.94059
G1 X71.867 Y124.54 E12.95162
G1 X71.731 Y124.357 E12.9592
G1 X71.215 Y123.595 E12.98981
G1 X70.766 Y122.791 E13.02044
G1 X70.544 Y122.319 E13.03779
G1 X70.342 Y121.862 E13.0544
G1 X70.192 Y121.507 E13.06722
G1 X70.091 Y121.254 E13.07628
G1 X69.788 Y120.385 E13.10689
G1 X69.56 Y119.493 E13.13751
G1 X69.459 Y118.936 E13.15634
G1 X69.375 Y118.39 E13.17472
G1 X69.326 Y118.029 E13.18683
G1 X69.297 Y117.785 E13.19501
G1 X69.228 Y116.867 E13.22562
G1 X69.239 Y115.946 E13.25626
G1 X69.286 Y115.376 E13.27528
G1 X69.337 Y114.912 E13.29081
G1 X69.37 Y114.649 E13.29962
G1 X69.408 Y114.368 E13.30905
G1 X69.57 Y113.462 E13.33967
G1 X69.811 Y112.574 E13.37027
G1 X70.035 Y111.942 E13.39257
G1 X70.264 Y111.354 E13.41356
G1 X70.399 Y111.023 E13.42545
G1 X70.773 Y110.151 E13.45701
G1 X70.83 Y110.022 E13.4617
G1 X71.336 Y108.884 E13.50312
G1 X72.296 Y106.55 E13.58706
G1 X73.192 Y104.183 E13.67124
G1 X74.17 Y101.325 E13.77171
G1 X74.324 Y100.905 E13.78659
G1 X74.661 Y100.041 E13.81743
G1 X75.032 Y99.199 E13.84803
G1 X75.475 Y98.392 E13.87865
G1 X75.736 Y97.984 E13.89476
G1 X76.114 Y97.421 E13.91732
G1 X76.588 Y96.769 E13.94413
G1 X76.733 Y96.585 E13.95192
G1 X77.334 Y95.887 E13.98256
G1 X77.993 Y95.245 E14.01316
G1 X78.428 Y94.876 E14.03213
G0 F6000 X78.678 Y95.189
G1 F1200 X79.097 Y94.853 E14.04999
G1 X79.37 Y94.641 E14.06149
G1 X79.588 Y94.478 E14.07054
G1 X80.335 Y93.97 E14.10059
G1 X81.288 Y93.449 E14.13671
G1 X81.674 Y93.264 E14.15095
G1 X81.86 Y93.177 E14.15778
G1 X82.92 Y92.695 E14.19651
G1 X84.377 Y91.971 E14.25062
G1 X84.52 Y91.902 E14.2559
G1 X85.795 Y91.293 E14.3029
G1 X86.626 Y90.94 E14.33293
G1 X87.485 Y90.662 E14.36296
G1 X88.366 Y90.462 E14.393
G1 X89.261 Y90.34 E14.42305
G1 X89.816 Y90.304 E14.44155
G1 X90.088 Y90.294 E14.4506
G1 X90.463 Y90.287 E14.46307
G1 X139.484 Y90.286 E16.09352
G1 X139.63 Y90.287 E16.09837
G1 X140.328 Y90.297 E16.12159
G1 X141.23 Y90.35 E16.15164
G1 X142.123 Y90.482 E16.18167
G1 X143.001 Y90.693 E16.2117
G1 X143.857 Y90.981 E16.24174
G1 X144.684 Y91.343 E16.27177
G1 X145.476 Y91.778 E16.30182
G1 X146.227 Y92.28 E16.33187
G1 X146.93 Y92.847 E16.3619
G1 X147.58 Y93.474 E16.39194
G1 X148.172 Y94.156 E16.42198
G1 X148.702 Y94.887 E16.45201
G1 X149.164 Y95.663 E16.48205
G1 X149.557 Y96.476 E16.51208
G1 X149.875 Y97.321 E16.54211
G1 X150.118 Y98.191 E16.57216
G1 X150.283 Y99.079 E16.6022
G1 X150.378 Y100.209 E16.63991
G1 X150.387 Y100.529 E16.65056
G1 X150.391 Y100.816 E16.66011
G1 X150.391 Y109.25 E16.94062
G1 X150.39 Y109.376 E16.94481
G1 X150.381 Y110.103 E16.969
G1 X150.33 Y111.005 E16.99904
G1 X150.199 Y111.899 E17.0291
G1 X149.99 Y112.777 E17.05911
G1 X149.704 Y113.634 E17.08916
G1 X149.343 Y114.462 E17.11921
G1 X148.911 Y115.254 E17.14921
G1 X148.41 Y116.006 E17.17927
G1 X147.844 Y116.71 E17.20931
G1 X147.219 Y117.361 E17.23933
G1 X146.538 Y117.955 E17.26938
G1 X145.807 Y118.486 E17.29943
G1 X145.033 Y118.95 E17.32945
G1 X144.22 Y119.344 E17.3595
G1 X143.376 Y119.664 E17.38952
G1 X142.506 Y119.909 E17.41958
G1 X141.619 Y120.075 E17.44959
G1 X140.471 Y120.173 E17.48792
G1 X140.154 Y120.182 E17.49846
G1 X139.861 Y120.186 E17.50821
G1 X126.156 Y120.181 E17.96404
G1 X123.548 Y120.217 E18.05079
G1 X121.019 Y120.323 E18.13498
G1 X118.476 Y120.503 E18.21977
G1 X115.936 Y120.754 E18.30466
G1 X113.433 Y121.073 E18.38859
G1 X110.924 Y121.466 E18.47305
G1 X108.395 Y121.936 E18.55861
G1 X105.947 Y122.462 E18.64189
G1 X103.494 Y123.062 E18.72588
G1 X101.022 Y123.742 E18.81115
G1 X98.601 Y124.481 E18.89534
G1 X96.198 Y125.29 E18.97968
G1 X93.81 Y126.171 E19.06433
G1 X91.384 Y127.145 E19.15128
G1 X90.059 Y127.71 E19.19919
G1 X87.861 Y128.671 E19.27898
G1 X87.525 Y128.811 E19.29109
G1 X87.358 Y128.877 E19.29706
G1 X86.504 Y129.171 E19.3271
G1 X85.628 Y129.389 E19.35712
G1 X85.139 Y129.476 E19.37364
G1 X84.572 Y129.562 E19.39272
G1 X84.195 Y129.612 E19.40537
G1 X83.984 Y129.636 E19.41243
G1 X83.083 Y129.698 E19.44247
G1 X82.18 Y129.68 E19.47251
G1 X81.688 Y129.637 E19.48893
G1 X81.147 Y129.576 E19.50704
G1 X80.816 Y129.533 E19.51814
G1 X80.59 Y129.5 E19.52574
G1 X79.703 Y129.33 E19.55578
G1 X78.835 Y129.082 E19.5858
G1 X78.326 Y128.897 E19.60382
G1 X77.803 Y128.691 E19.62251
G1 X77.501 Y128.567 E19.63337
G1 X77.297 Y128.479 E19.64076
G1 X76.484 Y128.085 E19.67081
G1 X75.71 Y127.62 E19.70084
G1 X75.268 Y127.311 E19.71878
G1 X74.833 Y126.989 E19.73678
G1 X74.608 Y126.817 E19.7462
G1 X74.418 Y126.668 E19.75423
G1 X73.732 Y126.08 E19.78428
G1 X73.102 Y125.434 E19.81429
G1 X72.72 Y124.979 E19.83405
G1 X72.383 Y124.554 E19.85209
G1 X72.188 Y124.301 E19.86272
G1 X72.052 Y124.118 E19.8703
G1 X71.546 Y123.37 E19.90034
G1 X71.108 Y122.58 E19.93038
G1 X70.91 Y122.158 E19.94588
G1 X70.708 Y121.701 E19.9625
G1 X70.564 Y121.359 E19.97484
G1 X70.463 Y121.106 E19.98391
G1 X70.166 Y120.253 E20.01395
G1 X69.945 Y119.377 E20.044
G1 X69.855 Y118.875 E20.06096
G1 X69.771 Y118.329 E20.07933
G1 X69.723 Y117.982 E20.09098
G1 X69.694 Y117.738 E20.09916
G1 X69.628 Y116.837 E20.1292
G1 X69.641 Y115.934 E20.15924
G1 X69.684 Y115.42 E20.1764
G1 X69.735 Y114.956 E20.19192
G1 X69.766 Y114.703 E20.2004
G1 X69.804 Y114.422 E20.20983
G1 X69.965 Y113.533 E20.23988
G1 X70.203 Y112.662 E20.26991
G1 X70.407 Y112.087 E20.2902
G1 X70.636 Y111.499 E20.31119
G1 X70.767 Y111.18 E20.32266
G1 X71.141 Y110.308 E20.35422
G1 X71.195 Y110.184 E20.35872
G1 X71.713 Y109.02 E20.40109
G1 X72.669 Y106.696 E20.48467
G1 X73.571 Y104.31 E20.56951
G1 X74.549 Y101.454 E20.66992
G1 X74.696 Y101.05 E20.68422
G1 X75.033 Y100.186 E20.71506
G1 X75.398 Y99.36 E20.7451
G1 X76.068 Y98.207 E20.78945
G1 X76.446 Y97.644 E20.81201
G1 X76.903 Y97.017 E20.83781
G1 X77.048 Y96.833 E20.84561
G1 X77.637 Y96.149 E20.87563
G1 X78.285 Y95.52 E20.90566
G1 X78.678 Y95.189 E20.92275
G1 F2700 E15.92275
;MESH:tail-wheel-swivel.stl
G0 F6000 X82.006 Y112.95
G0 X82.148 Y114.023
G0 X81.267 Y115.812
G0 X81.138 Y116.235
G0 X81.123 Y116.674
G0 X81.22 Y117.105
G0 X81.432 Y117.503
G0 X81.731 Y117.821
G0 X81.945 Y117.955
G0 X82.993 Y118.363
;TYPE:WALL-INNER
G1 F2700 E20.92275
G1 F1200 X83.465 Y118.251 E20.93889
G1 X83.892 Y118.023 E20.95499
G1 X84.246 Y117.691 E20.97113
G1 X84.498 Y117.284 E20.98705
G1 X84.64 Y116.82 E21.00319
G1 X84.657 Y116.335 E21.01933
G1 X84.55 Y115.865 E21.03536
G1 X84.321 Y115.437 E21.05151
G1 X83.991 Y115.081 E21.06765
G1 X83.575 Y114.822 E21.08395
G1 X83.11 Y114.681 E21.10011
G1 X82.625 Y114.666 E21.11625
G1 X82.154 Y114.775 E21.13233
G1 X81.726 Y115.004 E21.14848
G1 X81.373 Y115.337 E21.16462
G1 X81.12 Y115.744 E21.18056
G1 X80.978 Y116.208 E21.1967
G1 X80.961 Y116.69 E21.21274
G1 X81.068 Y117.163 E21.22887
G1 X81.3 Y117.597 E21.24524
G1 X81.628 Y117.947 E21.26119
G1 X82.043 Y118.207 E21.27748
G1 X82.508 Y118.346 E21.29362
G1 X82.993 Y118.363 E21.30976
G0 F6000 X82.953 Y117.961
;TYPE:WALL-OUTER
G1 F1200 X83.322 Y117.874 E21.32237
G1 X83.657 Y117.695 E21.335
G1 X83.934 Y117.435 E21.34764
G1 X84.131 Y117.117 E21.36008
G1 X84.242 Y116.754 E21.37271
G1 X84.255 Y116.373 E21.38539
G1 X84.172 Y116.006 E21.3979
G1 X83.993 Y115.671 E21.41053
G1 X83.734 Y115.392 E21.4232
G1 X83.408 Y115.189 E21.43597
G1 X83.045 Y115.079 E21.44858
G1 X82.665 Y115.067 E21.46123
G1 X82.296 Y115.153 E21.47383
G1 X81.961 Y115.332 E21.48646
G1 X81.685 Y115.592 E21.49908
G1 X81.487 Y115.911 E21.51156
G1 X81.376 Y116.274 E21.52419
G1 X81.363 Y116.652 E21.53677
