;FLAVOR:Marlin
;TIME:7122
;Filament used: 4.20287m
;Layer height: 0.2
;MINX:37.015
;MINY:37.015
;MINZ:0.2
;MAXX:182.985
;MAXY:182.985
;MAXZ:4
;Generated with Cura_SteamEngine 4.3.0
M140 S50
M105
M190 S50
M104 S200
M105
M109 S200
M82 ;absolute extrusion mode
M201 X500.00 Y500.00 Z100.00 E5000.00 ;Setup machine max acceleration
M203 X500.00 Y500.00 Z10.00 E50.00 ;Setup machine max feedrate
M204 P500.00 R1000.00 T500.00 ;Setup Print/Retract/Travel acceleration
M205 X8.00 Y8.00 Z0.40 E5.00 ;Setup Jerk
M220 S100 ;Reset Feedrate
M221 S100 ;Reset Flowrate

G28 ;Home

G92 E0 ;Reset Extruder
G1 Z2.0 F3000 ;Move Z Axis up
G1 X10.1 Y20 Z0.28 F5000.0 ;Move to start position
G1 X10.1 Y200.0 Z0.28 F1500.0 E15 ;Draw the first line
G1 X10.4 Y200.0 Z0.28 F5000.0 ;Move to side a little
G1 X10.4 Y20 Z0.28 F1500.0 E30 ;Draw the second line
G92 E0 ;Reset Extruder
G1 Z2.0 F3000 ;Move Z Axis up

G92 E0
G92 E0
G1 F2700 E-5
;LAYER_COUNT:20
;LAYER:0
M107
G0 F6000 X58.167 Y58.616 Z0.2
;TYPE:SKIRT
G1 F2700 E0
G1 F1200 X58.839 Y57.962 E0.03119
G1 X59.565 Y57.368 E0.06239
G1 X60.057 Y57.02 E0.08243
G1 X61.07 Y56.343 E0.12296
G1 X63.36 Y54.774 E0.21528
G1 X65.404 Y53.281 E0.29947
G1 X67.38 Y51.752 E0.38257
G1 X69.354 Y50.131 E0.46753
G1 X70.797 Y48.886 E0.53092
G1 X71.714 Y48.078 E0.57157
G1 X72.443 Y47.489 E0.60274
G1 X73.22 Y46.963 E0.63395
G1 X74.039 Y46.506 E0.66514
G1 X74.894 Y46.121 E0.69633
G1 X75.416 Y45.927 E0.71485
G1 X77.275 Y45.289 E0.78022
G1 X79.696 Y44.417 E0.86581
G1 X82.025 Y43.502 E0.94903
G1 X84.383 Y42.497 E1.03429
G1 X86.695 Y41.434 E1.11892
G1 X87.926 Y40.835 E1.16446
G1 X89.064 Y40.271 E1.2067
G1 X89.921 Y39.89 E1.23789
G1 X90.807 Y39.584 E1.26907
G1 X91.717 Y39.355 E1.30028
G1 X92.642 Y39.203 E1.33146
G1 X93.244 Y39.148 E1.35156
G1 X94.798 Y39.048 E1.40336
G1 X97.368 Y38.84 E1.48912
G1 X99.882 Y38.565 E1.57323
G1 X102.353 Y38.225 E1.65619
G1 X104.89 Y37.801 E1.74174
G1 X106.656 Y37.464 E1.80154
G1 X107.836 Y37.227 E1.84157
G1 X108.763 Y37.081 E1.87278
G1 X109.698 Y37.015 E1.90396
G1 X110.636 Y37.029 E1.93516
G1 X111.569 Y37.123 E1.96635
G1 X112.144 Y37.221 E1.98575
G1 X113.54 Y37.498 E2.03308
G1 X113.588 Y37.508 E2.03472
G1 X114.077 Y37.607 E2.05131
G1 X116.557 Y38.052 E2.13511
G1 X119.045 Y38.425 E2.21879
G1 X121.555 Y38.73 E2.30289
G1 X124.125 Y38.969 E2.38873
G1 X125.433 Y39.062 E2.43235
G1 X126.748 Y39.146 E2.47617
G1 X127.681 Y39.246 E2.50738
G1 X128.601 Y39.425 E2.53856
G1 X129.504 Y39.681 E2.56977
G1 X130.381 Y40.014 E2.60097
G1 X130.916 Y40.26 E2.62056
G1 X132.716 Y41.148 E2.68732
G1 X135.027 Y42.232 E2.77222
G1 X137.36 Y43.247 E2.85684
G1 X139.688 Y44.184 E2.9403
G1 X142.068 Y45.059 E3.02464
G1 X143.271 Y45.474 E3.06697
G1 X144.499 Y45.888 E3.11007
G1 X145.374 Y46.226 E3.14127
G1 X146.218 Y46.636 E3.17248
G1 X147.023 Y47.117 E3.20367
G1 X147.784 Y47.665 E3.23486
G1 X148.205 Y48.013 E3.25303
G1 X149.049 Y48.747 E3.29023
G1 X151.147 Y50.551 E3.38226
G1 X153.108 Y52.137 E3.46614
G1 X155.119 Y53.672 E3.55029
G1 X157.146 Y55.13 E3.63333
G1 X158.934 Y56.349 E3.70531
G1 X159.92 Y57.004 E3.74468
G1 X160.678 Y57.556 E3.77587
G1 X161.387 Y58.17 E3.80706
G1 X162.041 Y58.842 E3.83825
G1 X162.635 Y59.568 E3.86945
G1 X162.983 Y60.059 E3.88947
G1 X163.662 Y61.075 E3.93011
G1 X165.254 Y63.399 E4.0238
G1 X166.693 Y65.369 E4.10495
G1 X168.262 Y67.397 E4.19023
G1 X169.868 Y69.353 E4.2744
G1 X171.114 Y70.797 E4.33784
G1 X171.922 Y71.714 E4.37849
G1 X172.511 Y72.443 E4.40966
G1 X173.037 Y73.22 E4.44087
G1 X173.494 Y74.039 E4.47206
G1 X173.879 Y74.894 E4.50325
G1 X174.073 Y75.416 E4.52177
G1 X174.711 Y77.275 E4.58714
G1 X175.583 Y79.696 E4.67273
G1 X176.498 Y82.025 E4.75596
G1 X177.503 Y84.383 E4.84121
G1 X178.566 Y86.695 E4.92585
G1 X179.161 Y87.919 E4.97111
G1 X179.729 Y89.064 E5.01362
G1 X180.11 Y89.921 E5.04482
G1 X180.416 Y90.807 E5.07599
G1 X180.645 Y91.717 E5.1072
G1 X180.797 Y92.642 E5.13838
G1 X180.852 Y93.244 E5.15849
G1 X180.952 Y94.798 E5.21028
G1 X181.16 Y97.368 E5.29604
G1 X181.435 Y99.882 E5.38015
G1 X181.775 Y102.353 E5.46311
G1 X182.199 Y104.89 E5.54866
G1 X182.536 Y106.656 E5.60846
G1 X182.773 Y107.836 E5.64849
G1 X182.919 Y108.763 E5.67971
G1 X182.985 Y109.698 E5.71088
G1 X182.971 Y110.636 E5.74208
G1 X182.877 Y111.569 E5.77327
G1 X182.776 Y112.158 E5.79315
G1 X182.394 Y114.07 E5.858
G1 X181.948 Y116.557 E5.94203
G1 X181.575 Y119.045 E6.02571
G1 X181.27 Y121.555 E6.10981
G1 X181.031 Y124.125 E6.19566
G1 X180.938 Y125.428 E6.2391
G1 X180.855 Y126.738 E6.28276
G1 X180.756 Y127.67 E6.31393
G1 X180.578 Y128.591 E6.34513
G1 X180.322 Y129.493 E6.37632
G1 X179.99 Y130.37 E6.40751
G1 X179.744 Y130.905 E6.42709
G1 X178.852 Y132.715 E6.49421
G1 X177.768 Y135.027 E6.57914
G1 X176.753 Y137.36 E6.66376
G1 X175.816 Y139.688 E6.74723
G1 X174.941 Y142.068 E6.83157
G1 X174.526 Y143.271 E6.87389
G1 X174.112 Y144.499 E6.91699
G1 X173.774 Y145.374 E6.94819
G1 X173.364 Y146.218 E6.9794
G1 X172.883 Y147.023 E7.01059
G1 X172.335 Y147.784 E7.04178
G1 X171.987 Y148.205 E7.05995
G1 X171.244 Y149.059 E7.0976
G1 X169.432 Y151.167 E7.19005
G1 X167.878 Y153.087 E7.27221
G1 X166.328 Y155.119 E7.35721
G1 X164.856 Y157.165 E7.44104
G1 X163.677 Y158.894 E7.51065
G1 X162.996 Y159.92 E7.5516
G1 X162.444 Y160.678 E7.58279
G1 X161.83 Y161.387 E7.61399
G1 X161.158 Y162.041 E7.64517
G1 X160.432 Y162.635 E7.67637
G1 X159.941 Y162.983 E7.69639
G1 X158.849 Y163.712 E7.74006
G1 X156.64 Y165.226 E7.82913
G1 X154.596 Y166.719 E7.91332
G1 X152.62 Y168.248 E7.99642
G1 X150.646 Y169.869 E8.08138
G1 X149.228 Y171.092 E8.14366
G1 X148.286 Y171.922 E8.18541
G1 X147.557 Y172.511 E8.21659
G1 X146.78 Y173.037 E8.24779
G1 X145.961 Y173.494 E8.27899
G1 X145.106 Y173.879 E8.31018
G1 X144.584 Y174.073 E8.3287
G1 X142.725 Y174.711 E8.39407
G1 X140.304 Y175.583 E8.47966
G1 X137.975 Y176.498 E8.56288
G1 X135.617 Y177.503 E8.64814
G1 X133.305 Y178.566 E8.73277
G1 X132.081 Y179.161 E8.77804
G1 X130.936 Y179.729 E8.82055
G1 X130.079 Y180.11 E8.85174
G1 X129.193 Y180.416 E8.88292
G1 X128.283 Y180.645 E8.91413
G1 X127.358 Y180.797 E8.94531
G1 X126.756 Y180.852 E8.96541
G1 X125.202 Y180.952 E9.01721
G1 X122.632 Y181.16 E9.10296
G1 X120.118 Y181.435 E9.18708
G1 X117.647 Y181.775 E9.27004
G1 X115.11 Y182.199 E9.35559
G1 X113.344 Y182.536 E9.41539
G1 X112.164 Y182.773 E9.45542
G1 X111.237 Y182.919 E9.48663
G1 X110.302 Y182.985 E9.51781
G1 X109.364 Y182.971 E9.54901
G1 X108.431 Y182.877 E9.5802
G1 X107.842 Y182.776 E9.60007
G1 X105.93 Y182.394 E9.66492
G1 X103.443 Y181.948 E9.74896
G1 X100.955 Y181.575 E9.83264
G1 X98.445 Y181.27 E9.91673
G1 X95.875 Y181.031 E10.00258
G1 X94.566 Y180.938 E10.04623
G1 X93.262 Y180.855 E10.08969
G1 X92.33 Y180.756 E10.12086
G1 X91.409 Y180.578 E10.15206
G1 X90.507 Y180.322 E10.18324
G1 X89.63 Y179.99 E10.21443
G1 X89.095 Y179.744 E10.23402
G1 X87.285 Y178.852 E10.30113
G1 X84.973 Y177.768 E10.38606
G1 X82.64 Y176.753 E10.47069
G1 X80.312 Y175.816 E10.55415
G1 X77.932 Y174.941 E10.63849
G1 X76.729 Y174.526 E10.68082
G1 X75.501 Y174.112 E10.72392
G1 X74.626 Y173.774 E10.75512
G1 X73.782 Y173.364 E10.78633
G1 X72.977 Y172.883 E10.81752
G1 X72.216 Y172.335 E10.84871
G1 X71.795 Y171.987 E10.86687
G1 X70.941 Y171.244 E10.90452
G1 X68.833 Y169.432 E10.99698
G1 X66.913 Y167.878 E11.07913
G1 X64.879 Y166.326 E11.16423
G1 X62.835 Y164.856 E11.24797
G1 X61.106 Y163.677 E11.31757
G1 X60.08 Y162.996 E11.35853
G1 X59.322 Y162.444 E11.38972
G1 X58.613 Y161.83 E11.42091
G1 X57.959 Y161.158 E11.4521
G1 X57.365 Y160.432 E11.4833
G1 X57.017 Y159.94 E11.50334
G1 X56.338 Y158.924 E11.54399
G1 X54.763 Y156.625 E11.63668
G1 X53.281 Y154.596 E11.72025
G1 X51.752 Y152.62 E11.80334
G1 X50.131 Y150.646 E11.8883
G1 X48.886 Y149.203 E11.95169
G1 X48.078 Y148.286 E11.99234
G1 X47.489 Y147.557 E12.02351
G1 X46.963 Y146.78 E12.05472
G1 X46.506 Y145.961 E12.08591
G1 X46.121 Y145.106 E12.1171
G1 X45.927 Y144.584 E12.13562
G1 X45.302 Y142.761 E12.19972
G1 X44.418 Y140.308 E12.28644
G1 X43.492 Y137.952 E12.37064
G1 X42.497 Y135.617 E12.45506
G1 X41.434 Y133.305 E12.5397
G1 X40.839 Y132.081 E12.58496
G1 X40.271 Y130.936 E12.62747
G1 X39.89 Y130.079 E12.65867
G1 X39.584 Y129.193 E12.68984
G1 X39.355 Y128.283 E12.72105
G1 X39.203 Y127.358 E12.75223
G1 X39.148 Y126.756 E12.77234
G1 X39.048 Y125.202 E12.82413
G1 X38.84 Y122.628 E12.91002
G1 X38.566 Y120.125 E12.99377
G1 X38.224 Y117.637 E13.0773
G1 X37.804 Y115.124 E13.16204
G1 X37.464 Y113.345 E13.22228
G1 X37.227 Y112.164 E13.26234
G1 X37.081 Y111.237 E13.29356
G1 X37.015 Y110.302 E13.32473
G1 X37.029 Y109.364 E13.35593
G1 X37.123 Y108.431 E13.38712
G1 X37.224 Y107.842 E13.407
G1 X37.606 Y105.93 E13.47185
G1 X38.052 Y103.443 E13.55589
G1 X38.425 Y100.955 E13.63956
G1 X38.73 Y98.445 E13.72366
G1 X38.969 Y95.875 E13.80951
G1 X39.062 Y94.566 E13.85315
G1 X39.145 Y93.262 E13.89661
G1 X39.244 Y92.33 E13.92779
G1 X39.422 Y91.409 E13.95898
G1 X39.678 Y90.507 E13.99017
G1 X40.01 Y89.63 E14.02136
G1 X40.256 Y89.095 E14.04094
G1 X41.148 Y87.285 E14.10806
G1 X42.232 Y84.973 E14.19299
G1 X43.247 Y82.64 E14.27761
G1 X44.184 Y80.312 E14.36108
G1 X45.059 Y77.932 E14.44542
G1 X45.474 Y76.729 E14.48774
G1 X45.888 Y75.501 E14.53084
G1 X46.226 Y74.626 E14.56204
G1 X46.636 Y73.782 E14.59325
G1 X47.117 Y72.977 E14.62444
G1 X47.665 Y72.216 E14.65563
G1 X48.013 Y71.795 E14.6738
G1 X48.756 Y70.941 E14.71145
G1 X50.568 Y68.833 E14.8039
G1 X52.122 Y66.913 E14.88606
G1 X53.672 Y64.881 E14.97106
G1 X55.144 Y62.835 E15.05489
G1 X56.302 Y61.136 E15.12328
G1 X57.001 Y60.083 E15.16532
G1 X57.553 Y59.325 E15.1965
G1 X58.167 Y58.616 E15.2277
G0 F6000 X58.481 Y58.866
G1 F1200 X59.144 Y58.227 E15.25832
G1 X59.859 Y57.647 E15.28895
G1 X60.279 Y57.352 E15.30602
G1 X61.334 Y56.647 E15.34822
G1 X63.593 Y55.099 E15.4393
G1 X65.639 Y53.604 E15.52358
G1 X67.634 Y52.061 E15.60747
G1 X69.609 Y50.439 E15.69247
G1 X71.039 Y49.205 E15.75529
G1 X71.978 Y48.378 E15.79691
G1 X72.694 Y47.8 E15.82752
G1 X73.458 Y47.286 E15.85814
G1 X74.264 Y46.841 E15.88876
G1 X75.105 Y46.467 E15.91938
G1 X75.546 Y46.305 E15.935
G1 X77.394 Y45.671 E15.99998
G1 X79.841 Y44.789 E16.0865
G1 X82.191 Y43.866 E16.17047
G1 X84.528 Y42.87 E16.25497
G1 X86.84 Y41.807 E16.3396
G1 X88.171 Y41.16 E16.38882
G1 X89.241 Y40.629 E16.42855
G1 X90.083 Y40.256 E16.45918
G1 X90.954 Y39.958 E16.4898
G1 X91.848 Y39.736 E16.52044
G1 X92.757 Y39.593 E16.55104
G1 X93.27 Y39.547 E16.56818
G1 X94.854 Y39.445 E16.62097
G1 X97.407 Y39.238 E16.70616
G1 X99.913 Y38.965 E16.79
G1 X102.437 Y38.617 E16.87475
G1 X104.944 Y38.198 E16.95929
G1 X106.731 Y37.857 E17.01979
G1 X107.915 Y37.619 E17.05996
G1 X108.824 Y37.477 E17.09056
G1 X109.743 Y37.414 E17.1212
G1 X110.663 Y37.432 E17.15181
G1 X111.579 Y37.529 E17.18244
G1 X112.066 Y37.614 E17.19888
G1 X113.462 Y37.891 E17.24622
G1 X113.508 Y37.9 E17.24778
G1 X113.971 Y37.994 E17.26349
G1 X116.527 Y38.452 E17.34986
G1 X118.978 Y38.82 E17.43229
G1 X121.537 Y39.131 E17.51803
G1 X124.062 Y39.366 E17.60238
G1 X125.464 Y39.466 E17.64913
G1 X126.723 Y39.546 E17.69109
G1 X127.638 Y39.644 E17.72169
G1 X128.541 Y39.822 E17.75231
G1 X129.426 Y40.077 E17.78294
G1 X130.285 Y40.408 E17.81356
G1 X130.739 Y40.619 E17.83021
G1 X132.527 Y41.502 E17.89653
G1 X134.876 Y42.603 E17.98282
G1 X137.187 Y43.608 E18.06664
G1 X139.538 Y44.554 E18.15092
G1 X141.956 Y45.443 E18.23661
G1 X143.143 Y45.853 E18.27838
G1 X144.371 Y46.267 E18.32148
G1 X145.23 Y46.599 E18.35211
G1 X146.057 Y47.004 E18.38274
G1 X146.845 Y47.479 E18.41334
G1 X147.942 Y48.315 E18.45921
G1 X148.741 Y49.01 E18.49443
G1 X150.898 Y50.864 E18.58904
G1 X152.858 Y52.451 E18.67292
G1 X154.865 Y53.982 E18.75687
G1 X156.935 Y55.471 E18.84168
G1 X158.71 Y56.681 E18.91313
G1 X159.698 Y57.337 E18.95258
G1 X160.443 Y57.879 E18.98322
G1 X161.137 Y58.484 E19.01384
G1 X161.776 Y59.147 E19.04447
G1 X162.355 Y59.862 E19.07507
G1 X162.65 Y60.282 E19.09214
G1 X163.319 Y61.284 E19.13221
G1 X164.906 Y63.6 E19.22559
G1 X166.399 Y65.644 E19.30978
G1 X167.935 Y67.629 E19.39326
G1 X169.56 Y69.608 E19.47843
G1 X170.794 Y71.039 E19.54128
G1 X171.622 Y71.978 E19.58292
G1 X172.2 Y72.694 E19.61352
G1 X172.714 Y73.458 E19.64415
G1 X173.159 Y74.264 E19.67477
G1 X173.533 Y75.105 E19.70538
G1 X173.695 Y75.546 E19.72101
G1 X174.329 Y77.394 E19.78599
G1 X175.211 Y79.841 E19.8725
G1 X176.134 Y82.191 E19.95648
G1 X177.13 Y84.528 E20.04097
G1 X178.193 Y86.84 E20.12561
G1 X178.83 Y88.15 E20.17405
G1 X179.371 Y89.241 E20.21456
G1 X179.744 Y90.083 E20.24519
G1 X180.042 Y90.954 E20.27581
G1 X180.264 Y91.848 E20.30644
G1 X180.407 Y92.757 E20.33705
G1 X180.453 Y93.27 E20.35418
G1 X180.555 Y94.854 E20.40697
G1 X180.762 Y97.407 E20.49216
G1 X181.035 Y99.913 E20.57601
G1 X181.381 Y102.424 E20.66031
G1 X181.802 Y104.944 E20.74529
G1 X182.141 Y106.722 E20.80549
G1 X182.381 Y107.915 E20.84597
G1 X182.523 Y108.824 E20.87657
G1 X182.586 Y109.743 E20.9072
G1 X182.568 Y110.663 E20.93781
G1 X182.471 Y111.579 E20.96845
G1 X182.384 Y112.08 E20.98536
G1 X182.004 Y113.98 E21.0498
G1 X181.548 Y116.527 E21.13587
G1 X181.18 Y118.978 E21.2183
G1 X180.869 Y121.537 E21.30404
G1 X180.634 Y124.062 E21.38838
G1 X180.539 Y125.402 E21.43306
G1 X180.456 Y126.712 E21.47672
G1 X180.358 Y127.628 E21.50736
G1 X180.181 Y128.531 E21.53797
G1 X179.926 Y129.416 E21.5686
G1 X179.595 Y130.275 E21.59922
G1 X179.385 Y130.728 E21.61583
G1 X178.499 Y132.526 E21.68249
G1 X177.397 Y134.876 E21.76882
G1 X176.392 Y137.187 E21.85264
G1 X175.446 Y139.538 E21.93693
G1 X174.557 Y141.956 E22.02261
G1 X174.147 Y143.143 E22.06438
G1 X173.733 Y144.371 E22.10748
G1 X173.401 Y145.23 E22.13811
G1 X172.996 Y146.057 E22.16874
G1 X172.521 Y146.845 E22.19934
G1 X171.685 Y147.943 E22.24524
G1 X170.942 Y148.797 E22.28289
G1 X169.131 Y150.904 E22.3753
G1 X167.551 Y152.855 E22.4588
G1 X166.013 Y154.871 E22.54314
G1 X164.539 Y156.92 E22.62709
G1 X163.297 Y158.743 E22.70046
G1 X162.663 Y159.698 E22.73859
G1 X162.121 Y160.443 E22.76923
G1 X161.516 Y161.137 E22.79985
G1 X160.853 Y161.776 E22.83048
G1 X160.138 Y162.355 E22.86108
G1 X159.718 Y162.65 E22.87815
G1 X158.684 Y163.341 E22.91951
G1 X156.407 Y164.901 E23.01131
G1 X154.361 Y166.396 E23.09559
G1 X152.366 Y167.939 E23.17948
G1 X150.391 Y169.561 E23.26448
G1 X148.961 Y170.795 E23.3273
G1 X148.022 Y171.622 E23.36892
G1 X147.306 Y172.2 E23.39953
G1 X146.542 Y172.714 E23.43015
G1 X145.736 Y173.159 E23.46077
G1 X144.895 Y173.533 E23.49139
G1 X144.454 Y173.695 E23.50701
G1 X142.606 Y174.329 E23.572
G1 X140.159 Y175.211 E23.65851
G1 X137.809 Y176.134 E23.74248
G1 X135.472 Y177.13 E23.82698
G1 X133.16 Y178.193 E23.91161
G1 X131.829 Y178.84 E23.96083
G1 X130.759 Y179.371 E24.00056
G1 X129.917 Y179.744 E24.03119
G1 X129.046 Y180.042 E24.06181
G1 X128.152 Y180.264 E24.09245
G1 X127.243 Y180.407 E24.12305
G1 X126.73 Y180.453 E24.14019
G1 X125.146 Y180.555 E24.19298
G1 X122.593 Y180.762 E24.27817
G1 X120.087 Y181.035 E24.36201
G1 X117.563 Y181.383 E24.44676
G1 X115.056 Y181.802 E24.5313
G1 X113.269 Y182.143 E24.5918
G1 X112.085 Y182.381 E24.63197
G1 X111.176 Y182.523 E24.66257
G1 X110.257 Y182.586 E24.69321
G1 X109.337 Y182.568 E24.72382
G1 X108.421 Y182.471 E24.75445
G1 X107.92 Y182.384 E24.77136
G1 X106.02 Y182.004 E24.83581
G1 X103.473 Y181.548 E24.92187
G1 X101.022 Y181.18 E25.00431
G1 X98.463 Y180.869 E25.09004
G1 X95.938 Y180.634 E25.17439
G1 X94.598 Y180.539 E25.21907
G1 X93.288 Y180.456 E25.26273
G1 X92.372 Y180.358 E25.29337
G1 X91.469 Y180.181 E25.32397
G1 X90.584 Y179.926 E25.35461
G1 X89.725 Y179.595 E25.38522
G1 X89.272 Y179.385 E25.40183
G1 X87.474 Y178.499 E25.4685
G1 X85.124 Y177.397 E25.55483
G1 X82.813 Y176.392 E25.63865
G1 X80.462 Y175.446 E25.72293
G1 X78.044 Y174.557 E25.80862
G1 X76.857 Y174.147 E25.85039
G1 X75.629 Y173.733 E25.89349
G1 X74.77 Y173.401 E25.92412
G1 X73.943 Y172.996 E25.95475
G1 X73.155 Y172.521 E25.98535
G1 X72.057 Y171.685 E26.03125
G1 X71.203 Y170.942 E26.0689
G1 X69.096 Y169.131 E26.16131
G1 X67.145 Y167.551 E26.24481
G1 X65.129 Y166.013 E26.32915
G1 X63.08 Y164.539 E26.4131
G1 X61.257 Y163.297 E26.48647
G1 X60.302 Y162.663 E26.52459
G1 X59.557 Y162.121 E26.55523
G1 X58.863 Y161.516 E26.58586
G1 X58.224 Y160.853 E26.61648
G1 X57.645 Y160.138 E26.64708
