;FLAVOR:Marlin
;TIME:2351
;Filament used: 1.48446m
;Layer height: 0.2
;MINX:89
;MINY:28.5
;MINZ:0.2
;MAXX:131
;MAXY:191.5
;MAXZ:4
;Generated with Cura_SteamEngine 4.3.0
M140 S50
M105
M190 S50
M104 S200
M105
M109 S200
M82 ;absolute extrusion mode
M201 X500.00 Y500.00 Z100.00 E5000.00 ;Setup machine max acceleration
M203 X500.00 Y500.00 Z10.00 E50.00 ;Setup machine max feedrate
M204 P500.00 R1000.00 T500.00 ;Setup Print/Retract/Travel acceleration
M205 X8.00 Y8.00 Z0.40 E5.00 ;Setup Jerk
M220 S100 ;Reset Feedrate
M221 S100 ;Reset Flowrate

G28 ;Home

G92 E0 ;Reset Extruder
G1 Z2.0 F3000 ;Move Z Axis up
G1 X10.1 Y20 Z0.28 F5000.0 ;Move to start position
G1 X10.1 Y200.0 Z0.28 F1500.0 E15 ;Draw the first line
G1 X10.4 Y200.0 Z0.28 F5000.0 ;Move to side a little
G1 X10.4 Y20 Z0.28 F1500.0 E30 ;Draw the second line
G92 E0 ;Reset Extruder
G1 Z2.0 F3000 ;Move Z Axis up

G92 E0
G92 E0
G1 F2700 E-5
;LAYER_COUNT:20
;LAYER:0
M107
G0 F6000 X104.558 Y36.081 Z0.2
;TYPE:SKIRT
G1 F2700 E0
G1 F1200 X104.888 Y35.204 E0.03117
G1 X105.292 Y34.357 E0.06238
G1 X105.766 Y33.548 E0.09356
G1 X106.307 Y32.782 E0.12475
G1 X106.912 Y32.065 E0.15596
G1 X107.576 Y31.402 E0.18717
G1 X108.293 Y30.799 E0.21833
G1 X109.06 Y30.258 E0.24954
G1 X109.87 Y29.785 E0.28074
G1 X110.717 Y29.382 E0.31194
G1 X111.595 Y29.054 E0.34311
G1 X112.498 Y28.801 E0.3743
G1 X113.42 Y28.626 E0.40552
G1 X114.819 Y28.512 E0.4522
G1 X115.395 Y28.502 E0.47136
G1 X115.586 Y28.5 E0.47772
G1 X119.293 Y28.5 E0.60101
G1 X119.451 Y28.501 E0.60627
G1 X120.149 Y28.511 E0.62948
G1 X121.085 Y28.565 E0.66067
G1 X122.013 Y28.697 E0.69184
G1 X122.927 Y28.909 E0.72305
G1 X123.819 Y29.198 E0.75424
G1 X124.684 Y29.561 E0.78544
G1 X125.514 Y29.997 E0.81662
G1 X126.305 Y30.502 E0.84783
G1 X127.049 Y31.073 E0.87903
G1 X127.742 Y31.705 E0.91022
G1 X128.379 Y32.393 E0.94141
G1 X128.954 Y33.134 E0.9726
G1 X129.465 Y33.92 E1.00378
G1 X129.907 Y34.748 E1.035
G1 X130.276 Y35.61 E1.06619
G1 X130.571 Y36.5 E1.09737
G1 X130.789 Y37.412 E1.12856
G1 X130.929 Y38.34 E1.15978
G1 X130.987 Y39.201 E1.18848
G1 X130.996 Y39.521 E1.19913
G1 X131 Y39.83 E1.2094
G1 X131 Y103.793 E3.33682
G1 X130.999 Y103.949 E3.34201
G1 X130.989 Y104.655 E3.36549
G1 X130.98 Y104.966 E3.37584
G1 X130.926 Y106.237 E3.41815
G1 X130.853 Y108.784 E3.5029
G1 X130.853 Y111.31 E3.58692
G1 X130.925 Y113.884 E3.67256
G1 X130.974 Y114.857 E3.70497
G1 X130.983 Y115.096 E3.71292
G1 X130.995 Y115.515 E3.72686
G1 X131 Y115.83 E3.73734
G1 X131 Y179.764 E5.86379
G1 X130.999 Y179.9 E5.86832
G1 X130.99 Y180.627 E5.8925
G1 X130.939 Y181.564 E5.92371
G1 X130.807 Y182.492 E5.95489
G1 X130.598 Y183.406 E5.98607
G1 X130.311 Y184.299 E6.01727
G1 X129.949 Y185.165 E6.04849
G1 X129.515 Y185.996 E6.07967
G1 X129.011 Y186.787 E6.11086
G1 X128.442 Y187.532 E6.14204
G1 X127.811 Y188.227 E6.17326
G1 X127.124 Y188.865 E6.20445
G1 X126.385 Y189.442 E6.23563
G1 X125.599 Y189.954 E6.26683
G1 X124.773 Y190.397 E6.29801
G1 X123.911 Y190.769 E6.32923
G1 X123.022 Y191.065 E6.3604
G1 X122.11 Y191.285 E6.3916
G1 X121.183 Y191.426 E6.42279
G1 X120.299 Y191.487 E6.45226
G1 X119.978 Y191.496 E6.46294
G1 X119.67 Y191.5 E6.47318
G1 X115.707 Y191.5 E6.60499
G1 X115.565 Y191.499 E6.60972
G1 X114.868 Y191.49 E6.6329
G1 X113.932 Y191.438 E6.66408
G1 X113.003 Y191.306 E6.69529
G1 X112.089 Y191.096 E6.72648
G1 X111.196 Y190.809 E6.75768
G1 X110.331 Y190.446 E6.78888
G1 X109.5 Y190.012 E6.82006
G1 X108.709 Y189.508 E6.85126
G1 X107.964 Y188.938 E6.88246
G1 X107.27 Y188.307 E6.91365
G1 X106.632 Y187.62 E6.94484
G1 X106.056 Y186.88 E6.97603
G1 X105.544 Y186.094 E7.00723
G1 X105.101 Y185.267 E7.03843
G1 X104.73 Y184.406 E7.06961
G1 X104.434 Y183.516 E7.10081
G1 X104.215 Y182.604 E7.132
G1 X104.074 Y181.677 E7.16319
G1 X104.013 Y180.741 E7.19439
G1 X104.013 Y180.236 E7.21118
G1 X104.029 Y179.547 E7.23411
G1 X104.034 Y179.39 E7.23933
G1 X104.125 Y176.955 E7.32038
G1 X104.187 Y174.316 E7.40817
G1 X104.186 Y172.487 E7.46901
G1 X104.18 Y171.892 E7.4888
G1 X104.113 Y169.173 E7.57926
G1 X104.026 Y167.383 E7.63887
G1 X103.99 Y166.778 E7.65902
G1 X103.802 Y164.168 E7.74606
G1 X103.627 Y162.367 E7.80624
G1 X103.543 Y161.588 E7.8323
G1 X103.231 Y159.023 E7.91824
G1 X102.96 Y157.174 E7.9804
G1 X102.862 Y156.551 E8.00137
G1 X102.425 Y153.986 E8.08791
G1 X102.107 Y152.358 E8.14309
G1 X101.956 Y151.619 E8.16817
G1 X101.389 Y149.042 E8.25593
G1 X100.951 Y147.255 E8.31713
G1 X100.794 Y146.642 E8.33818
G1 X100.098 Y144.075 E8.42664
G1 X99.566 Y142.284 E8.48878
G1 X99.366 Y141.634 E8.5114
G1 X98.554 Y139.134 E8.59882
G1 X97.965 Y137.456 E8.65797
G1 X97.722 Y136.784 E8.68174
G1 X96.805 Y134.355 E8.76809
G1 X96.121 Y132.674 E8.82846
G1 X95.856 Y132.04 E8.85131
G1 X94.817 Y129.645 E8.93814
G1 X94.137 Y128.175 E8.99201
G1 X93.825 Y127.513 E9.01635
G1 X92.661 Y125.142 E9.1042
G1 X91.791 Y123.473 E9.1668
G1 X90.633 Y121.309 E9.24844
G1 X90.558 Y121.167 E9.25378
G1 X90.246 Y120.563 E9.27639
G1 X89.851 Y119.713 E9.30756
G1 X89.531 Y118.831 E9.33877
G1 X89.286 Y117.926 E9.36995
G1 X89.12 Y117.003 E9.40114
G1 X89.021 Y115.724 E9.44381
G1 X89.002 Y114.726 E9.47701
G1 X89 Y114.517 E9.48396
G1 X89 Y105.207 E9.79361
G1 X89.001 Y105.046 E9.79897
G1 X89.011 Y104.362 E9.82172
G1 X89.065 Y103.426 E9.85291
G1 X89.198 Y102.498 E9.88409
G1 X89.41 Y101.584 E9.91529
G1 X89.699 Y100.692 E9.94648
G1 X90.212 Y99.523 E9.98894
G1 X90.682 Y98.602 E10.02333
G1 X90.779 Y98.417 E10.03028
G1 X91.782 Y96.54 E10.10106
G1 X93.003 Y94.178 E10.1895
G1 X93.809 Y92.519 E10.25084
G1 X94.1 Y91.904 E10.27347
G1 X95.183 Y89.531 E10.36023
G1 X95.874 Y87.918 E10.41859
G1 X96.125 Y87.316 E10.44029
G1 X97.105 Y84.871 E10.5279
G1 X97.719 Y83.228 E10.58624
G1 X97.973 Y82.522 E10.61119
G1 X98.817 Y80.084 E10.697
G1 X99.346 Y78.428 E10.75482
G1 X99.57 Y77.701 E10.78012
G1 X100.295 Y75.227 E10.86587
G1 X100.769 Y73.453 E10.92694
G1 X100.96 Y72.708 E10.95252
G1 X101.565 Y70.19 E11.03865
G1 X101.944 Y68.439 E11.09824
G1 X102.092 Y67.715 E11.12282
G1 X102.581 Y65.146 E11.2098
G1 X102.868 Y63.415 E11.26816
G1 X102.959 Y62.83 E11.28785
G1 X103.334 Y60.19 E11.37654
G1 X103.548 Y58.371 E11.43746
G1 X103.615 Y57.743 E11.45846
G1 X103.862 Y55.087 E11.54718
G1 X103.993 Y53.184 E11.61063
G1 X104.027 Y52.587 E11.63051
G1 X104.141 Y50 E11.71664
G1 X104.179 Y48.153 E11.77809
G1 X104.186 Y47.517 E11.79924
G1 X104.176 Y44.868 E11.88735
G1 X104.125 Y43.033 E11.9484
G1 X104.035 Y40.624 E12.02858
G1 X104.03 Y40.479 E12.03341
G1 X104.013 Y39.776 E12.0568
G1 X104.031 Y38.838 E12.088
G1 X104.128 Y37.905 E12.1192
G1 X104.304 Y36.984 E12.15039
G1 X104.558 Y36.081 E12.18159
G0 F6000 X104.959 Y36.142
G1 F1200 X105.289 Y35.283 E12.21219
G1 X105.693 Y34.455 E12.24284
G1 X106.167 Y33.666 E12.27345
G1 X106.707 Y32.92 E12.30408
G1 X107.31 Y32.225 E12.33468
G1 X107.972 Y31.584 E12.36533
G1 X108.686 Y31.003 E12.39595
G1 X109.448 Y30.487 E12.42656
G1 X110.252 Y30.038 E12.45718
G1 X111.092 Y29.661 E12.48781
G1 X111.961 Y29.358 E12.51842
G1 X112.854 Y29.132 E12.54906
G1 X113.762 Y28.984 E12.57965
G1 X114.826 Y28.912 E12.61512
G1 X115.402 Y28.902 E12.63428
G1 X115.586 Y28.9 E12.6404
G1 X119.293 Y28.9 E12.7637
G1 X119.445 Y28.901 E12.76876
G1 X120.143 Y28.911 E12.79197
G1 X121.062 Y28.964 E12.82259
G1 X121.973 Y29.097 E12.85321
G1 X122.869 Y29.308 E12.88383
G1 X123.743 Y29.596 E12.91444
G1 X124.59 Y29.959 E12.94508
G1 X125.401 Y30.394 E12.97569
G1 X126.171 Y30.898 E13.0063
G1 X126.895 Y31.467 E13.03693
G1 X127.567 Y32.097 E13.06757
G1 X128.182 Y32.782 E13.09818
G1 X128.735 Y33.518 E13.1288
G1 X129.222 Y34.299 E13.15942
G1 X129.639 Y35.12 E13.19004
G1 X129.984 Y35.974 E13.22068
G1 X130.253 Y36.854 E13.25128
G1 X130.445 Y37.755 E13.28192
G1 X130.558 Y38.668 E13.31252
G1 X130.587 Y39.212 E13.33064
G1 X130.596 Y39.532 E13.34129
G1 X130.6 Y39.83 E13.3512
G1 X130.6 Y103.793 E15.47862
G1 X130.599 Y103.943 E15.48361
G1 X130.589 Y104.649 E15.50709
G1 X130.58 Y104.949 E15.51707
G1 X130.53 Y106.121 E15.55609
G1 X130.453 Y108.808 E15.6455
G1 X130.453 Y111.321 E15.72908
G1 X130.524 Y113.871 E15.81393
G1 X130.575 Y114.877 E15.84743
G1 X130.584 Y115.108 E15.85512
G1 X130.596 Y115.527 E15.86906
G1 X130.6 Y115.83 E15.87914
G1 X130.6 Y179.764 E18.00559
G1 X130.599 Y179.895 E18.00995
G1 X130.59 Y180.622 E18.03413
G1 X130.539 Y181.541 E18.06474
G1 X130.408 Y182.453 E18.09539
G1 X130.198 Y183.349 E18.126
G1 X129.912 Y184.224 E18.15662
G1 X129.551 Y185.071 E18.18724
G1 X129.117 Y185.883 E18.21786
G1 X128.615 Y186.655 E18.24849
G1 X128.047 Y187.38 E18.27912
G1 X127.419 Y188.053 E18.30974
G1 X126.735 Y188.669 E18.34035
G1 X126 Y189.223 E18.37097
G1 X125.22 Y189.712 E18.40159
G1 X124.4 Y190.131 E18.43221
G1 X123.547 Y190.477 E18.46283
G1 X122.667 Y190.748 E18.49346
G1 X121.767 Y190.941 E18.52407
G1 X120.853 Y191.056 E18.55471
G1 X120.288 Y191.087 E18.57353
G1 X119.967 Y191.096 E18.58421
G1 X119.67 Y191.1 E18.59409
G1 X115.707 Y191.1 E18.7259
G1 X115.57 Y191.099 E18.73046
G1 X114.873 Y191.09 E18.75364
G1 X113.954 Y191.038 E18.78426
G1 X113.043 Y190.907 E18.81487
G1 X112.146 Y190.697 E18.84551
G1 X111.272 Y190.41 E18.8761
G1 X110.425 Y190.048 E18.90674
G1 X109.613 Y189.614 E18.93736
G1 X108.842 Y189.111 E18.96798
G1 X108.117 Y188.544 E18.99859
G1 X107.444 Y187.915 E19.02923
G1 X106.829 Y187.231 E19.05983
G1 X106.275 Y186.495 E19.09047
G1 X105.787 Y185.715 E19.12107
G1 X105.368 Y184.895 E19.1517
G1 X105.022 Y184.041 E19.18234
G1 X104.752 Y183.161 E19.21296
G1 X104.559 Y182.261 E19.24357
G1 X104.445 Y181.348 E19.27417
G1 X104.413 Y180.245 E19.31088
G1 X104.429 Y179.556 E19.3338
G1 X104.433 Y179.405 E19.33882
G1 X104.528 Y176.873 E19.4231
G1 X104.587 Y174.326 E19.50783
G1 X104.586 Y172.486 E19.56903
G1 X104.58 Y171.882 E19.58912
G1 X104.513 Y169.187 E19.67879
G1 X104.425 Y167.364 E19.73949
G1 X104.388 Y166.729 E19.76065
G1 X104.2 Y164.137 E19.84708
G1 X104.014 Y162.218 E19.91121
G1 X103.944 Y161.572 E19.93282
G1 X103.626 Y158.956 E20.02047
G1 X103.371 Y157.217 E20.07893
G1 X103.255 Y156.476 E20.10387
G1 X102.813 Y153.887 E20.19123
G1 X102.499 Y152.278 E20.24575
G1 X102.343 Y151.518 E20.27156
G1 X101.778 Y148.948 E20.35908
G1 X101.365 Y147.262 E20.41681
G1 X101.171 Y146.502 E20.4429
G1 X100.48 Y143.955 E20.53068
G1 X99.965 Y142.221 E20.59084
G1 X99.723 Y141.436 E20.61816
G1 X98.946 Y139.042 E20.70187
G1 X98.324 Y137.271 E20.76431
G1 X98.101 Y136.656 E20.78606
G1 X97.165 Y134.177 E20.8742
G1 X96.527 Y132.609 E20.9305
G1 X96.221 Y131.876 E20.95692
G1 X95.188 Y129.497 E21.04318
G1 X94.464 Y127.93 E21.1006
G1 X94.2 Y127.371 E21.12116
G1 X93.034 Y124.993 E21.20925
G1 X92.14 Y123.279 E21.27354
G1 X90.985 Y121.121 E21.35495
G1 X90.913 Y120.984 E21.3601
G1 X90.601 Y120.38 E21.38271
G1 X90.215 Y119.544 E21.41334
G1 X89.902 Y118.678 E21.44396
G1 X89.666 Y117.789 E21.47456
G1 X89.507 Y116.882 E21.50518
G1 X89.421 Y115.717 E21.54404
G1 X89.402 Y114.719 E21.57724
G1 X89.4 Y114.517 E21.58395
G1 X89.4 Y105.207 E21.89361
G1 X89.401 Y105.052 E21.89876
G1 X89.411 Y104.368 E21.92151
G1 X89.465 Y103.449 E21.95213
G1 X89.598 Y102.538 E21.98275
G1 X89.809 Y101.642 E22.01337
G1 X90.098 Y100.768 E22.04399
G1 X90.568 Y99.705 E22.08265
G1 X91.038 Y98.784 E22.11704
G1 X91.132 Y98.605 E22.12376
G1 X92.13 Y96.737 E22.1942
G1 X93.369 Y94.342 E22.28389
G1 X94.193 Y92.645 E22.34663
G1 X94.455 Y92.091 E22.36701
G1 X95.549 Y89.692 E22.45471
G1 X96.242 Y88.075 E22.51322
G1 X96.494 Y87.47 E22.53502
G1 X97.476 Y85.019 E22.62284
G1 X98.114 Y83.313 E22.68342
G1 X98.326 Y82.724 E22.70424
G1 X99.197 Y80.21 E22.79273
G1 X99.723 Y78.563 E22.85024
G1 X99.965 Y77.778 E22.87756
G1 X100.678 Y75.344 E22.96192
G1 X101.181 Y73.461 E23.02674
G1 X101.345 Y72.82 E23.04875
G1 X101.953 Y70.29 E23.13529
G1 X102.338 Y68.507 E23.19596
G1 X102.485 Y67.791 E23.22027
G1 X102.977 Y65.208 E23.30773
G1 X103.247 Y63.576 E23.36275
G1 X103.357 Y62.871 E23.38648
G1 X103.73 Y60.248 E23.4746
G1 X103.945 Y58.418 E23.53588
G1 X104.016 Y57.755 E23.55806
G1 X104.259 Y55.149 E23.64511
G1 X104.388 Y53.269 E23.70779
G1 X104.426 Y52.625 E23.72925
G1 X104.541 Y49.983 E23.8172
G1 X104.579 Y48.162 E23.87778
G1 X104.586 Y47.519 E23.89917
G1 X104.575 Y44.855 E23.98778
G1 X104.528 Y43.126 E24.0453
G1 X104.434 Y40.609 E24.12908
G1 X104.43 Y40.469 E24.13374
G1 X104.413 Y39.766 E24.15713
G1 X104.431 Y38.846 E24.18773
G1 X104.528 Y37.93 E24.21837
G1 X104.705 Y37.027 E24.24897
G1 X104.959 Y36.142 E24.2796
G0 F6000 X105.361 Y36.204
G1 F1200 X105.691 Y35.363 E24.30964
G1 X106.094 Y34.555 E24.33968
G1 X106.567 Y33.786 E24.3697
G1 X107.107 Y33.062 E24.39974
G1 X107.708 Y32.388 E24.42978
G1 X108.367 Y31.77 E24.45983
G1 X109.077 Y31.213 E24.48984
G1 X109.835 Y30.72 E24.51992
G1 X110.632 Y30.297 E24.54993
G1 X111.464 Y29.946 E24.57996
G1 X112.324 Y29.67 E24.61
G1 X113.205 Y29.471 E24.64004
G1 X114.1 Y29.351 E24.67008
G1 X114.833 Y29.312 E24.69449
G1 X115.409 Y29.302 E24.71365
G1 X115.586 Y29.3 E24.71954
G1 X119.293 Y29.3 E24.84283
G1 X119.439 Y29.301 E24.84769
G1 X120.137 Y29.311 E24.87091
G1 X121.039 Y29.364 E24.90096
G1 X121.932 Y29.496 E24.93098
G1 X122.81 Y29.707 E24.96102
G1 X123.666 Y29.995 E24.99106
G1 X124.493 Y30.357 E25.02108
G1 X125.285 Y30.792 E25.05114
G1 X126.036 Y31.294 E25.08118
G1 X126.739 Y31.861 E25.11122
G1 X127.389 Y32.488 E25.14126
G1 X127.981 Y33.17 E25.1713
G1 X128.511 Y33.901 E25.20133
G1 X128.973 Y34.677 E25.23137
G1 X129.366 Y35.49 E25.2614
G1 X129.684 Y36.335 E25.29143
G1 X129.927 Y37.205 E25.32147
G1 X130.092 Y38.093 E25.35151
G1 X130.187 Y39.223 E25.38923
G1 X130.196 Y39.543 E25.39988
G1 X130.2 Y39.83 E25.40942
G1 X130.2 Y103.793 E27.53684
G1 X130.199 Y103.937 E27.54163
G1 X130.189 Y104.643 E27.56512
G1 X130.181 Y104.932 E27.57473
G1 X130.128 Y106.181 E27.61631
G1 X130.053 Y108.796 E27.70332
G1 X130.053 Y111.332 E27.78767
G1 X130.125 Y113.904 E27.87325
G1 X130.175 Y114.898 E27.90635
G1 X130.184 Y115.119 E27.91371
G1 X130.196 Y115.538 E27.92765
G1 X130.2 Y115.83 E27.93736
G1 X130.2 Y179.764 E30.06381
G1 X130.199 Y179.89 E30.06801
G1 X130.19 Y180.617 E30.09219
G1 X130.139 Y181.519 E30.12224
G1 X130.008 Y182.413 E30.15229
G1 X129.799 Y183.291 E30.18231
G1 X129.513 Y184.148 E30.21236
G1 X129.152 Y184.976 E30.2424
G1 X128.72 Y185.768 E30.2724
G1 X128.219 Y186.52 E30.30246
G1 X127.653 Y187.224 E30.3325
G1 X127.028 Y187.875 E30.36252
G1 X126.347 Y188.469 E30.39257
G1 X125.616 Y189 E30.42263
G1 X124.842 Y189.464 E30.45264
G1 X124.029 Y189.858 E30.48269
G1 X123.185 Y190.178 E30.51271
G1 X122.315 Y190.423 E30.54277
G1 X121.428 Y190.589 E30.57279
G1 X120.277 Y190.687 E30.61121
G1 X119.956 Y190.696 E30.62189
G1 X119.67 Y190.7 E30.6314
G1 X115.707 Y190.7 E30.76321
G1 X115.575 Y190.699 E30.7676
G1 X114.878 Y190.69 E30.79079
G1 X113.977 Y190.639 E30.8208
G1 X113.083 Y190.507 E30.85086
G1 X112.205 Y190.298 E30.88088
G1 X111.348 Y190.011 E30.91094
G1 X110.521 Y189.65 E30.94095
G1 X109.728 Y189.217 E30.971
G1 X108.977 Y188.715 E31.00104
G1 X108.273 Y188.15 E31.03107
G1 X107.622 Y187.524 E31.06111
G1 X107.029 Y186.843 E31.09114
G1 X106.498 Y186.112 E31.12119
G1 X106.035 Y185.337 E31.15122
G1 X105.641 Y184.524 E31.18127
G1 X105.321 Y183.679 E31.21132
G1 X105.077 Y182.81 E31.24134
G1 X104.911 Y181.922 E31.27139
G1 X104.824 Y181.023 E31.30143
G1 X104.813 Y180.254 E31.32701
G1 X104.829 Y179.565 E31.34993
G1 X104.833 Y179.42 E31.35475
G1 X104.926 Y176.933 E31.43753
G1 X104.987 Y174.335 E31.52396
G1 X104.986 Y172.486 E31.58546
G1 X104.98 Y171.872 E31.60588
G1 X104.913 Y169.157 E31.69621
G1 X104.83 Y167.445 E31.75322
G1 X104.784 Y166.656 E31.77951
G1 X104.6 Y164.109 E31.86444
G1 X104.422 Y162.281 E31.92553
G1 X104.337 Y161.487 E31.95209
G1 X104.02 Y158.889 E32.03914
G1 X103.766 Y157.155 E32.09743
G1 X103.652 Y156.424 E32.12203
G1 X103.209 Y153.83 E32.20956
G1 X102.872 Y152.105 E32.26802
G1 X102.731 Y151.416 E32.29141
G1 X102.176 Y148.893 E32.37733
G1 X101.728 Y147.065 E32.43993
G1 X101.548 Y146.363 E32.46403
G1 X100.881 Y143.902 E32.54884
G1 X100.317 Y142.003 E32.61473
G1 X100.139 Y141.425 E32.63484
G1 X99.312 Y138.875 E32.72401
G1 X98.735 Y137.233 E32.78189
G1 X98.47 Y136.502 E32.80775
G1 X97.544 Y134.047 E32.89502
G1 X96.896 Y132.455 E32.95219
G1 X96.6 Y131.745 E32.97778
