;FLAVOR:Marlin
;TIME:7134
;Filament used: 4.20284m
;Layer height: 0.2
;MINX:37.017
;MINY:37.018
;MINZ:0.2
;MAXX:182.973
;MAXY:182.982
;MAXZ:4
;Generated with Cura_SteamEngine 4.3.0
M140 S50
M105
M190 S50
M104 S200
M105
M109 S200
M82 ;absolute extrusion mode
M201 X500.00 Y500.00 Z100.00 E5000.00 ;Setup machine max acceleration
M203 X500.00 Y500.00 Z10.00 E50.00 ;Setup machine max feedrate
M204 P500.00 R1000.00 T500.00 ;Setup Print/Retract/Travel acceleration
M205 X8.00 Y8.00 Z0.40 E5.00 ;Setup Jerk
M220 S100 ;Reset Feedrate
M221 S100 ;Reset Flowrate

G28 ;Home

G92 E0 ;Reset Extruder
G1 Z2.0 F3000 ;Move Z Axis up
G1 X10.1 Y20 Z0.28 F5000.0 ;Move to start position
G1 X10.1 Y200.0 Z0.28 F1500.0 E15 ;Draw the first line
G1 X10.4 Y200.0 Z0.28 F5000.0 ;Move to side a little
G1 X10.4 Y20 Z0.28 F1500.0 E30 ;Draw the second line
G92 E0 ;Reset Extruder
G1 Z2.0 F3000 ;Move Z Axis up

G92 E0
G92 E0
G1 F2700 E-5
;LAYER_COUNT:20
;LAYER:0
M107
G0 F6000 X58.142 Y58.648 Z0.2
;TYPE:SKIRT
G1 F2700 E0
G1 F1200 X58.813 Y57.993 E0.03119
G1 X59.538 Y57.397 E0.0624
G1 X60.028 Y57.048 E0.08241
G1 X62.323 Y55.509 E0.17432
G1 X64.366 Y54.06 E0.25762
G1 X66.38 Y52.547 E0.34141
G1 X68.369 Y50.963 E0.42598
G1 X70.279 Y49.35 E0.50913
G1 X71.665 Y48.12 E0.57076
G1 X72.393 Y47.528 E0.60197
G1 X73.168 Y47 E0.63316
G1 X73.985 Y46.54 E0.66434
G1 X74.839 Y46.152 E0.69554
G1 X75.377 Y45.95 E0.71465
G1 X77.947 Y45.063 E0.80508
G1 X80.394 Y44.159 E0.89185
G1 X82.69 Y43.236 E0.97415
G1 X85.007 Y42.227 E1.0582
G1 X87.321 Y41.141 E1.14322
G1 X88.999 Y40.302 E1.20562
G1 X89.855 Y39.919 E1.23681
G1 X90.74 Y39.61 E1.26799
G1 X91.649 Y39.378 E1.29919
G1 X92.574 Y39.223 E1.33039
G1 X93.156 Y39.167 E1.34983
G1 X95.868 Y38.979 E1.44025
G1 X98.409 Y38.745 E1.52512
G1 X100.888 Y38.445 E1.60818
G1 X103.386 Y38.072 E1.69218
G1 X105.881 Y37.625 E1.77649
G1 X107.787 Y37.236 E1.84119
G1 X108.713 Y37.087 E1.87238
G1 X109.648 Y37.018 E1.90356
G1 X110.586 Y37.029 E1.93476
G1 X111.52 Y37.12 E1.96598
G1 X112.131 Y37.224 E1.98659
G1 X114.747 Y37.743 E2.0753
G1 X117.272 Y38.176 E2.1605
G1 X119.729 Y38.526 E2.24305
G1 X122.239 Y38.81 E2.32706
G1 X124.795 Y39.027 E2.41238
G1 X126.701 Y39.142 E2.47589
G1 X127.633 Y39.238 E2.50705
G1 X128.555 Y39.414 E2.53827
G1 X129.458 Y39.667 E2.56946
G1 X130.336 Y39.996 E2.60065
G1 X130.908 Y40.258 E2.62157
G1 X133.37 Y41.473 E2.71289
G1 X135.637 Y42.515 E2.79587
G1 X137.949 Y43.499 E2.87945
G1 X140.324 Y44.432 E2.96432
G1 X142.654 Y45.272 E3.04669
G1 X144.447 Y45.869 E3.10955
G1 X145.324 Y46.203 E3.14076
G1 X146.168 Y46.611 E3.17194
G1 X146.975 Y47.089 E3.20314
G1 X147.739 Y47.634 E3.23435
G1 X148.213 Y48.025 E3.25479
G1 X150.272 Y49.825 E3.34575
G1 X152.206 Y51.431 E3.42936
G1 X154.187 Y52.983 E3.51306
G1 X156.218 Y54.484 E3.59706
G1 X158.321 Y55.947 E3.68227
G1 X159.865 Y56.966 E3.7438
G1 X160.625 Y57.515 E3.77498
G1 X161.335 Y58.128 E3.80618
G1 X161.991 Y58.798 E3.83736
G1 X162.587 Y59.522 E3.86855
G1 X162.932 Y60.006 E3.88832
G1 X164.477 Y62.302 E3.98037
G1 X165.948 Y64.378 E4.06499
G1 X167.462 Y66.392 E4.1488
G1 X169.008 Y68.334 E4.23136
G1 X170.667 Y70.298 E4.31686
G1 X171.88 Y71.665 E4.37765
G1 X172.472 Y72.393 E4.40886
G1 X173 Y73.168 E4.44005
G1 X173.46 Y73.985 E4.47123
G1 X173.848 Y74.839 E4.50243
G1 X174.049 Y75.373 E4.52141
G1 X174.968 Y78.032 E4.61498
G1 X175.84 Y80.389 E4.69857
G1 X176.798 Y82.769 E4.7839
G1 X177.784 Y85.03 E4.86594
G1 X178.876 Y87.352 E4.95128
G1 X179.691 Y88.986 E5.01202
G1 X180.074 Y89.843 E5.04324
G1 X180.382 Y90.728 E5.0744
G1 X180.614 Y91.637 E5.10561
G1 X180.767 Y92.562 E5.13679
G1 X180.82 Y93.107 E5.155
G1 X181.018 Y95.85 E5.24647
G1 X181.253 Y98.395 E5.33148
G1 X181.553 Y100.875 E5.41457
G1 X181.934 Y103.414 E5.49996
G1 X182.372 Y105.864 E5.58274
G1 X182.755 Y107.736 E5.64629
G1 X182.903 Y108.662 E5.67748
G1 X182.973 Y109.597 E5.70867
G1 X182.962 Y110.535 E5.73987
G1 X182.871 Y111.468 E5.77105
G1 X182.781 Y112.015 E5.78948
G1 X182.257 Y114.742 E5.88184
G1 X181.824 Y117.272 E5.96721
G1 X181.474 Y119.729 E6.04976
G1 X181.19 Y122.239 E6.13378
G1 X180.973 Y124.795 E6.21909
G1 X180.858 Y126.701 E6.2826
G1 X180.762 Y127.633 E6.31377
G1 X180.586 Y128.555 E6.34499
G1 X180.333 Y129.458 E6.37618
G1 X180.004 Y130.336 E6.40736
G1 X179.741 Y130.909 E6.42833
G1 X178.543 Y133.335 E6.51832
G1 X177.475 Y135.66 E6.60342
G1 X176.502 Y137.946 E6.68605
G1 X175.568 Y140.324 E6.77103
G1 X174.732 Y142.643 E6.85302
G1 X174.129 Y144.452 E6.91644
G1 X173.794 Y145.328 E6.94763
G1 X173.387 Y146.172 E6.9788
G1 X172.908 Y146.979 E7.01001
G1 X172.363 Y147.742 E7.0412
G1 X171.974 Y148.213 E7.06152
G1 X170.191 Y150.252 E7.1516
G1 X168.554 Y152.223 E7.23682
G1 X167.031 Y154.169 E7.31901
G1 X165.516 Y156.218 E7.40377
G1 X164.064 Y158.305 E7.48833
G1 X163.033 Y159.866 E7.55055
G1 X162.483 Y160.625 E7.58172
G1 X161.87 Y161.336 E7.61295
G1 X161.199 Y161.991 E7.64414
G1 X160.475 Y162.587 E7.67533
G1 X160.001 Y162.925 E7.69469
G1 X157.692 Y164.481 E7.7873
G1 X155.634 Y165.94 E7.8712
G1 X153.62 Y167.453 E7.95498
G1 X151.631 Y169.037 E8.03955
G1 X149.721 Y170.65 E8.1227
G1 X148.335 Y171.88 E8.18434
G1 X147.607 Y172.472 E8.21555
G1 X146.832 Y173 E8.24674
G1 X146.015 Y173.46 E8.27792
G1 X145.161 Y173.848 E8.30912
G1 X144.623 Y174.05 E8.32823
G1 X142.053 Y174.937 E8.41866
G1 X139.606 Y175.841 E8.50542
G1 X137.31 Y176.764 E8.58773
G1 X134.993 Y177.773 E8.67178
G1 X132.679 Y178.859 E8.7568
G1 X131.001 Y179.698 E8.8192
G1 X130.145 Y180.081 E8.85039
G1 X129.26 Y180.39 E8.88157
G1 X128.351 Y180.622 E8.91277
G1 X127.426 Y180.777 E8.94396
G1 X126.844 Y180.833 E8.96341
G1 X124.132 Y181.021 E9.05383
G1 X121.591 Y181.255 E9.1387
G1 X119.112 Y181.555 E9.22175
G1 X116.614 Y181.928 E9.30576
G1 X114.119 Y182.375 E9.39006
G1 X112.213 Y182.764 E9.45476
G1 X111.287 Y182.913 E9.48596
G1 X110.352 Y182.982 E9.51714
G1 X109.414 Y182.971 E9.54834
G1 X108.48 Y182.88 E9.57955
G1 X107.869 Y182.776 E9.60017
G1 X105.251 Y182.256 E9.68895
G1 X102.703 Y181.821 E9.77492
G1 X100.245 Y181.471 E9.8575
G1 X97.759 Y181.19 E9.94071
G1 X95.191 Y180.972 E10.02643
G1 X93.32 Y180.859 E10.08877
G1 X92.387 Y180.763 E10.11997
G1 X91.466 Y180.587 E10.15115
G1 X90.563 Y180.334 E10.18234
G1 X89.685 Y180.004 E10.21354
G1 X89.141 Y179.756 E10.23342
G1 X86.701 Y178.56 E10.3238
G1 X84.374 Y177.489 E10.409
G1 X82.08 Y176.513 E10.49192
G1 X79.717 Y175.583 E10.57638
G1 X77.344 Y174.727 E10.66029
G1 X75.539 Y174.125 E10.72357
G1 X74.663 Y173.791 E10.75475
G1 X73.818 Y173.383 E10.78596
G1 X73.011 Y172.905 E10.81716
G1 X72.248 Y172.359 E10.84837
G1 X71.77 Y171.964 E10.86899
G1 X69.724 Y170.171 E10.95947
G1 X67.777 Y168.554 E11.04365
G1 X65.831 Y167.031 E11.12584
G1 X63.782 Y165.516 E11.2106
G1 X61.693 Y164.063 E11.29523
G1 X60.117 Y163.021 E11.35807
G1 X59.358 Y162.471 E11.38925
G1 X58.648 Y161.858 E11.42045
G1 X57.993 Y161.187 E11.45163
G1 X57.397 Y160.462 E11.48285
G1 X57.048 Y159.972 E11.50286
G1 X55.509 Y157.677 E11.59476
G1 X54.06 Y155.634 E11.67807
G1 X52.547 Y153.62 E11.76185
G1 X50.963 Y151.631 E11.84642
G1 X49.35 Y149.721 E11.92957
G1 X48.12 Y148.335 E11.9912
G1 X47.528 Y147.607 E12.02241
G1 X47 Y146.832 E12.0536
G1 X46.54 Y146.015 E12.08479
G1 X46.152 Y145.161 E12.11599
G1 X45.951 Y144.626 E12.135
G1 X45.037 Y141.98 E12.2281
G1 X44.153 Y139.592 E12.3128
G1 X43.21 Y137.25 E12.39677
G1 X42.215 Y134.969 E12.47954
G1 X41.124 Y132.648 E12.56484
G1 X40.301 Y130.998 E12.62617
G1 X39.918 Y130.141 E12.65739
G1 X39.61 Y129.256 E12.68855
G1 X39.378 Y128.347 E12.71976
G1 X39.225 Y127.422 E12.75094
G1 X39.17 Y126.851 E12.77002
G1 X38.98 Y124.13 E12.86074
G1 X38.747 Y121.608 E12.94498
G1 X38.445 Y119.116 E13.02847
G1 X38.069 Y116.602 E13.11302
G1 X37.622 Y114.105 E13.19739
G1 X37.235 Y112.211 E13.26168
G1 X37.086 Y111.285 E13.29288
G1 X37.017 Y110.35 E13.32406
G1 X37.028 Y109.412 E13.35526
G1 X37.119 Y108.478 E13.38647
G1 X37.224 Y107.86 E13.40732
G1 X37.745 Y105.243 E13.49607
G1 X38.176 Y102.728 E13.58094
G1 X38.526 Y100.271 E13.66349
G1 X38.81 Y97.761 E13.7475
G1 X39.027 Y95.205 E13.83282
G1 X39.142 Y93.299 E13.89633
G1 X39.238 Y92.367 E13.92749
G1 X39.414 Y91.445 E13.95871
G1 X39.667 Y90.542 E13.9899
G1 X39.996 Y89.664 E14.02109
G1 X40.258 Y89.092 E14.04201
G1 X41.463 Y86.65 E14.13259
G1 X42.522 Y84.346 E14.21692
G1 X43.501 Y82.047 E14.30003
G1 X44.439 Y79.662 E14.38527
G1 X45.272 Y77.345 E14.46717
G1 X45.874 Y75.539 E14.53048
G1 X46.209 Y74.663 E14.56168
G1 X46.616 Y73.819 E14.59284
G1 X47.095 Y73.012 E14.62405
G1 X47.64 Y72.249 E14.65524
G1 X48.038 Y71.767 E14.67603
G1 X49.825 Y69.728 E14.76621
G1 X51.446 Y67.777 E14.85057
G1 X52.969 Y65.831 E14.93276
G1 X54.484 Y63.782 E15.01752
G1 X55.937 Y61.693 E15.10215
G1 X56.979 Y60.117 E15.16499
G1 X57.529 Y59.358 E15.19617
G1 X58.142 Y58.648 E15.22737
G0 F6000 X58.457 Y58.897
G1 F1200 X59.118 Y58.257 E15.25797
G1 X59.832 Y57.676 E15.28859
G1 X60.251 Y57.381 E15.30563
G1 X62.511 Y55.865 E15.39614
G1 X64.615 Y54.374 E15.48191
G1 X66.641 Y52.851 E15.56621
G1 X68.614 Y51.28 E15.6501
G1 X70.539 Y49.654 E15.73391
G1 X71.931 Y48.419 E15.7958
G1 X72.645 Y47.839 E15.82639
G1 X73.408 Y47.322 E15.85705
G1 X74.212 Y46.874 E15.88766
G1 X75.052 Y46.497 E15.91828
G1 X75.508 Y46.328 E15.93446
G1 X78.117 Y45.427 E16.02626
G1 X80.503 Y44.546 E16.11086
G1 X82.863 Y43.597 E16.19546
G1 X85.188 Y42.585 E16.2798
G1 X87.474 Y41.512 E16.36379
G1 X89.178 Y40.66 E16.42716
G1 X90.018 Y40.284 E16.45777
G1 X90.888 Y39.983 E16.48839
G1 X91.781 Y39.759 E16.51901
G1 X92.69 Y39.612 E16.54963
G1 X93.184 Y39.566 E16.56613
G1 X95.928 Y39.376 E16.65762
G1 X98.426 Y39.146 E16.74105
G1 X100.923 Y38.843 E16.82471
G1 X103.478 Y38.462 E16.91063
G1 X105.952 Y38.019 E16.99423
G1 X107.867 Y37.628 E17.05923
G1 X108.776 Y37.483 E17.08985
G1 X109.695 Y37.417 E17.1205
G1 X110.615 Y37.432 E17.1511
G1 X111.531 Y37.526 E17.18172
G1 X112.053 Y37.616 E17.19934
G1 X114.673 Y38.136 E17.28818
G1 X117.225 Y38.574 E17.37431
G1 X119.694 Y38.925 E17.45725
G1 X122.196 Y39.209 E17.541
G1 X124.736 Y39.424 E17.62578
G1 X126.677 Y39.541 E17.69046
G1 X127.592 Y39.636 E17.72106
G1 X128.496 Y39.811 E17.75168
G1 X129.382 Y40.063 E17.78232
G1 X130.242 Y40.391 E17.81293
G1 X130.731 Y40.617 E17.83085
G1 X133.175 Y41.823 E17.92149
G1 X135.479 Y42.883 E18.00585
G1 X137.796 Y43.868 E18.08959
G1 X140.179 Y44.805 E18.17475
G1 X142.555 Y45.661 E18.25875
G1 X144.321 Y46.249 E18.32066
G1 X145.181 Y46.577 E18.35127
G1 X146.009 Y46.979 E18.38188
G1 X146.799 Y47.452 E18.41251
G1 X147.546 Y47.991 E18.44315
G1 X147.949 Y48.326 E18.46058
G1 X149.997 Y50.117 E18.55107
G1 X151.966 Y51.752 E18.63619
G1 X153.948 Y53.304 E18.71992
G1 X155.981 Y54.807 E18.80401
G1 X158.085 Y56.27 E18.88924
G1 X159.645 Y57.3 E18.95142
G1 X160.39 Y57.84 E18.98202
G1 X161.086 Y58.442 E19.01263
G1 X161.727 Y59.103 E19.04325
G1 X162.308 Y59.817 E19.07387
G1 X162.6 Y60.229 E19.09067
G1 X164.157 Y62.544 E19.18346
G1 X165.613 Y64.598 E19.2672
G1 X167.149 Y66.641 E19.35221
G1 X168.705 Y68.596 E19.43531
G1 X170.363 Y70.559 E19.52078
G1 X171.581 Y71.931 E19.5818
G1 X172.161 Y72.645 E19.61239
G1 X172.678 Y73.408 E19.64305
G1 X173.126 Y74.212 E19.67366
G1 X173.503 Y75.052 E19.70428
G1 X173.671 Y75.504 E19.72032
G1 X174.584 Y78.146 E19.81329
G1 X175.475 Y80.552 E19.89863
G1 X176.419 Y82.9 E19.9828
G1 X177.427 Y85.21 E20.06663
G1 X178.522 Y87.539 E20.15222
G1 X179.333 Y89.165 E20.21266
G1 X179.708 Y90.006 E20.24328
G1 X180.009 Y90.876 E20.2739
G1 X180.233 Y91.769 E20.30452
G1 X180.421 Y93.136 E20.35042
G1 X180.618 Y95.861 E20.44129
G1 X180.857 Y98.447 E20.52767
G1 X181.159 Y100.945 E20.61136
G1 X181.538 Y103.471 E20.69631
G1 X181.978 Y105.936 E20.77959
G1 X182.363 Y107.816 E20.84342
G1 X182.508 Y108.725 E20.87404
G1 X182.574 Y109.643 E20.90465
G1 X182.56 Y110.564 E20.93528
G1 X182.466 Y111.48 E20.96591
G1 X182.388 Y111.94 E20.98143
G1 X181.868 Y114.649 E21.07317
G1 X181.426 Y117.225 E21.1601
G1 X181.075 Y119.694 E21.24305
G1 X180.791 Y122.196 E21.3268
G1 X180.576 Y124.736 E21.41158
G1 X180.459 Y126.677 E21.47626
G1 X180.364 Y127.592 E21.50686
G1 X180.189 Y128.496 E21.53748
G1 X179.937 Y129.382 E21.56812
G1 X179.609 Y130.242 E21.59873
G1 X179.382 Y130.732 E21.61669
G1 X178.178 Y133.17 E21.70713
G1 X177.115 Y135.485 E21.79186
G1 X176.139 Y137.779 E21.87477
G1 X175.195 Y140.179 E21.96055
G1 X174.338 Y142.557 E22.04462
G1 X173.749 Y144.325 E22.1066
G1 X173.42 Y145.185 E22.13723
G1 X173.018 Y146.013 E22.16784
G1 X172.546 Y146.803 E22.19845
G1 X172.006 Y147.549 E22.22908
G1 X171.673 Y147.95 E22.24642
G1 X169.883 Y149.997 E22.33686
G1 X168.233 Y151.984 E22.42276
G1 X166.709 Y153.93 E22.50497
G1 X165.193 Y155.981 E22.5898
G1 X163.728 Y158.088 E22.67516
G1 X162.699 Y159.645 E22.73723
G1 X162.159 Y160.391 E22.76786
G1 X161.556 Y161.086 E22.79846
G1 X160.895 Y161.727 E22.82909
G1 X160.18 Y162.308 E22.85973
G1 X159.778 Y162.593 E22.87612
G1 X157.478 Y164.142 E22.96835
G1 X155.385 Y165.626 E23.05369
G1 X153.359 Y167.149 E23.13799
G1 X151.386 Y168.72 E23.22187
G1 X149.461 Y170.346 E23.30568
G1 X148.069 Y171.581 E23.36757
G1 X147.355 Y172.161 E23.39817
G1 X146.592 Y172.678 E23.42882
G1 X145.788 Y173.126 E23.45944
G1 X144.948 Y173.503 E23.49006
G1 X144.492 Y173.672 E23.50624
G1 X141.883 Y174.573 E23.59804
G1 X139.497 Y175.454 E23.68264
G1 X137.137 Y176.403 E23.76724
G1 X134.812 Y177.415 E23.85158
G1 X132.526 Y178.488 E23.93557
G1 X130.822 Y179.34 E23.99893
G1 X129.982 Y179.716 E24.02954
G1 X129.112 Y180.017 E24.06016
G1 X128.219 Y180.241 E24.09078
G1 X127.31 Y180.388 E24.12141
G1 X126.816 Y180.434 E24.13791
G1 X124.072 Y180.624 E24.22939
G1 X121.574 Y180.854 E24.31283
G1 X119.077 Y181.157 E24.39649
G1 X116.522 Y181.538 E24.48241
G1 X114.048 Y181.981 E24.566
G1 X112.133 Y182.372 E24.63101
G1 X111.224 Y182.517 E24.66163
G1 X110.305 Y182.583 E24.69227
G1 X109.385 Y182.568 E24.72287
G1 X108.469 Y182.474 E24.7535
G1 X107.947 Y182.384 E24.77112
G1 X105.288 Y181.856 E24.86128
G1 X102.785 Y181.428 E24.94574
G1 X100.314 Y181.077 E25.02875
G1 X97.767 Y180.789 E25.11401
G1 X95.249 Y180.575 E25.19806
G1 X93.344 Y180.46 E25.26153
G1 X92.428 Y180.364 E25.29217
G1 X91.524 Y180.19 E25.32279
G1 X90.639 Y179.938 E25.35339
G1 X89.779 Y179.61 E25.384
G1 X89.317 Y179.397 E25.40093
G1 X86.866 Y178.196 E25.49171
G1 X84.532 Y177.122 E25.57716
G1 X82.235 Y176.144 E25.6602
G1 X79.863 Y175.211 E25.74497
G1 X77.492 Y174.355 E25.82881
G1 X75.665 Y173.746 E25.89287
G1 X74.806 Y173.417 E25.92346
G1 X73.977 Y173.014 E25.95412
G1 X73.187 Y172.542 E25.98473
G1 X72.441 Y172.002 E26.01536
G1 X72.034 Y171.663 E26.03298
G1 X69.998 Y169.879 E26.12301
G1 X68.016 Y168.233 E26.2087
G1 X66.07 Y166.709 E26.29091
G1 X64.019 Y165.193 E26.37574
G1 X61.91 Y163.727 E26.46117
G1 X60.338 Y162.687 E26.52386
G1 X59.593 Y162.147 E26.55446
G1 X58.897 Y161.543 E26.58511
G1 X58.257 Y160.882 E26.61571
G1 X57.676 Y160.168 E26.64633
G1 X57.381 Y159.749 E26.66337
G1 X55.865 Y157.489 E26.75389
G1 X54.374 Y155.385 E26.83966
G1 X52.851 Y153.359 E26.92396
G1 X51.28 Y151.386 E27.00784
G1 X49.654 Y149.461 E27.09165
G1 X48.419 Y148.069 E27.15355
G1 X47.839 Y147.355 E27.18414
G1 X47.322 Y146.592 E27.2148
G1 X46.874 Y145.788 E27.24541
G1 X46.497 Y144.948 E27.27603
G1 X46.329 Y144.495 E27.2921
G1 X45.421 Y141.866 E27.38461
G1 X44.523 Y139.441 E27.47062
G1 X43.584 Y137.107 E27.55429
G1 X42.566 Y134.774 E27.63896
G1 X41.487 Y132.477 E27.72336
G1 X40.659 Y130.819 E27.785
G1 X40.284 Y129.978 E27.81563
G1 X39.983 Y129.108 E27.84625
G1 X39.759 Y128.215 E27.87687
G1 X39.614 Y127.306 E27.90749
G1 X39.569 Y126.823 E27.92362
G1 X39.38 Y124.11 E28.01407
G1 X39.144 Y121.56 E28.09925
G1 X38.84 Y119.045 E28.18351
G1 X38.464 Y116.538 E28.26782
G1 X38.017 Y114.041 E28.35219
G1 X37.627 Y112.131 E28.41703
G1 X37.482 Y111.222 E28.44765
G1 X37.416 Y110.304 E28.47826
G1 X37.43 Y109.383 E28.50889
G1 X37.525 Y108.467 E28.53952
G1 X37.616 Y107.938 E28.55738
G1 X38.138 Y105.317 E28.64626
G1 X38.574 Y102.775 E28.73205
G1 X38.925 Y100.306 E28.81499
G1 X39.209 Y97.804 E28.89874
G1 X39.424 Y95.264 E28.98353
G1 X39.541 Y93.323 E29.0482
G1 X39.636 Y92.408 E29.0788
G1 X39.811 Y91.504 E29.10942
G1 X40.063 Y90.618 E29.14006
G1 X40.391 Y89.758 E29.17067
