;FLAVOR:Marlin
;TIME:5162
;Filament used: 3.12214m
;Layer height: 0.2
;MINX:67.125
;MINY:34.626
;MINZ:0.2
;MAXX:152.875
;MAXY:126
;MAXZ:10
;Generated with Cura_SteamEngine 4.3.0
M140 S50
M105
M190 S50
M104 S200
M105
M109 S200
M82 ;absolute extrusion mode
M201 X500.00 Y500.00 Z100.00 E5000.00 ;Setup machine max acceleration
M203 X500.00 Y500.00 Z10.00 E50.00 ;Setup machine max feedrate
M204 P500.00 R1000.00 T500.00 ;Setup Print/Retract/Travel acceleration
M205 X8.00 Y8.00 Z0.40 E5.00 ;Setup Jerk
M220 S100 ;Reset Feedrate
M221 S100 ;Reset Flowrate

G28 ;Home

G92 E0 ;Reset Extruder
G1 Z2.0 F3000 ;Move Z Axis up
G1 X10.1 Y20 Z0.28 F5000.0 ;Move to start position
G1 X10.1 Y200.0 Z0.28 F1500.0 E15 ;Draw the first line
G1 X10.4 Y200.0 Z0.28 F5000.0 ;Move to side a little
G1 X10.4 Y20 Z0.28 F1500.0 E30 ;Draw the second line
G92 E0 ;Reset Extruder
G1 Z2.0 F3000 ;Move Z Axis up

G92 E0
G92 E0
G1 F2700 E-5
;LAYER_COUNT:50
;LAYER:0
M107
G0 F6000 X68.626 Y40.105 Z0.2
;TYPE:SKIRT
G1 F2700 E0
G1 F1200 X69.132 Y39.315 E0.0312
G1 X69.703 Y38.571 E0.0624
G1 X70.335 Y37.878 E0.09359
G1 X71.024 Y37.242 E0.12478
G1 X71.765 Y36.667 E0.15597
G1 X72.552 Y36.157 E0.18717
G1 X73.38 Y35.716 E0.21837
G1 X74.242 Y35.347 E0.24955
G1 X75.133 Y35.053 E0.28076
G1 X76.045 Y34.835 E0.31195
G1 X76.972 Y34.697 E0.34312
G1 X77.826 Y34.639 E0.37159
G1 X78.146 Y34.63 E0.38224
G1 X78.455 Y34.626 E0.39252
G1 X141.168 Y34.626 E2.47836
G1 X141.326 Y34.627 E2.48361
G1 X142.024 Y34.637 E2.50683
G1 X142.96 Y34.691 E2.53801
G1 X143.888 Y34.823 E2.56919
G1 X144.802 Y35.035 E2.6004
G1 X145.694 Y35.324 E2.63158
G1 X146.559 Y35.687 E2.66278
G1 X147.389 Y36.123 E2.69397
G1 X148.18 Y36.628 E2.72518
G1 X148.924 Y37.199 E2.75637
G1 X149.617 Y37.831 E2.78757
G1 X150.254 Y38.519 E2.81875
G1 X150.829 Y39.26 E2.84995
G1 X151.34 Y40.046 E2.88113
G1 X151.782 Y40.874 E2.91235
G1 X152.151 Y41.736 E2.94354
G1 X152.446 Y42.626 E2.97472
G1 X152.664 Y43.538 E3.00591
G1 X152.804 Y44.466 E3.03712
G1 X152.862 Y45.327 E3.06582
G1 X152.871 Y45.647 E3.07647
G1 X152.875 Y45.956 E3.08675
G1 X152.875 Y54.894 E3.38403
G1 X152.874 Y55.052 E3.38928
G1 X152.864 Y55.75 E3.4125
G1 X152.81 Y56.686 E3.44369
G1 X152.678 Y57.614 E3.47486
G1 X152.552 Y58.196 E3.49467
G1 X152.361 Y58.979 E3.52147
G1 X151.771 Y61.535 E3.60872
G1 X151.271 Y64.021 E3.69306
G1 X150.851 Y66.473 E3.7758
G1 X150.495 Y68.968 E3.85963
G1 X150.211 Y71.461 E3.94308
G1 X149.995 Y73.985 E4.02734
G1 X149.851 Y76.504 E4.11126
G1 X149.78 Y78.993 E4.19408
G1 X149.778 Y81.518 E4.27806
G1 X149.849 Y84.038 E4.36191
G1 X149.99 Y86.556 E4.44579
G1 X150.205 Y89.085 E4.5302
G1 X150.485 Y91.562 E4.61311
G1 X150.841 Y94.071 E4.6974
G1 X151.263 Y96.539 E4.78068
G1 X151.751 Y98.977 E4.86337
G1 X152.326 Y101.485 E4.94896
G1 X152.483 Y102.103 E4.97016
G1 X152.674 Y103.021 E5.00135
G1 X152.76 Y103.659 E5.02276
G1 X152.815 Y104.184 E5.04032
G1 X152.875 Y105.33 E5.07849
G1 X152.875 Y114.239 E5.3748
G1 X152.874 Y114.376 E5.37936
G1 X152.865 Y115.099 E5.40341
G1 X152.814 Y116.035 E5.43458
G1 X152.682 Y116.964 E5.46579
G1 X152.472 Y117.878 E5.49699
G1 X152.185 Y118.771 E5.52818
G1 X151.824 Y119.636 E5.55936
G1 X151.389 Y120.467 E5.59056
G1 X150.886 Y121.259 E5.62176
G1 X150.316 Y122.004 E5.65296
G1 X149.686 Y122.698 E5.68413
G1 X148.998 Y123.336 E5.71534
G1 X148.259 Y123.913 E5.74653
G1 X147.473 Y124.425 E5.77773
G1 X146.647 Y124.869 E5.80892
G1 X145.786 Y125.24 E5.8401
G1 X144.896 Y125.537 E5.87131
G1 X143.984 Y125.756 E5.9025
G1 X143.057 Y125.897 E5.93369
G1 X142.123 Y125.959 E5.96482
G1 X140.494 Y125.997 E6.01902
G1 X140.237 Y126 E6.02756
G1 X78.832 Y126 E8.0699
G1 X78.674 Y125.999 E8.07516
G1 X77.976 Y125.989 E8.09838
G1 X77.04 Y125.935 E8.12956
G1 X76.112 Y125.803 E8.16074
G1 X75.198 Y125.591 E8.19194
G1 X74.306 Y125.302 E8.22313
G1 X73.441 Y124.939 E8.25433
G1 X72.611 Y124.503 E8.28551
G1 X71.82 Y123.998 E8.31673
G1 X71.076 Y123.427 E8.34792
G1 X70.383 Y122.795 E8.37911
G1 X69.746 Y122.107 E8.4103
G1 X69.171 Y121.366 E8.44149
G1 X68.66 Y120.58 E8.47268
G1 X68.218 Y119.752 E8.50389
G1 X67.849 Y118.89 E8.53508
G1 X67.554 Y118 E8.56627
G1 X67.336 Y117.088 E8.59745
G1 X67.196 Y116.16 E8.62867
G1 X67.138 Y115.288 E8.65774
G1 X67.129 Y114.956 E8.66878
G1 X67.125 Y114.658 E8.67869
G1 X67.125 Y105.707 E8.97641
G1 X67.126 Y105.549 E8.98166
G1 X67.136 Y104.852 E9.00485
G1 X67.19 Y103.916 E9.03603
G1 X67.323 Y102.987 E9.06724
G1 X67.443 Y102.425 E9.08636
G1 X67.656 Y101.544 E9.1165
G1 X68.224 Y99.078 E9.20067
G1 X68.725 Y96.581 E9.28538
G1 X69.151 Y94.098 E9.36917
G1 X69.507 Y91.595 E9.45325
G1 X69.79 Y89.115 E9.53628
G1 X70.004 Y86.6 E9.62023
G1 X70.145 Y84.118 E9.70291
G1 X70.217 Y81.561 E9.78799
G1 X70.217 Y79.072 E9.87078
G1 X70.145 Y76.541 E9.95499
G1 X70.002 Y74.001 E10.03961
G1 X69.793 Y71.541 E10.12172
G1 X69.506 Y69.013 E10.20634
G1 X69.149 Y66.509 E10.29047
G1 X68.729 Y64.052 E10.37337
G1 X68.232 Y61.575 E10.4574
G1 X67.669 Y59.134 E10.54072
G1 X67.453 Y58.256 E10.57079
G1 X67.268 Y57.336 E10.60201
G1 X67.14 Y55.959 E10.648
G1 X67.13 Y55.627 E10.65905
G1 X67.125 Y55.296 E10.67006
G1 X67.125 Y46.3 E10.96927
G1 X67.126 Y46.135 E10.97476
G1 X67.136 Y45.47 E10.99688
G1 X67.19 Y44.533 E11.02809
G1 X67.324 Y43.605 E11.05928
G1 X67.536 Y42.691 E11.09048
G1 X67.825 Y41.799 E11.12167
G1 X68.19 Y40.935 E11.15287
G1 X68.626 Y40.105 E11.18405
G0 F6000 X69.023 Y40.219
G1 F1200 X69.528 Y39.448 E11.2147
G1 X70.097 Y38.725 E11.24531
G1 X70.727 Y38.053 E11.27594
G1 X71.413 Y37.439 E11.30656
G1 X72.149 Y36.887 E11.33716
G1 X72.931 Y36.4 E11.3678
G1 X73.752 Y35.984 E11.39842
G1 X74.606 Y35.64 E11.42904
G1 X75.486 Y35.371 E11.45964
G1 X76.387 Y35.18 E11.49028
G1 X77.301 Y35.068 E11.5209
G1 X77.837 Y35.039 E11.53876
G1 X78.157 Y35.03 E11.5494
G1 X78.455 Y35.026 E11.55932
G1 X141.168 Y35.026 E13.64516
G1 X141.32 Y35.027 E13.65022
G1 X142.018 Y35.037 E13.67343
G1 X142.937 Y35.09 E13.70405
G1 X143.848 Y35.223 E13.73467
G1 X144.744 Y35.434 E13.76529
G1 X145.618 Y35.722 E13.79589
G1 X146.465 Y36.085 E13.82654
G1 X147.276 Y36.52 E13.85715
G1 X148.046 Y37.024 E13.88776
G1 X148.77 Y37.593 E13.91839
G1 X149.442 Y38.223 E13.94903
G1 X150.057 Y38.908 E13.97964
G1 X150.61 Y39.644 E14.01026
G1 X151.097 Y40.425 E14.04088
G1 X151.514 Y41.246 E14.0715
G1 X151.859 Y42.1 E14.10214
G1 X152.128 Y42.98 E14.13274
G1 X152.32 Y43.881 E14.16338
G1 X152.433 Y44.794 E14.19398
G1 X152.462 Y45.338 E14.2121
G1 X152.471 Y45.658 E14.22275
G1 X152.475 Y45.956 E14.23266
G1 X152.475 Y54.894 E14.52994
G1 X152.474 Y55.046 E14.535
G1 X152.464 Y55.744 E14.55821
G1 X152.411 Y56.663 E14.58883
G1 X152.278 Y57.574 E14.61945
G1 X152.164 Y58.101 E14.63739
G1 X151.972 Y58.89 E14.66439
G1 X151.376 Y61.471 E14.7525
G1 X150.879 Y63.94 E14.83626
G1 X150.453 Y66.427 E14.92019
G1 X150.1 Y68.902 E15.00334
G1 X149.81 Y71.449 E15.0886
G1 X149.598 Y73.929 E15.17138
G1 X149.453 Y76.469 E15.256
G1 X149.38 Y79.017 E15.34078
G1 X149.378 Y81.529 E15.42433
G1 X149.449 Y84.073 E15.50898
G1 X149.59 Y86.577 E15.5924
G1 X149.804 Y89.092 E15.67635
G1 X150.09 Y91.627 E15.7612
G1 X150.444 Y94.123 E15.84505
G1 X150.87 Y96.613 E15.92907
G1 X151.362 Y99.073 E16.01251
G1 X151.939 Y101.586 E16.09826
G1 X152.095 Y102.201 E16.11937
G1 X152.282 Y103.102 E16.14997
G1 X152.362 Y103.701 E16.17007
G1 X152.417 Y104.226 E16.18763
G1 X152.475 Y105.33 E16.2244
G1 X152.475 Y114.239 E16.52071
G1 X152.474 Y114.371 E16.5251
G1 X152.465 Y115.094 E16.54915
G1 X152.414 Y116.013 E16.57977
G1 X152.283 Y116.924 E16.61038
G1 X152.073 Y117.821 E16.64102
G1 X151.787 Y118.696 E16.67164
G1 X151.425 Y119.543 E16.70227
G1 X150.992 Y120.355 E16.73288
G1 X150.489 Y121.126 E16.7635
G1 X149.922 Y121.851 E16.79411
G1 X149.294 Y122.524 E16.82473
G1 X148.61 Y123.14 E16.85534
G1 X147.874 Y123.695 E16.886
G1 X147.094 Y124.183 E16.9166
G1 X146.274 Y124.602 E16.94723
G1 X145.421 Y124.948 E16.97785
G1 X144.541 Y125.219 E17.00847
G1 X143.641 Y125.412 E17.03909
G1 X142.728 Y125.527 E17.06969
G1 X142.113 Y125.559 E17.09018
G1 X140.484 Y125.597 E17.14437
G1 X140.237 Y125.6 E17.15259
G1 X78.832 Y125.6 E19.19493
G1 X78.68 Y125.599 E19.19998
G1 X77.982 Y125.589 E19.2232
G1 X77.063 Y125.536 E19.25382
G1 X76.152 Y125.403 E19.28444
G1 X75.256 Y125.192 E19.31505
G1 X74.382 Y124.904 E19.34566
G1 X73.535 Y124.541 E19.37631
G1 X72.724 Y124.106 E19.40692
G1 X71.954 Y123.602 E19.43753
G1 X71.23 Y123.033 E19.46816
G1 X70.558 Y122.403 E19.49879
G1 X69.943 Y121.718 E19.52941
G1 X69.39 Y120.982 E19.56003
G1 X68.903 Y120.201 E19.59064
G1 X68.486 Y119.38 E19.62127
G1 X68.141 Y118.526 E19.6519
G1 X67.872 Y117.646 E19.68251
G1 X67.68 Y116.745 E19.71315
G1 X67.567 Y115.832 E19.74375
G1 X67.538 Y115.277 E19.76223
G1 X67.529 Y114.945 E19.77328
G1 X67.525 Y114.658 E19.78283
G1 X67.525 Y105.707 E20.08054
G1 X67.526 Y105.555 E20.08559
G1 X67.536 Y104.858 E20.10878
G1 X67.589 Y103.939 E20.13939
G1 X67.722 Y103.028 E20.17002
G1 X67.832 Y102.519 E20.18734
G1 X68.029 Y101.703 E20.21526
G1 X68.619 Y99.141 E20.3027
G1 X69.118 Y96.656 E20.387
G1 X69.547 Y94.151 E20.47153
G1 X69.902 Y91.665 E20.55505
G1 X70.187 Y89.158 E20.63897
G1 X70.403 Y86.62 E20.72369
G1 X70.545 Y84.118 E20.80704
G1 X70.617 Y81.572 E20.89176
G1 X70.617 Y79.061 E20.97527
G1 X70.545 Y76.506 E21.06029
G1 X70.404 Y74.014 E21.1433
G1 X70.187 Y71.463 E21.22846
G1 X69.905 Y68.978 E21.31164
G1 X69.547 Y66.462 E21.39616
G1 X69.12 Y63.971 E21.48022
G1 X68.629 Y61.519 E21.5634
G1 X68.022 Y58.89 E21.65314
G1 X67.842 Y58.16 E21.67815
G1 X67.661 Y57.258 E21.70874
G1 X67.54 Y55.947 E21.75253
G1 X67.53 Y55.615 E21.76358
G1 X67.525 Y55.296 E21.77419
G1 X67.525 Y46.3 E22.0734
G1 X67.526 Y46.141 E22.07869
G1 X67.536 Y45.476 E22.10081
G1 X67.59 Y44.557 E22.13143
G1 X67.723 Y43.646 E22.16205
G1 X67.935 Y42.75 E22.19267
G1 X68.224 Y41.875 E22.22332
G1 X68.588 Y41.03 E22.25392
G1 X69.023 Y40.219 E22.28453
G0 F6000 X69.42 Y40.335
G1 F1200 X69.923 Y39.584 E22.3146
G1 X70.491 Y38.882 E22.34463
G1 X71.118 Y38.232 E22.37467
G1 X71.8 Y37.64 E22.40471
G1 X72.532 Y37.111 E22.43474
G1 X73.308 Y36.649 E22.46478
G1 X74.122 Y36.258 E22.49482
G1 X74.967 Y35.939 E22.52486
G1 X75.837 Y35.697 E22.55489
G1 X76.725 Y35.533 E22.58493
G1 X77.848 Y35.439 E22.62241
G1 X78.168 Y35.43 E22.63306
G1 X78.455 Y35.426 E22.6426
G1 X141.168 Y35.426 E24.72845
G1 X141.314 Y35.427 E24.7333
G1 X142.012 Y35.437 E24.75652
G1 X142.914 Y35.49 E24.78657
G1 X143.807 Y35.622 E24.8166
G1 X144.685 Y35.833 E24.84663
G1 X145.541 Y36.121 E24.87667
G1 X146.368 Y36.483 E24.90669
G1 X147.16 Y36.918 E24.93675
G1 X147.911 Y37.42 E24.96679
G1 X148.614 Y37.987 E24.99683
G1 X149.264 Y38.614 E25.02687
G1 X149.856 Y39.296 E25.05691
G1 X150.386 Y40.027 E25.08694
G1 X150.848 Y40.803 E25.11698
G1 X151.241 Y41.616 E25.14701
G1 X151.559 Y42.461 E25.17704
G1 X151.802 Y43.331 E25.20708
G1 X151.967 Y44.219 E25.23712
G1 X152.062 Y45.349 E25.27484
G1 X152.071 Y45.669 E25.28549
G1 X152.075 Y45.956 E25.29504
G1 X152.075 Y54.894 E25.59231
G1 X152.074 Y55.04 E25.59717
G1 X152.064 Y55.738 E25.62039
G1 X152.011 Y56.64 E25.65044
G1 X151.879 Y57.533 E25.68046
G1 X151.775 Y58.006 E25.69657
G1 X151.594 Y58.747 E25.72194
G1 X150.988 Y61.374 E25.81161
G1 X150.487 Y63.86 E25.89596
G1 X150.056 Y66.38 E25.98099
G1 X149.701 Y68.867 E26.06455
G1 X149.416 Y71.371 E26.14837
G1 X149.196 Y73.941 E26.23416
G1 X149.053 Y76.437 E26.31731
G1 X148.98 Y79.005 E26.40276
G1 X148.978 Y81.54 E26.48707
G1 X149.049 Y84.07 E26.57126
G1 X149.191 Y86.6 E26.65554
G1 X149.409 Y89.17 E26.74132
G1 X149.691 Y91.661 E26.8247
G1 X150.048 Y94.176 E26.90919
G1 X150.477 Y96.688 E26.99395
G1 X150.974 Y99.17 E27.07814
G1 X151.549 Y101.677 E27.16369
G1 X151.707 Y102.299 E27.18503
G1 X151.89 Y103.184 E27.21509
G1 X151.964 Y103.742 E27.23381
G1 X152.019 Y104.267 E27.25137
G1 X152.075 Y105.33 E27.28677
G1 X152.075 Y114.239 E27.58309
G1 X152.074 Y114.366 E27.58731
G1 X152.065 Y115.089 E27.61136
G1 X152.014 Y115.991 E27.64141
G1 X151.883 Y116.884 E27.67143
G1 X151.674 Y117.763 E27.70148
G1 X151.388 Y118.619 E27.7315
G1 X151.027 Y119.447 E27.76154
G1 X150.594 Y120.24 E27.79159
G1 X150.093 Y120.991 E27.82162
G1 X149.528 Y121.695 E27.85164
G1 X148.902 Y122.347 E27.8817
G1 X148.221 Y122.94 E27.91174
G1 X147.491 Y123.471 E27.94176
G1 X146.716 Y123.935 E27.97181
G1 X145.903 Y124.329 E28.00185
G1 X145.059 Y124.649 E28.03188
G1 X144.19 Y124.894 E28.06191
G1 X143.302 Y125.06 E28.09195
G1 X142.104 Y125.159 E28.13193
G1 X140.475 Y125.197 E28.18613
G1 X140.237 Y125.2 E28.19405
G1 X78.832 Y125.2 E30.23638
G1 X78.686 Y125.199 E30.24124
G1 X77.988 Y125.189 E30.26446
G1 X77.086 Y125.136 E30.29451
G1 X76.193 Y125.004 E30.32453
G1 X75.315 Y124.793 E30.35457
G1 X74.459 Y124.505 E30.38461
G1 X73.632 Y124.143 E30.41463
G1 X72.84 Y123.708 E30.44469
G1 X72.089 Y123.206 E30.47473
G1 X71.386 Y122.639 E30.50477
G1 X70.736 Y122.012 E30.53481
G1 X70.144 Y121.33 E30.56485
G1 X69.614 Y120.599 E30.59488
G1 X69.152 Y119.823 E30.62492
G1 X68.759 Y119.01 E30.65495
G1 X68.441 Y118.165 E30.68498
G1 X68.198 Y117.295 E30.71502
G1 X68.033 Y116.407 E30.74506
G1 X67.938 Y115.266 E30.78314
G1 X67.929 Y114.934 E30.79419
G1 X67.925 Y114.658 E30.80337
G1 X67.925 Y105.707 E31.10108
G1 X67.926 Y105.561 E31.10594
G1 X67.936 Y104.864 E31.12912
G1 X67.989 Y103.962 E31.15918
G1 X68.121 Y103.069 E31.1892
G1 X68.221 Y102.613 E31.20473
G1 X68.419 Y101.793 E31.23278
G1 X69.015 Y99.204 E31.32115
G1 X69.511 Y96.737 E31.40484
G1 X69.939 Y94.238 E31.48917
G1 X70.296 Y91.73 E31.57343
G1 X70.588 Y89.166 E31.65926
G1 X70.8 Y86.678 E31.74231
G1 X70.945 Y84.116 E31.82766
G1 X71.017 Y81.583 E31.91194
G1 X71.017 Y79.05 E31.99619
G1 X70.945 Y76.509 E32.08073
G1 X70.801 Y73.957 E32.16575
G1 X70.588 Y71.455 E32.24927
G1 X70.3 Y68.913 E32.33435
G1 X69.942 Y66.405 E32.41862
G1 X69.513 Y63.896 E32.50328
G1 X69.017 Y61.422 E32.5872
G1 X68.428 Y58.868 E32.67438
G1 X68.23 Y58.065 E32.70188
G1 X68.054 Y57.179 E32.73193
G1 X67.94 Y55.935 E32.77348
G1 X67.93 Y55.603 E32.78452
G1 X67.925 Y55.296 E32.79474
G1 X67.925 Y46.3 E33.09395
G1 X67.926 Y46.147 E33.09903
G1 X67.936 Y45.482 E33.12115
G1 X67.99 Y44.58 E33.15121
G1 X68.123 Y43.687 E33.18124
G1 X68.334 Y42.809 E33.21127
G1 X68.623 Y41.953 E33.24132
G1 X68.986 Y41.126 E33.27136
G1 X69.42 Y40.335 E33.30137
G1 F2700 E28.30137
;MESH:small-riser-block.stl
G0 F6000 X77.495 Y45.586
G0 X84.157 Y49.917
G0 X84.223 Y49.96
G0 X82.602 Y49.025
G0 X83.009 Y51.223
G0 X83.246 Y51.818
G0 X83.692 Y52.388
G0 X84.064 Y52.674
G0 X86.153 Y53.533
;TYPE:WALL-INNER
G1 F2700 E33.30137
G1 F1200 X86.88 Y53.231 E33.32755
G1 X87.502 Y52.753 E33.35364
G1 X87.982 Y52.13 E33.3798
G1 X88.268 Y51.435 E33.4048
G1 X88.371 Y50.732 E33.42843
G1 X88.372 Y50.54 E33.43482
G1 X88.282 Y49.848 E33.45803
G1 X87.993 Y49.153 E33.48306
G1 X87.564 Y48.577 E33.50695
G1 X87.428 Y48.442 E33.51332
G1 X86.88 Y48.021 E33.53631
G1 X86.832 Y48.002 E33.53802
G1 X86.153 Y47.719 E33.56249
G1 X85.375 Y47.618 E33.58858
G1 X84.597 Y47.719 E33.61468
G1 X83.87 Y48.021 E33.64086
G1 X83.248 Y48.499 E33.66695
G1 X82.768 Y49.122 E33.69311
G1 X82.482 Y49.816 E33.71807
G1 X82.379 Y50.534 E33.7422
G1 X82.371 Y50.584 E33.74388
G1 X82.461 Y51.363 E33.76997
G1 X82.752 Y52.094 E33.79613
G1 X83.186 Y52.675 E33.82025
G1 X83.322 Y52.81 E33.82663
G1 X83.87 Y53.231 E33.84961
G1 X83.918 Y53.25 E33.85133
G1 X84.597 Y53.533 E33.8758
G1 X85.375 Y53.634 E33.90189
G1 X86.153 Y53.533 E33.92798
G0 F6000 X86.049 Y53.143
G1 F1200 X86.678 Y52.882 E33.95063
G1 X87.217 Y52.468 E33.97324
G1 X87.632 Y51.928 E33.99589
G1 X87.879 Y51.328 E34.01747
G1 X87.971 Y50.701 E34.03855
G1 X87.972 Y50.565 E34.04307
G1 X87.892 Y49.952 E34.06363
G1 X87.643 Y49.352 E34.08524
G1 X87.261 Y48.84 E34.10649
G1 X87.164 Y48.744 E34.11103
G1 X86.678 Y48.37 E34.13142
G1 X86.049 Y48.109 E34.15407
G1 X85.375 Y48.021 E34.17668
G1 X84.701 Y48.109 E34.19929
G1 X84.072 Y48.37 E34.22194
G1 X83.533 Y48.784 E34.24454
G1 X83.118 Y49.324 E34.26719
G1 X82.871 Y49.923 E34.28874
G1 X82.774 Y50.59 E34.31116
G1 X82.852 Y51.264 E34.33373
G1 X83.104 Y51.897 E34.35639
G1 X83.489 Y52.412 E34.37778
G1 X83.586 Y52.508 E34.38232
G1 X84.072 Y52.882 E34.40271
G1 X84.701 Y53.143 E34.42536
G1 X85.375 Y53.231 E34.44797
