;FLAVOR:Marlin
;TIME:8257
;Filament used: 5.19929m
;Layer height: 0.2
;MINX:19.552
;MINY:19.552
;MINZ:0.2
;MAXX:200.448
;MAXY:200.448
;MAXZ:10
;Generated with Cura_SteamEngine 4.3.0
M140 S50
M105
M190 S50
M104 S200
M105
M109 S200
M82 ;absolute extrusion mode
M201 X500.00 Y500.00 Z100.00 E5000.00 ;Setup machine max acceleration
M203 X500.00 Y500.00 Z10.00 E50.00 ;Setup machine max feedrate
M204 P500.00 R1000.00 T500.00 ;Setup Print/Retract/Travel acceleration
M205 X8.00 Y8.00 Z0.40 E5.00 ;Setup Jerk
M220 S100 ;Reset Feedrate
M221 S100 ;Reset Flowrate

G28 ;Home

G92 E0 ;Reset Extruder
G1 Z2.0 F3000 ;Move Z Axis up
G1 X10.1 Y20 Z0.28 F5000.0 ;Move to start position
G1 X10.1 Y200.0 Z0.28 F1500.0 E15 ;Draw the first line
G1 X10.4 Y200.0 Z0.28 F5000.0 ;Move to side a little
G1 X10.4 Y20 Z0.28 F1500.0 E30 ;Draw the second line
G92 E0 ;Reset Extruder
G1 Z2.0 F3000 ;Move Z Axis up

G92 E0
G92 E0
G1 F2700 E-5
;LAYER_COUNT:50
;LAYER:0
M107
G0 F6000 X78.183 Y119.19 Z0.2
;TYPE:SKIRT
G1 F2700 E0
G1 F1200 X174.131 Y23.242 E4.5131
G1 X174.238 Y23.136 E4.51811
G1 X174.719 Y22.668 E4.54043
G1 X175.419 Y22.043 E4.57164
G1 X176.169 Y21.48 E4.60283
G1 X176.964 Y20.983 E4.63402
G1 X177.799 Y20.556 E4.66521
G1 X178.667 Y20.201 E4.6964
G1 X179.562 Y19.922 E4.72758
G1 X180.478 Y19.719 E4.75879
G1 X181.408 Y19.596 E4.78999
G1 X182.345 Y19.552 E4.82119
G1 X183.282 Y19.588 E4.85238
G1 X184.213 Y19.704 E4.88358
G1 X185.13 Y19.899 E4.91476
G1 X186.028 Y20.171 E4.94597
G1 X186.899 Y20.518 E4.97715
G1 X187.737 Y20.939 E5.00834
G1 X188.536 Y21.429 E5.03952
G1 X189.291 Y21.986 E5.07072
G1 X189.938 Y22.55 E5.09927
G1 X190.167 Y22.766 E5.10974
G1 X190.397 Y22.99 E5.12042
G1 X196.758 Y29.351 E5.41962
G1 X196.864 Y29.458 E5.42463
G1 X197.332 Y29.939 E5.44695
G1 X197.957 Y30.639 E5.47817
G1 X198.52 Y31.389 E5.50936
G1 X199.017 Y32.184 E5.54054
G1 X199.444 Y33.019 E5.57173
G1 X199.799 Y33.887 E5.60292
G1 X200.078 Y34.782 E5.6341
G1 X200.281 Y35.698 E5.66531
G1 X200.404 Y36.628 E5.69651
G1 X200.448 Y37.565 E5.72771
G1 X200.412 Y38.502 E5.7589
G1 X200.296 Y39.433 E5.7901
G1 X200.101 Y40.35 E5.82128
G1 X199.829 Y41.248 E5.85249
G1 X199.482 Y42.119 E5.88368
G1 X199.061 Y42.957 E5.91487
G1 X198.571 Y43.756 E5.94604
G1 X198.014 Y44.511 E5.97725
G1 X197.456 Y45.151 E6.00549
G1 X197.246 Y45.374 E6.01568
G1 X197.016 Y45.611 E6.02666
G1 X45.877 Y196.75 E13.13578
G1 X45.772 Y196.854 E13.14069
G1 X45.283 Y197.33 E13.16339
G1 X44.583 Y197.955 E13.1946
G1 X43.833 Y198.518 E13.22579
G1 X43.038 Y199.015 E13.25698
G1 X42.203 Y199.443 E13.28818
G1 X41.335 Y199.798 E13.31937
G1 X40.44 Y200.078 E13.35057
G1 X39.524 Y200.28 E13.38176
G1 X38.595 Y200.404 E13.41294
G1 X37.658 Y200.448 E13.44414
G1 X36.721 Y200.412 E13.47532
G1 X35.79 Y200.296 E13.50653
G1 X34.872 Y200.102 E13.53773
G1 X33.975 Y199.83 E13.56891
G1 X33.104 Y199.483 E13.60009
G1 X32.265 Y199.062 E13.63132
G1 X31.466 Y198.572 E13.66249
G1 X30.711 Y198.015 E13.6937
G1 X30.037 Y197.426 E13.72347
G1 X29.801 Y197.202 E13.73429
G1 X29.596 Y197.002 E13.74381
G1 X23.242 Y190.648 E14.04269
G1 X23.144 Y190.549 E14.04732
G1 X22.676 Y190.069 E14.06962
G1 X22.05 Y189.37 E14.10083
G1 X21.487 Y188.621 E14.13199
G1 X20.989 Y187.826 E14.16319
G1 X20.561 Y186.992 E14.19437
G1 X20.205 Y186.124 E14.22558
G1 X19.925 Y185.229 E14.25677
G1 X19.721 Y184.313 E14.28798
G1 X19.597 Y183.384 E14.31915
G1 X19.552 Y182.447 E14.35035
G1 X19.587 Y181.51 E14.38154
G1 X19.702 Y180.579 E14.41274
G1 X19.896 Y179.661 E14.44395
G1 X20.167 Y178.763 E14.47514
G1 X20.514 Y177.892 E14.50633
G1 X20.933 Y177.053 E14.53752
G1 X21.423 Y176.253 E14.56872
G1 X21.979 Y175.498 E14.59991
G1 X22.561 Y174.831 E14.62935
G1 X22.771 Y174.609 E14.63951
G1 X22.984 Y174.39 E14.64968
G1 X60.681 Y136.691 E16.42287
G1 X78.183 Y119.19 E17.24609
G0 F6000 X78.465 Y119.473
G1 F1200 X174.413 Y23.525 E21.75919
G1 X174.517 Y23.423 E21.76404
G1 X174.998 Y22.955 E21.78636
G1 X175.685 Y22.342 E21.81698
G1 X176.423 Y21.791 E21.84761
G1 X177.206 Y21.306 E21.87825
G1 X178.027 Y20.891 E21.90884
G1 X178.882 Y20.549 E21.93947
G1 X179.763 Y20.283 E21.97008
G1 X180.664 Y20.093 E22.00071
G1 X181.578 Y19.983 E22.03133
G1 X182.498 Y19.953 E22.06194
G1 X183.418 Y20.002 E22.09258
G1 X184.329 Y20.131 E22.12319
G1 X185.226 Y20.339 E22.15381
G1 X186.102 Y20.623 E22.18444
G1 X186.949 Y20.983 E22.21505
G1 X187.763 Y21.414 E22.24569
G1 X188.535 Y21.915 E22.2763
G1 X189.261 Y22.481 E22.30691
G1 X189.663 Y22.841 E22.32486
G1 X189.892 Y23.057 E22.33533
G1 X190.114 Y23.273 E22.34563
G1 X196.475 Y29.634 E22.64484
G1 X196.577 Y29.737 E22.64966
G1 X197.045 Y30.218 E22.67198
G1 X197.658 Y30.905 E22.7026
G1 X198.209 Y31.643 E22.73323
G1 X198.694 Y32.426 E22.76387
G1 X199.109 Y33.247 E22.79447
G1 X199.451 Y34.102 E22.82509
G1 X199.717 Y34.983 E22.8557
G1 X199.907 Y35.884 E22.88633
G1 X200.017 Y36.798 E22.91695
G1 X200.047 Y37.718 E22.94756
G1 X199.998 Y38.638 E22.97821
G1 X199.869 Y39.549 E23.00881
G1 X199.661 Y40.446 E23.03943
G1 X199.377 Y41.322 E23.07006
G1 X199.017 Y42.169 E23.10067
G1 X198.586 Y42.983 E23.13131
G1 X198.085 Y43.755 E23.16192
G1 X197.519 Y44.481 E23.19254
G1 X197.165 Y44.877 E23.2102
G1 X196.955 Y45.1 E23.22039
G1 X196.733 Y45.328 E23.23097
G1 X45.493 Y196.568 E30.34484
G1 X45.004 Y197.044 E30.36754
G1 X44.317 Y197.657 E30.39816
G1 X43.579 Y198.208 E30.42879
G1 X42.797 Y198.692 E30.45938
G1 X41.975 Y199.108 E30.49002
G1 X41.12 Y199.45 E30.52065
G1 X40.239 Y199.717 E30.55127
G1 X39.338 Y199.906 E30.58189
G1 X38.424 Y200.017 E30.61251
G1 X37.504 Y200.047 E30.64313
G1 X36.585 Y199.998 E30.67374
G1 X35.673 Y199.87 E30.70437
G1 X34.776 Y199.662 E30.73499
G1 X33.9 Y199.378 E30.76562
G1 X33.053 Y199.018 E30.79623
G1 X32.24 Y198.587 E30.82684
G1 X31.467 Y198.086 E30.85748
G1 X30.74 Y197.521 E30.8881
G1 X30.313 Y197.136 E30.90722
G1 X30.077 Y196.912 E30.91805
G1 X29.879 Y196.719 E30.92724
G1 X23.43 Y190.27 E31.23058
G1 X22.962 Y189.79 E31.25288
G1 X22.349 Y189.103 E31.2835
G1 X21.797 Y188.366 E31.31413
G1 X21.312 Y187.584 E31.34474
G1 X20.896 Y186.763 E31.37535
G1 X20.553 Y185.908 E31.40599
G1 X20.285 Y185.027 E31.43662
G1 X20.095 Y184.127 E31.46721
G1 X19.984 Y183.213 E31.49783
G1 X19.952 Y182.293 E31.52845
G1 X20.001 Y181.373 E31.55909
G1 X20.129 Y180.461 E31.58972
G1 X20.336 Y179.564 E31.62034
G1 X20.619 Y178.688 E31.65096
G1 X20.978 Y177.841 E31.68156
G1 X21.409 Y177.027 E31.71219
G1 X21.909 Y176.254 E31.74281
G1 X22.474 Y175.527 E31.77344
G1 X22.851 Y175.106 E31.79223
G1 X23.061 Y174.884 E31.8024
G1 X23.266 Y174.673 E31.81218
G1 X60.963 Y136.974 E33.58538
G1 X78.465 Y119.473 E34.4086
G0 F6000 X78.748 Y119.756
G1 F1200 X174.696 Y23.808 E38.9217
G1 X174.796 Y23.709 E38.92638
G1 X175.277 Y23.241 E38.9487
G1 X175.952 Y22.641 E38.97874
G1 X176.677 Y22.102 E39.00878
G1 X177.446 Y21.63 E39.03879
G1 X178.255 Y21.228 E39.06884
G1 X179.096 Y20.899 E39.09888
G1 X179.963 Y20.645 E39.12892
G1 X180.848 Y20.469 E39.15894
G1 X181.746 Y20.372 E39.18898
G1 X182.649 Y20.355 E39.21902
G1 X183.55 Y20.418 E39.24906
G1 X184.442 Y20.561 E39.2791
G1 X185.318 Y20.781 E39.30914
G1 X186.17 Y21.078 E39.33915
G1 X186.994 Y21.45 E39.36922
G1 X187.781 Y21.893 E39.39926
G1 X188.525 Y22.404 E39.42928
G1 X189.389 Y23.132 E39.46686
G1 X189.618 Y23.348 E39.47733
G1 X189.831 Y23.556 E39.48723
G1 X196.291 Y30.016 E39.79109
G1 X196.759 Y30.497 E39.81341
G1 X197.359 Y31.172 E39.84345
G1 X197.898 Y31.897 E39.8735
G1 X198.37 Y32.666 E39.90351
G1 X198.772 Y33.475 E39.93355
G1 X199.101 Y34.316 E39.96359
G1 X199.355 Y35.183 E39.99364
G1 X199.531 Y36.068 E40.02365
G1 X199.628 Y36.966 E40.05369
G1 X199.645 Y37.869 E40.08373
G1 X199.582 Y38.77 E40.11377
G1 X199.439 Y39.662 E40.14382
G1 X199.219 Y40.538 E40.17386
G1 X198.922 Y41.39 E40.20387
G1 X198.55 Y42.214 E40.23394
G1 X198.107 Y43.001 E40.26398
G1 X197.596 Y43.745 E40.294
G1 X196.874 Y44.603 E40.33129
G1 X196.664 Y44.826 E40.34148
G1 X196.45 Y45.045 E40.35167
G1 X45.214 Y196.281 E47.46534
G1 X44.725 Y196.757 E47.48804
G1 X44.05 Y197.358 E47.5181
G1 X43.325 Y197.896 E47.54813
G1 X42.556 Y198.369 E47.57816
G1 X41.747 Y198.771 E47.6082
G1 X40.906 Y199.101 E47.63825
G1 X40.04 Y199.354 E47.66826
G1 X39.154 Y199.53 E47.6983
G1 X38.256 Y199.628 E47.72835
G1 X37.353 Y199.645 E47.75839
G1 X36.452 Y199.582 E47.78843
G1 X35.56 Y199.44 E47.81847
G1 X34.685 Y199.219 E47.84849
G1 X33.832 Y198.922 E47.87853
G1 X33.008 Y198.551 E47.90858
G1 X32.221 Y198.108 E47.93862
G1 X31.476 Y197.598 E47.96865
G1 X30.588 Y196.846 E48.00735
G1 X30.352 Y196.622 E48.01817
G1 X30.162 Y196.436 E48.02702
G1 X23.717 Y189.991 E48.33017
G1 X23.249 Y189.511 E48.35247
G1 X22.648 Y188.837 E48.3825
G1 X22.108 Y188.112 E48.41257
G1 X21.635 Y187.343 E48.4426
G1 X21.232 Y186.535 E48.47263
G1 X20.902 Y185.694 E48.50268
G1 X20.648 Y184.828 E48.53269
G1 X20.471 Y183.942 E48.56275
G1 X20.373 Y183.044 E48.59279
G1 X20.355 Y182.141 E48.62283
G1 X20.417 Y181.24 E48.65287
G1 X20.558 Y180.348 E48.6829
G1 X20.778 Y179.472 E48.71295
G1 X21.075 Y178.619 E48.74299
G1 X21.445 Y177.796 E48.773
G1 X21.887 Y177.008 E48.80305
G1 X22.397 Y176.263 E48.83308
G1 X23.142 Y175.381 E48.87148
G1 X23.352 Y175.159 E48.88164
G1 X23.549 Y174.956 E48.89105
G1 X61.246 Y137.257 E50.66425
G1 X78.748 Y119.756 E51.48747
G1 F2700 E46.48747
;MESH:non-uniform-rod-with-holes.stl
G0 F6000 X136.487 Y75.555
G0 X162.27 Y55.819
G0 X162.446 Y55.673
G0 X162.719 Y55.463
G0 X162.91 Y55.329
G0 X170.238 Y49.72
G0 X170.301 Y49.673
G0 X168.962 Y50.979
G0 X170.435 Y51.638
;TYPE:WALL-INNER
G1 F2700 E51.48747
G1 F1200 X171.147 Y51.743 E51.5114
G1 X171.339 Y51.744 E51.51779
G1 X172.031 Y51.654 E51.541
G1 X172.758 Y51.352 E51.56718
G1 X173.38 Y50.874 E51.59327
G1 X173.858 Y50.252 E51.61936
G1 X173.877 Y50.204 E51.62108
G1 X174.16 Y49.525 E51.64555
G1 X174.261 Y48.747 E51.67164
G1 X174.16 Y47.969 E51.69774
G1 X173.871 Y47.274 E51.72277
G1 X173.442 Y46.698 E51.74666
G1 X173.306 Y46.563 E51.75303
G1 X172.758 Y46.141 E51.77604
G1 X172.063 Y45.854 E51.80104
G1 X171.359 Y45.751 E51.82471
G1 X171.167 Y45.75 E51.8311
G1 X170.475 Y45.84 E51.85431
G1 X169.748 Y46.142 E51.88049
G1 X169.126 Y46.62 E51.90658
G1 X168.648 Y47.242 E51.93267
G1 X168.629 Y47.29 E51.93439
G1 X168.346 Y47.969 E51.95885
G1 X168.245 Y48.747 E51.98495
G1 X168.342 Y49.493 E52.00997
G1 X168.63 Y50.215 E52.03582
G1 X169.1 Y50.844 E52.06194
G1 X169.716 Y51.329 E52.08801
G1 X170.435 Y51.638 E52.11404
G0 F6000 X170.545 Y51.25
G1 F1200 X171.178 Y51.343 E52.13532
G1 X171.314 Y51.344 E52.13985
G1 X171.927 Y51.264 E52.16041
G1 X172.556 Y51.003 E52.18306
G1 X173.095 Y50.589 E52.20566
G1 X173.509 Y50.05 E52.22827
G1 X173.77 Y49.421 E52.25092
G1 X173.858 Y48.747 E52.27353
G1 X173.77 Y48.073 E52.29613
G1 X173.521 Y47.473 E52.31774
G1 X173.139 Y46.961 E52.33899
G1 X173.042 Y46.865 E52.34353
G1 X172.556 Y46.49 E52.36394
G1 X171.956 Y46.243 E52.38552
G1 X171.328 Y46.151 E52.40663
G1 X171.192 Y46.15 E52.41116
G1 X170.579 Y46.23 E52.43172
G1 X169.95 Y46.491 E52.45437
G1 X169.411 Y46.905 E52.47697
G1 X168.997 Y47.444 E52.49958
G1 X168.736 Y48.073 E52.52223
G1 X168.648 Y48.747 E52.54484
G1 X168.732 Y49.391 E52.56644
G1 X168.982 Y50.018 E52.58889
G1 X169.389 Y50.562 E52.61149
G1 X169.922 Y50.982 E52.63406
G1 X170.545 Y51.25 E52.65661
G0 F6000 X170.655 Y50.862
;TYPE:WALL-OUTER
G1 F1200 X171.21 Y50.943 E52.67527
G1 X171.29 Y50.944 E52.67793
G1 X171.823 Y50.874 E52.69581
G1 X172.354 Y50.654 E52.71493
G1 X172.81 Y50.304 E52.73404
G1 X173.16 Y49.848 E52.75316
G1 X173.38 Y49.317 E52.77228
G1 X173.455 Y48.747 E52.7914
G1 X173.38 Y48.177 E52.81052
G1 X173.171 Y47.672 E52.8287
G1 X172.836 Y47.224 E52.84731
G1 X172.778 Y47.166 E52.85004
G1 X172.354 Y46.84 E52.86782
G1 X171.849 Y46.632 E52.88599
G1 X171.296 Y46.551 E52.90458
G1 X171.216 Y46.55 E52.90724
G1 X170.683 Y46.62 E52.92512
G1 X170.152 Y46.84 E52.94424
G1 X169.696 Y47.19 E52.96336
G1 X169.346 Y47.646 E52.98248
G1 X169.126 Y48.177 E53.00159
G1 X169.051 Y48.747 E53.02071
G1 X169.122 Y49.289 E53.0389
G1 X169.334 Y49.821 E53.05794
G1 X169.678 Y50.28 E53.07702
G1 X170.128 Y50.635 E53.09608
G1 X170.655 Y50.862 E53.11517
G0 F6000 X170.536 Y51.285
G1 F2700 E48.11517
G0 F6000 X169.143 Y51.145
G0 X170.302 Y49.673
G0 X170.245 Y49.729
G0 X164.382 Y55.616
G0 X164.327 Y55.673
G0 X165.65 Y54.35
G0 X165.831 Y56.613
G0 X165.746 Y57.245
G0 X165.503 Y57.834
G0 X165.115 Y58.342
G0 X164.659 Y58.69
G0 X162.569 Y59.504
;TYPE:WALL-INNER
G1 F2700 E53.11517
G1 F1200 X163.281 Y59.609 E53.13911
G1 X163.473 Y59.61 E53.14549
G1 X164.164 Y59.52 E53.16867
G1 X164.891 Y59.22 E53.19483
G1 X165.514 Y58.741 E53.22097
G1 X165.994 Y58.116 E53.24718
G1 X166.293 Y57.391 E53.27326
G1 X166.397 Y56.613 E53.29937
G1 X166.297 Y55.868 E53.32437
G1 X166.032 Y55.198 E53.34833
G1 X165.935 Y55.032 E53.35473
G1 X165.514 Y54.486 E53.37766
G1 X164.891 Y54.006 E53.40382
G1 X164.164 Y53.707 E53.42996
G1 X163.486 Y53.617 E53.45271
G1 X163.301 Y53.616 E53.45886
G1 X162.609 Y53.707 E53.48208
G1 X161.884 Y54.006 E53.50816
G1 X161.259 Y54.486 E53.53437
G1 X160.78 Y55.109 E53.56051
G1 X160.48 Y55.836 E53.58667
G1 X160.379 Y56.613 E53.61273
G1 X160.476 Y57.359 E53.63775
G1 X160.764 Y58.08 E53.66357
G1 X161.232 Y58.711 E53.6897
G1 X161.85 Y59.195 E53.71581
G1 X162.569 Y59.504 E53.74184
G0 F6000 X162.679 Y59.116
G1 F1200 X163.312 Y59.209 E53.76312
G1 X163.448 Y59.21 E53.76764
G1 X164.06 Y59.13 E53.78817
G1 X164.689 Y58.87 E53.81081
G1 X165.229 Y58.456 E53.83344
G1 X165.644 Y57.915 E53.85612
G1 X165.903 Y57.287 E53.87871
G1 X165.993 Y56.613 E53.90133
G1 X165.907 Y55.97 E53.9229
G1 X165.671 Y55.374 E53.94422
G1 X165.602 Y55.256 E53.94877
G1 X165.229 Y54.771 E53.96912
G1 X164.689 Y54.356 E53.99177
G1 X164.06 Y54.097 E54.0144
G1 X163.458 Y54.017 E54.0346
G1 X163.326 Y54.016 E54.03899
G1 X162.713 Y54.097 E54.05955
G1 X162.085 Y54.356 E54.08215
G1 X161.544 Y54.771 E54.10482
G1 X161.13 Y55.311 E54.12746
G1 X160.87 Y55.94 E54.15009
G1 X160.782 Y56.613 E54.17267
G1 X160.866 Y57.257 E54.19427
G1 X161.116 Y57.883 E54.21669
G1 X161.521 Y58.429 E54.2393
G1 X162.056 Y58.848 E54.2619
G1 X162.679 Y59.116 E54.28446
G0 F6000 X162.789 Y58.728
;TYPE:WALL-OUTER
G1 F1200 X163.344 Y58.809 E54.30311
G1 X163.424 Y58.81 E54.30577
G1 X163.956 Y58.74 E54.32362
G1 X164.488 Y58.52 E54.34277
G1 X164.944 Y58.171 E54.36187
G1 X165.294 Y57.714 E54.38101
G1 X165.513 Y57.183 E54.40012
G1 X165.589 Y56.613 E54.41924
G1 X165.517 Y56.072 E54.43739
G1 X165.31 Y55.55 E54.45607
G1 X165.269 Y55.48 E54.45877
G1 X164.944 Y55.056 E54.47654
G1 X164.488 Y54.706 E54.49566
G1 X163.956 Y54.487 E54.51479
G1 X163.429 Y54.417 E54.53247
G1 X163.35 Y54.416 E54.5351
G1 X162.817 Y54.487 E54.55299
G1 X162.286 Y54.706 E54.57209
G1 X161.829 Y55.056 E54.59124
G1 X161.48 Y55.512 E54.61034
G1 X161.26 Y56.044 E54.62948
G1 X161.185 Y56.613 E54.64857
G1 X161.256 Y57.155 E54.66675
G1 X161.468 Y57.686 E54.68577
G1 X161.81 Y58.147 E54.70486
G1 X162.262 Y58.501 E54.72396
G1 X162.789 Y58.728 E54.74304
G0 F6000 X162.67 Y59.151
G1 F2700 E49.74304
G0 F6000 X161.094 Y58.846
G0 X162.433 Y57.537
G0 X162.377 Y57.593
G0 X154.837 Y65.162
G0 X154.781 Y65.219
G0 X156.104 Y63.896
G0 X156.285 Y66.159
G0 X156.2 Y66.791
G0 X155.957 Y67.38
G0 X155.569 Y67.888
G0 X155.113 Y68.236
G0 X153.023 Y69.05
;TYPE:WALL-INNER
G1 F2700 E54.74304
G1 F1200 X153.735 Y69.155 E54.76698
G1 X153.927 Y69.156 E54.77337
G1 X154.618 Y69.066 E54.79654
G1 X155.345 Y68.766 E54.8227
G1 X155.968 Y68.287 E54.84884
G1 X156.448 Y67.662 E54.87505
G1 X156.747 Y66.937 E54.90113
G1 X156.851 Y66.159 E54.92724
G1 X156.751 Y65.414 E54.95224
G1 X156.486 Y64.744 E54.9762
G1 X156.389 Y64.578 E54.9826
G1 X155.968 Y64.032 E55.00553
G1 X155.344 Y63.552 E55.03171
G1 X154.65 Y63.267 E55.05667
G1 X153.948 Y63.163 E55.08027
G1 X153.755 Y63.162 E55.08669
G1 X153.063 Y63.253 E55.1099
G1 X152.338 Y63.552 E55.13599
G1 X151.713 Y64.032 E55.1622
G1 X151.234 Y64.655 E55.18834
G1 X150.934 Y65.382 E55.21449
G1 X150.833 Y66.159 E55.24055
G1 X150.934 Y66.937 E55.26665
G1 X151.221 Y67.631 E55.29163
G1 X151.686 Y68.257 E55.31756
G1 X152.304 Y68.741 E55.34367
G1 X153.023 Y69.05 E55.3697
G0 F6000 X153.133 Y68.662
G1 F1200 X153.766 Y68.755 E55.39098
G1 X153.902 Y68.756 E55.3955
