;FLAVOR:Marlin
;TIME:11632
;Filament used: 8.95079m
;Layer height: 0.2
;MINX:20.56
;MINY:55.408
;MINZ:0.2
;MAXX:202.746
;MAXY:178.908
;MAXZ:7
;Generated with Cura_SteamEngine 4.3.0
M140 S50
M105
M190 S50
M104 S200
M105
M109 S200
M82 ;absolute extrusion mode
M201 X500.00 Y500.00 Z100.00 E5000.00 ;Setup machine max acceleration
M203 X500.00 Y500.00 Z10.00 E50.00 ;Setup machine max feedrate
M204 P500.00 R1000.00 T500.00 ;Setup Print/Retract/Travel acceleration
M205 X8.00 Y8.00 Z0.40 E5.00 ;Setup Jerk
M220 S100 ;Reset Feedrate
M221 S100 ;Reset Flowrate

G28 ;Home

G92 E0 ;Reset Extruder
G1 Z2.0 F3000 ;Move Z Axis up
G1 X10.1 Y20 Z0.28 F5000.0 ;Move to start position
G1 X10.1 Y200.0 Z0.28 F1500.0 E15 ;Draw the first line
G1 X10.4 Y200.0 Z0.28 F5000.0 ;Move to side a little
G1 X10.4 Y20 Z0.28 F1500.0 E30 ;Draw the second line
G92 E0 ;Reset Extruder
G1 Z2.0 F3000 ;Move Z Axis up

G92 E0
G92 E0
G1 F2700 E-5
;LAYER_COUNT:35
;LAYER:0
M107
G0 F6000 X26.799 Y56.505 Z0.2
;TYPE:SKIRT
G1 F2700 E0
G1 F1200 X27.661 Y56.135 E0.0312
G1 X28.551 Y55.839 E0.0624
G1 X29.463 Y55.621 E0.09358
G1 X30.39 Y55.48 E0.12477
G1 X31.261 Y55.421 E0.15381
G1 X31.582 Y55.412 E0.16449
G1 X31.89 Y55.408 E0.17473
G1 X52.478 Y55.408 E0.85949
G1 X52.629 Y55.409 E0.86451
G1 X53.357 Y55.419 E0.88873
G1 X53.675 Y55.428 E0.89931
G1 X54.459 Y55.461 E0.92541
G1 X57.093 Y55.536 E1.01305
G1 X59.581 Y55.536 E1.0958
G1 X62.183 Y55.462 E1.18238
G1 X62.652 Y55.439 E1.198
G1 X62.869 Y55.43 E1.20522
G1 X63.434 Y55.413 E1.22402
G1 X63.765 Y55.408 E1.23503
G1 X84.353 Y55.408 E1.91979
G1 X84.511 Y55.409 E1.92505
G1 X85.209 Y55.419 E1.94827
G1 X86.145 Y55.473 E1.97945
G1 X87.073 Y55.605 E2.01063
G1 X87.987 Y55.817 E2.04183
G1 X88.879 Y56.106 E2.07302
G1 X89.744 Y56.469 E2.10422
G1 X90.524 Y56.876 E2.13348
G1 X91.735 Y57.57 E2.1799
G1 X93.975 Y58.82 E2.26522
G1 X96.213 Y59.987 E2.34917
G1 X98.479 Y61.089 E2.43298
G1 X100.772 Y62.123 E2.51664
G1 X103.076 Y63.086 E2.5997
G1 X105.497 Y64.021 E2.68601
G1 X107.807 Y64.833 E2.76745
G1 X110.201 Y65.602 E2.85109
G1 X112.636 Y66.31 E2.93543
G1 X115.067 Y66.942 E3.01897
G1 X117.522 Y67.507 E3.10276
G1 X120.001 Y68.004 E3.18685
G1 X122.472 Y68.425 E3.27022
G1 X124.971 Y68.781 E3.35418
G1 X127.442 Y69.061 E3.43689
G1 X129.997 Y69.277 E3.52217
G1 X132.422 Y69.415 E3.60296
G1 X136.378 Y69.498 E3.73457
G1 X191.039 Y69.498 E5.5526
G1 X191.197 Y69.499 E5.55785
G1 X191.895 Y69.509 E5.58107
G1 X192.831 Y69.563 E5.61225
G1 X193.759 Y69.695 E5.64343
G1 X194.673 Y69.907 E5.67464
G1 X195.565 Y70.196 E5.70582
G1 X196.43 Y70.559 E5.73702
G1 X197.26 Y70.995 E5.76821
G1 X198.051 Y71.5 E5.79942
G1 X198.795 Y72.071 E5.83061
G1 X199.488 Y72.703 E5.86181
G1 X200.125 Y73.391 E5.89299
G1 X200.7 Y74.132 E5.92419
G1 X201.211 Y74.918 E5.95537
G1 X201.653 Y75.746 E5.98659
G1 X202.022 Y76.608 E6.01777
G1 X202.317 Y77.498 E6.04896
G1 X202.535 Y78.41 E6.08015
G1 X202.675 Y79.338 E6.11136
G1 X202.733 Y80.199 E6.14006
G1 X202.742 Y80.519 E6.15071
G1 X202.746 Y80.828 E6.16099
G1 X202.746 Y102.166 E6.87069
G1 X202.745 Y102.317 E6.87572
G1 X202.735 Y103.044 E6.8999
G1 X202.726 Y103.362 E6.91048
G1 X202.693 Y104.146 E6.93658
G1 X202.618 Y106.781 E7.02426
G1 X202.618 Y109.27 E7.10704
G1 X202.692 Y111.871 E7.19358
G1 X202.715 Y112.34 E7.2092
G1 X202.724 Y112.557 E7.21643
G1 X202.741 Y113.122 E7.23523
G1 X202.746 Y113.453 E7.24624
G1 X202.746 Y134.762 E7.95498
G1 X202.745 Y134.898 E7.9595
G1 X202.736 Y135.625 E7.98368
G1 X202.685 Y136.562 E8.01489
G1 X202.553 Y137.49 E8.04607
G1 X202.344 Y138.404 E8.07725
G1 X202.057 Y139.297 E8.10845
G1 X201.695 Y140.163 E8.13967
G1 X201.261 Y140.994 E8.17085
G1 X200.757 Y141.785 E8.20205
G1 X200.188 Y142.53 E8.23323
G1 X199.557 Y143.225 E8.26445
G1 X198.87 Y143.863 E8.29563
G1 X198.131 Y144.44 E8.32682
G1 X197.345 Y144.952 E8.35801
G1 X196.519 Y145.395 E8.38919
G1 X195.657 Y145.767 E8.42042
G1 X194.768 Y146.063 E8.45158
G1 X193.856 Y146.283 E8.48278
G1 X192.929 Y146.424 E8.51397
G1 X192.045 Y146.485 E8.54344
G1 X191.724 Y146.494 E8.55412
G1 X191.416 Y146.498 E8.56437
G1 X158.834 Y146.498 E9.64805
G1 X156.226 Y146.535 E9.7348
G1 X153.705 Y146.642 E9.81872
G1 X151.21 Y146.819 E9.90192
G1 X148.71 Y147.067 E9.98548
G1 X146.217 Y147.386 E10.06907
G1 X143.724 Y147.777 E10.153
G1 X141.234 Y148.24 E10.23724
G1 X138.771 Y148.77 E10.32103
G1 X136.375 Y149.358 E10.40309
G1 X133.905 Y150.037 E10.48829
G1 X131.502 Y150.773 E10.57188
G1 X129.11 Y151.58 E10.65584
G1 X126.77 Y152.443 E10.73879
G1 X124.414 Y153.389 E10.82324
G1 X122.116 Y154.389 E10.90659
G1 X119.819 Y155.465 E10.99096
G1 X117.595 Y156.584 E11.07376
G1 X115.356 Y157.795 E11.15843
G1 X113.189 Y159.044 E11.24162
G1 X111.044 Y160.364 E11.32539
G1 X108.947 Y161.737 E11.40875
G1 X106.884 Y163.174 E11.49237
G1 X104.848 Y164.679 E11.57658
G1 X102.865 Y166.232 E11.66036
G1 X100.925 Y167.843 E11.74423
G1 X99.046 Y169.496 E11.82747
G1 X97.2 Y171.213 E11.91132
G1 X95.41 Y172.976 E11.99488
G1 X93.514 Y174.955 E12.08604
G1 X93.104 Y175.395 E12.10604
G1 X92.436 Y176.054 E12.13725
G1 X91.715 Y176.653 E12.16843
G1 X90.945 Y177.188 E12.19961
G1 X90.132 Y177.657 E12.23083
G1 X89.283 Y178.054 E12.262
G1 X88.402 Y178.377 E12.29321
G1 X87.498 Y178.624 E12.32438
G1 X86.575 Y178.793 E12.35559
G1 X85.359 Y178.895 E12.39617
G1 X85.035 Y178.904 E12.40696
G1 X84.73 Y178.908 E12.4171
G1 X64.142 Y178.908 E13.10186
G1 X63.991 Y178.907 E13.10688
G1 X63.264 Y178.897 E13.13106
G1 X62.946 Y178.888 E13.14165
G1 X62.162 Y178.855 E13.16774
G1 X59.527 Y178.78 E13.25542
G1 X57.04 Y178.78 E13.33814
G1 X54.437 Y178.854 E13.42475
G1 X53.968 Y178.877 E13.44037
G1 X53.751 Y178.886 E13.44759
G1 X53.186 Y178.903 E13.46639
G1 X52.855 Y178.908 E13.4774
G1 X32.267 Y178.908 E14.16216
G1 X32.125 Y178.907 E14.16688
G1 X31.427 Y178.898 E14.1901
G1 X30.491 Y178.846 E14.22128
G1 X29.562 Y178.714 E14.25249
G1 X28.648 Y178.504 E14.28368
G1 X27.755 Y178.217 E14.31488
G1 X26.89 Y177.854 E14.34608
G1 X26.059 Y177.42 E14.37726
G1 X25.268 Y176.916 E14.40846
G1 X24.523 Y176.346 E14.43966
G1 X23.829 Y175.715 E14.47085
G1 X23.192 Y175.028 E14.50202
G1 X22.615 Y174.288 E14.53323
G1 X22.103 Y173.502 E14.56443
G1 X21.66 Y172.675 E14.59563
G1 X21.289 Y171.814 E14.62681
G1 X20.993 Y170.924 E14.65801
G1 X20.774 Y170.012 E14.6892
G1 X20.633 Y169.085 E14.72039
G1 X20.573 Y168.196 E14.75002
G1 X20.564 Y167.863 E14.7611
G1 X20.56 Y167.566 E14.77098
G1 X20.56 Y67.082 E18.1131
G1 X20.561 Y66.933 E18.11805
G1 X20.57 Y66.268 E18.14017
G1 X20.623 Y65.332 E18.17135
G1 X20.755 Y64.403 E18.20256
G1 X20.966 Y63.489 E18.23376
G1 X21.254 Y62.597 E18.26494
G1 X21.617 Y61.732 E18.29614
G1 X22.052 Y60.901 E18.32733
G1 X22.556 Y60.111 E18.3585
G1 X23.126 Y59.366 E18.3897
G1 X23.758 Y58.672 E18.42092
G1 X24.446 Y58.035 E18.45211
G1 X25.186 Y57.459 E18.4833
G1 X25.972 Y56.947 E18.5145
G1 X26.799 Y56.505 E18.54568
G0 F6000 X27.171 Y56.772
G1 F1200 X28.025 Y56.427 E18.57632
G1 X28.905 Y56.157 E18.60693
G1 X29.805 Y55.965 E18.63754
G1 X30.719 Y55.851 E18.66818
G1 X31.272 Y55.821 E18.6866
G1 X31.593 Y55.812 E18.69728
G1 X31.89 Y55.808 E18.70716
G1 X52.478 Y55.808 E19.39192
G1 X52.624 Y55.809 E19.39677
G1 X53.352 Y55.819 E19.42099
G1 X53.658 Y55.828 E19.43117
G1 X54.43 Y55.861 E19.45687
G1 X57.082 Y55.936 E19.54511
G1 X59.592 Y55.936 E19.62859
G1 X62.168 Y55.863 E19.71431
G1 X62.672 Y55.838 E19.73109
G1 X62.881 Y55.83 E19.73805
G1 X63.446 Y55.813 E19.75685
G1 X63.765 Y55.808 E19.76746
G1 X84.353 Y55.808 E20.45222
G1 X84.505 Y55.809 E20.45727
G1 X85.203 Y55.819 E20.48049
G1 X86.122 Y55.872 E20.51111
G1 X87.033 Y56.005 E20.54173
G1 X87.929 Y56.216 E20.57235
G1 X88.803 Y56.504 E20.60295
G1 X89.65 Y56.867 E20.6336
G1 X90.325 Y57.223 E20.65898
G1 X91.521 Y57.909 E20.70484
G1 X93.774 Y59.166 E20.79065
G1 X96.06 Y60.358 E20.8764
G1 X98.276 Y61.435 E20.95835
G1 X100.632 Y62.498 E21.04432
G1 X102.958 Y63.47 E21.12816
G1 X105.317 Y64.381 E21.21227
G1 X107.668 Y65.208 E21.29516
G1 X110.115 Y65.993 E21.38063
G1 X112.52 Y66.692 E21.46393
G1 X114.99 Y67.335 E21.54883
G1 X117.425 Y67.895 E21.63193
G1 X119.953 Y68.402 E21.71768
G1 X122.389 Y68.817 E21.79987
G1 X124.901 Y69.175 E21.88427
G1 X127.434 Y69.462 E21.96905
G1 X129.939 Y69.674 E22.05267
G1 X132.421 Y69.815 E22.13535
G1 X136.369 Y69.898 E22.26669
G1 X191.039 Y69.898 E24.08502
G1 X191.191 Y69.899 E24.09008
G1 X191.889 Y69.909 E24.1133
G1 X192.808 Y69.962 E24.14391
G1 X193.719 Y70.095 E24.17454
G1 X194.615 Y70.306 E24.20515
G1 X195.489 Y70.594 E24.23576
G1 X196.336 Y70.957 E24.26641
G1 X197.147 Y71.392 E24.29702
G1 X197.917 Y71.896 E24.32763
G1 X198.641 Y72.465 E24.35825
G1 X199.313 Y73.095 E24.38889
G1 X199.928 Y73.78 E24.41951
G1 X200.481 Y74.516 E24.45013
G1 X200.968 Y75.297 E24.48074
G1 X201.385 Y76.118 E24.51137
G1 X201.73 Y76.972 E24.542
G1 X201.999 Y77.852 E24.57261
G1 X202.191 Y78.753 E24.60325
G1 X202.304 Y79.666 E24.63385
G1 X202.333 Y80.21 E24.65197
G1 X202.342 Y80.53 E24.66261
G1 X202.346 Y80.828 E24.67253
G1 X202.346 Y102.166 E25.38223
G1 X202.345 Y102.312 E25.38709
G1 X202.335 Y103.039 E25.41127
G1 X202.326 Y103.345 E25.42145
G1 X202.294 Y104.084 E25.44605
G1 X202.218 Y106.77 E25.53543
G1 X202.218 Y109.281 E25.61894
G1 X202.291 Y111.857 E25.70465
G1 X202.316 Y112.36 E25.7214
G1 X202.324 Y112.569 E25.72836
G1 X202.341 Y113.134 E25.74716
G1 X202.346 Y113.453 E25.75777
G1 X202.346 Y134.762 E26.46651
G1 X202.345 Y134.893 E26.47087
G1 X202.336 Y135.62 E26.49505
G1 X202.285 Y136.539 E26.52567
G1 X202.154 Y137.451 E26.55631
G1 X201.944 Y138.347 E26.58692
G1 X201.658 Y139.222 E26.61754
G1 X201.297 Y140.069 E26.64816
G1 X200.863 Y140.881 E26.67878
G1 X200.361 Y141.653 E26.70941
G1 X199.793 Y142.378 E26.74004
G1 X199.165 Y143.051 E26.77066
G1 X198.481 Y143.667 E26.80127
G1 X197.746 Y144.221 E26.83189
G1 X196.966 Y144.71 E26.86251
G1 X196.146 Y145.129 E26.89313
G1 X195.293 Y145.475 E26.92375
G1 X194.413 Y145.746 E26.95438
G1 X193.513 Y145.939 E26.98499
G1 X192.599 Y146.054 E27.01563
G1 X192.034 Y146.085 E27.03445
G1 X191.713 Y146.094 E27.04513
G1 X191.416 Y146.098 E27.05501
G1 X158.828 Y146.098 E28.13889
G1 X156.203 Y146.135 E28.22621
G1 X153.695 Y146.242 E28.3097
G1 X151.175 Y146.42 E28.39372
G1 X148.66 Y146.669 E28.47778
G1 X146.171 Y146.988 E28.56124
G1 X143.619 Y147.389 E28.64717
G1 X141.188 Y147.841 E28.72941
G1 X138.689 Y148.379 E28.81443
G1 X136.253 Y148.976 E28.89785
G1 X133.787 Y149.654 E28.98291
G1 X131.394 Y150.387 E29.06615
G1 X128.98 Y151.201 E29.15088
G1 X126.63 Y152.068 E29.2342
G1 X124.242 Y153.027 E29.31979
G1 X121.965 Y154.018 E29.40238
G1 X119.648 Y155.104 E29.48749
G1 X117.39 Y156.24 E29.57156
G1 X115.188 Y157.43 E29.65481
G1 X113.001 Y158.691 E29.73877
G1 X110.821 Y160.033 E29.82392
G1 X108.722 Y161.407 E29.90736
G1 X106.623 Y162.869 E29.99244
G1 X104.609 Y164.357 E30.07572
G1 X102.608 Y165.925 E30.16028
G1 X100.689 Y167.519 E30.24325
G1 X98.773 Y169.203 E30.32809
G1 X96.912 Y170.934 E30.41263
G1 X95.123 Y172.696 E30.49614
G1 X93.299 Y174.6 E30.58384
G1 X92.812 Y175.123 E30.60761
G1 X92.156 Y175.768 E30.63821
G1 X91.446 Y176.355 E30.66885
G1 X90.688 Y176.878 E30.69948
G1 X89.888 Y177.333 E30.73009
G1 X89.051 Y177.717 E30.76072
G1 X88.184 Y178.026 E30.79133
G1 X87.293 Y178.26 E30.82197
G1 X86.386 Y178.415 E30.85257
G1 X85.348 Y178.495 E30.8872
G1 X85.024 Y178.504 E30.89798
G1 X84.73 Y178.508 E30.90776
G1 X64.142 Y178.508 E31.59252
G1 X63.996 Y178.507 E31.59738
G1 X63.269 Y178.497 E31.62156
G1 X62.963 Y178.488 E31.63174
G1 X62.19 Y178.455 E31.65747
G1 X59.538 Y178.38 E31.74571
G1 X57.029 Y178.38 E31.82916
G1 X54.451 Y178.453 E31.91494
G1 X53.948 Y178.478 E31.93169
G1 X53.739 Y178.486 E31.93865
G1 X53.174 Y178.503 E31.95745
G1 X52.855 Y178.508 E31.96806
G1 X32.267 Y178.508 E32.65282
G1 X32.13 Y178.507 E32.65738
G1 X31.432 Y178.498 E32.6806
G1 X30.513 Y178.446 E32.71121
G1 X29.602 Y178.315 E32.74182
G1 X28.706 Y178.105 E32.77243
G1 X27.831 Y177.818 E32.80306
G1 X26.984 Y177.456 E32.8337
G1 X26.172 Y177.022 E32.86432
G1 X25.401 Y176.52 E32.89492
G1 X24.676 Y175.952 E32.92555
G1 X24.003 Y175.323 E32.95619
G1 X23.388 Y174.639 E32.98678
G1 X22.834 Y173.904 E33.0174
G1 X22.346 Y173.123 E33.04803
G1 X21.927 Y172.303 E33.07865
G1 X21.581 Y171.45 E33.10927
G1 X21.311 Y170.57 E33.13989
G1 X21.118 Y169.669 E33.17053
G1 X21.004 Y168.756 E33.20113
G1 X20.973 Y168.185 E33.22015
G1 X20.964 Y167.852 E33.23123
G1 X20.96 Y167.566 E33.24075
G1 X20.96 Y67.082 E36.58286
G1 X20.961 Y66.939 E36.58761
G1 X20.97 Y66.274 E36.60973
G1 X21.022 Y65.354 E36.64038
G1 X21.154 Y64.443 E36.671
G1 X21.365 Y63.547 E36.70162
G1 X21.652 Y62.672 E36.73224
G1 X22.015 Y61.826 E36.76286
G1 X22.449 Y61.014 E36.79349
G1 X22.952 Y60.243 E36.8241
G1 X23.521 Y59.519 E36.85473
G1 X24.149 Y58.847 E36.88532
G1 X24.834 Y58.231 E36.91596
G1 X25.57 Y57.678 E36.94658
G1 X26.351 Y57.19 E36.97721
G1 X27.171 Y56.772 E37.00782
G0 F6000 X27.542 Y57.046
G1 F1200 X28.387 Y56.726 E37.03788
G1 X29.256 Y56.483 E37.06789
G1 X30.144 Y56.317 E37.09794
G1 X31.283 Y56.221 E37.13595
G1 X31.604 Y56.212 E37.14663
G1 X31.89 Y56.208 E37.15615
G1 X52.478 Y56.208 E37.84091
G1 X52.618 Y56.209 E37.84556
G1 X53.346 Y56.219 E37.86978
G1 X53.641 Y56.227 E37.87959
G1 X54.471 Y56.262 E37.90723
G1 X57.071 Y56.336 E37.99374
G1 X59.603 Y56.336 E38.07795
G1 X62.2 Y56.263 E38.16436
G1 X62.692 Y56.238 E38.18075
G1 X62.893 Y56.23 E38.18744
G1 X63.458 Y56.213 E38.20624
G1 X63.765 Y56.208 E38.21645
G1 X84.353 Y56.208 E38.90121
G1 X84.499 Y56.209 E38.90607
G1 X85.197 Y56.219 E38.92928
G1 X86.099 Y56.272 E38.95934
G1 X86.992 Y56.404 E38.98936
G1 X87.87 Y56.615 E39.01939
G1 X88.726 Y56.903 E39.04943
G1 X89.553 Y57.265 E39.07946
G1 X90.126 Y57.57 E39.10105
G1 X91.307 Y58.248 E39.14634
G1 X93.6 Y59.527 E39.23367
G1 X95.879 Y60.715 E39.31915
G1 X98.115 Y61.802 E39.40184
G1 X100.462 Y62.861 E39.48748
G1 X102.795 Y63.836 E39.57158
G1 X105.177 Y64.755 E39.6565
G1 X107.561 Y65.594 E39.74056
G1 X109.985 Y66.372 E39.82523
G1 X112.412 Y67.078 E39.9093
G1 X114.897 Y67.724 E39.9947
G1 X117.329 Y68.283 E40.0777
G1 X119.88 Y68.795 E40.16423
G1 X122.338 Y69.214 E40.24717
G1 X124.871 Y69.575 E40.33227
G1 X127.354 Y69.856 E40.41538
G1 X129.921 Y70.073 E40.50106
G1 X132.417 Y70.215 E40.58421
G1 X136.361 Y70.298 E40.71542
G1 X191.039 Y70.298 E42.53402
G1 X191.185 Y70.299 E42.53887
G1 X191.883 Y70.309 E42.56209
G1 X192.785 Y70.362 E42.59214
G1 X193.678 Y70.494 E42.62217
G1 X194.556 Y70.705 E42.6522
G1 X195.412 Y70.993 E42.68224
G1 X196.239 Y71.355 E42.71227
G1 X197.031 Y71.79 E42.74232
G1 X197.782 Y72.292 E42.77237
G1 X198.485 Y72.859 E42.8024
G1 X199.135 Y73.486 E42.83244
G1 X199.727 Y74.168 E42.86248
G1 X200.257 Y74.899 E42.89251
G1 X200.719 Y75.675 E42.92255
G1 X201.112 Y76.488 E42.95258
G1 X201.43 Y77.333 E42.98261
G1 X201.673 Y78.203 E43.01266
G1 X201.838 Y79.091 E43.0427
G1 X201.933 Y80.221 E43.08041
G1 X201.942 Y80.541 E43.09106
G1 X201.946 Y80.828 E43.10061
G1 X201.946 Y102.166 E43.81031
G1 X201.945 Y102.306 E43.81497
G1 X201.935 Y103.033 E43.83915
G1 X201.927 Y103.328 E43.84897
G1 X201.892 Y104.158 E43.8766
G1 X201.818 Y106.759 E43.96314
G1 X201.818 Y109.292 E44.04739
G1 X201.891 Y111.886 E44.1337
G1 X201.916 Y112.379 E44.15012
G1 X201.924 Y112.581 E44.15684
G1 X201.941 Y113.146 E44.17564
G1 X201.946 Y113.453 E44.18585
G1 X201.946 Y134.762 E44.8946
G1 X201.945 Y134.888 E44.89879
G1 X201.936 Y135.615 E44.92297
G1 X201.885 Y136.517 E44.95302
G1 X201.754 Y137.411 E44.98307
G1 X201.545 Y138.289 E45.01309
G1 X201.259 Y139.146 E45.04314
G1 X200.898 Y139.974 E45.07318
G1 X200.466 Y140.766 E45.10319
G1 X199.965 Y141.518 E45.13324
G1 X199.399 Y142.222 E45.16328
G1 X198.774 Y142.873 E45.1933
G1 X198.093 Y143.467 E45.22336
G1 X197.362 Y143.998 E45.25341
G1 X196.588 Y144.462 E45.28342
G1 X195.775 Y144.856 E45.31347
G1 X194.931 Y145.176 E45.34349
G1 X194.061 Y145.421 E45.37355
G1 X193.174 Y145.587 E45.40357
G1 X192.023 Y145.685 E45.44199
G1 X191.702 Y145.694 E45.45267
G1 X191.416 Y145.698 E45.46218
G1 X158.822 Y145.698 E46.54626
G1 X156.216 Y145.735 E46.63295
G1 X153.651 Y145.844 E46.71834
G1 X151.144 Y146.022 E46.80193
G1 X148.603 Y146.273 E46.88685
G1 X146.095 Y146.594 E46.97095
G1 X143.59 Y146.988 E47.05529
