;FLAVOR:Marlin
;TIME:10096
;Filament used: 5.75826m
;Layer height: 0.2
;MINX:40.375
;MINY:29.211
;MINZ:0.2
;MAXX:168.425
;MAXY:190.789
;MAXZ:25
;Generated with Cura_SteamEngine 4.3.0
M140 S50
M105
M190 S50
M104 S200
M105
M109 S200
M82 ;absolute extrusion mode
M201 X500.00 Y500.00 Z100.00 E5000.00 ;Setup machine max acceleration
M203 X500.00 Y500.00 Z10.00 E50.00 ;Setup machine max feedrate
M204 P500.00 R1000.00 T500.00 ;Setup Print/Retract/Travel acceleration
M205 X8.00 Y8.00 Z0.40 E5.00 ;Setup Jerk
M220 S100 ;Reset Feedrate
M221 S100 ;Reset Flowrate

G28 ;Home

G92 E0 ;Reset Extruder
G1 Z2.0 F3000 ;Move Z Axis up
G1 X10.1 Y20 Z0.28 F5000.0 ;Move to start position
G1 X10.1 Y200.0 Z0.28 F1500.0 E15 ;Draw the first line
G1 X10.4 Y200.0 Z0.28 F5000.0 ;Move to side a little
G1 X10.4 Y20 Z0.28 F1500.0 E30 ;Draw the second line
G92 E0 ;Reset Extruder
G1 Z2.0 F3000 ;Move Z Axis up

G92 E0
G92 E0
G1 F2700 E-5
;LAYER_COUNT:125
;LAYER:0
M107
G0 F6000 X42.922 Y33.221 Z0.2
;TYPE:SKIRT
G1 F2700 E0
G1 F1200 X43.551 Y32.526 E0.03118
G1 X44.238 Y31.886 E0.06241
G1 X44.976 Y31.308 E0.09358
G1 X45.761 Y30.795 E0.12477
G1 X46.587 Y30.35 E0.15598
G1 X47.447 Y29.977 E0.18716
G1 X48.336 Y29.679 E0.21834
G1 X49.248 Y29.458 E0.24955
G1 X50.175 Y29.315 E0.28075
G1 X50.912 Y29.258 E0.30534
G1 X51.771 Y29.221 E0.33393
G1 X52.244 Y29.211 E0.34967
G1 X111.168 Y29.211 E2.30949
G1 X111.326 Y29.212 E2.31475
G1 X112.024 Y29.222 E2.33796
G1 X112.96 Y29.276 E2.36915
G1 X113.888 Y29.408 E2.40032
G1 X114.802 Y29.62 E2.43153
G1 X115.694 Y29.909 E2.46272
G1 X116.559 Y30.272 E2.49392
G1 X117.389 Y30.708 E2.5251
G1 X118.18 Y31.213 E2.55631
G1 X118.924 Y31.784 E2.58751
G1 X119.617 Y32.416 E2.6187
G1 X120.254 Y33.104 E2.64989
G1 X120.829 Y33.845 E2.68108
G1 X121.34 Y34.631 E2.71226
G1 X121.782 Y35.459 E2.74348
G1 X122.151 Y36.321 E2.77467
G1 X122.446 Y37.211 E2.80585
G1 X122.664 Y38.123 E2.83704
G1 X122.804 Y39.051 E2.86826
G1 X122.862 Y39.912 E2.89696
G1 X122.871 Y40.232 E2.9076
G1 X122.875 Y40.541 E2.91788
G1 X122.875 Y43.487 E3.01587
G1 X122.874 Y43.645 E3.02112
G1 X122.864 Y44.343 E3.04434
G1 X122.81 Y45.279 E3.07552
G1 X122.678 Y46.207 E3.1067
G1 X122.466 Y47.121 E3.13791
G1 X122.238 Y47.847 E3.16322
G1 X121.289 Y50.535 E3.25803
G1 X120.529 Y52.899 E3.34062
G1 X119.823 Y55.325 E3.42465
G1 X119.191 Y57.756 E3.5082
G1 X118.625 Y60.21 E3.59196
G1 X118.122 Y62.709 E3.67674
G1 X117.704 Y65.163 E3.75954
G1 X117.347 Y67.669 E3.84373
G1 X117.064 Y70.159 E3.92708
G1 X116.85 Y72.665 E4.01074
G1 X116.709 Y75.149 E4.09349
G1 X116.637 Y77.707 E4.1786
G1 X116.637 Y80.196 E4.26138
G1 X116.709 Y82.728 E4.34563
G1 X116.852 Y85.268 E4.43025
G1 X117.061 Y87.727 E4.51233
G1 X117.348 Y90.255 E4.59695
G1 X117.705 Y92.759 E4.68108
G1 X118.122 Y95.197 E4.76334
G1 X118.617 Y97.665 E4.84706
G1 X119.192 Y100.163 E4.93232
G1 X119.584 Y101.668 E4.98405
G1 X119.622 Y101.816 E4.98913
G1 X119.759 Y102.373 E5.00821
G1 X119.944 Y103.292 E5.03939
G1 X120.05 Y104.224 E5.07058
G1 X120.075 Y104.77 E5.08876
G1 X120.09 Y105.488 E5.11265
G1 X120.092 Y105.717 E5.12027
G1 X120.093 Y114.266 E5.40461
G1 X120.092 Y114.424 E5.40986
G1 X120.082 Y115.126 E5.43321
G1 X120.029 Y116.062 E5.46439
G1 X119.896 Y116.99 E5.49558
G1 X119.776 Y117.551 E5.51466
G1 X119.656 Y118.048 E5.53166
G1 X119.607 Y118.24 E5.53825
G1 X119.194 Y119.825 E5.59273
G1 X118.631 Y122.27 E5.67618
G1 X118.127 Y124.767 E5.7609
G1 X117.706 Y127.236 E5.84421
G1 X117.35 Y129.736 E5.9282
G1 X117.068 Y132.216 E6.01121
G1 X116.851 Y134.747 E6.09571
G1 X116.71 Y137.249 E6.17905
G1 X116.638 Y139.745 E6.26211
G1 X116.638 Y142.269 E6.34605
G1 X116.709 Y144.793 E6.43004
G1 X116.852 Y147.335 E6.51472
G1 X117.063 Y149.812 E6.5974
G1 X117.344 Y152.297 E6.68058
G1 X117.706 Y154.843 E6.76611
G1 X118.12 Y157.265 E6.84784
G1 X118.62 Y159.758 E6.9324
G1 X119.18 Y162.197 E7.01564
G1 X119.815 Y164.638 E7.09953
G1 X120.522 Y167.073 E7.18386
G1 X121.299 Y169.489 E7.26827
G1 X121.758 Y170.793 E7.31425
G1 X121.774 Y170.838 E7.31584
G1 X122.23 Y172.151 E7.36207
G1 X122.5 Y173.049 E7.39326
G1 X122.692 Y173.967 E7.42445
G1 X122.805 Y174.898 E7.45564
G1 X122.836 Y175.499 E7.47566
G1 X122.861 Y176.552 E7.51069
G1 X122.864 Y176.773 E7.51804
G1 X122.872 Y178.973 E7.59121
G1 X122.872 Y179.117 E7.596
G1 X122.865 Y179.856 E7.62058
G1 X122.816 Y180.793 E7.65179
G1 X122.687 Y181.722 E7.68299
G1 X122.48 Y182.637 E7.71419
G1 X122.196 Y183.53 E7.74536
G1 X121.836 Y184.397 E7.77658
G1 X121.404 Y185.229 E7.80776
G1 X120.903 Y186.022 E7.83896
G1 X120.336 Y186.769 E7.87015
G1 X119.708 Y187.465 E7.90133
G1 X119.022 Y188.105 E7.93253
G1 X118.285 Y188.684 E7.96371
G1 X117.501 Y189.199 E7.9949
G1 X116.675 Y189.644 E8.02611
G1 X115.815 Y190.018 E8.0573
G1 X114.926 Y190.317 E8.0885
G1 X114.015 Y190.54 E8.11969
G1 X113.088 Y190.684 E8.15089
G1 X112.338 Y190.742 E8.17591
G1 X111.479 Y190.779 E8.20451
G1 X111.006 Y190.789 E8.22025
G1 X52.082 Y190.789 E10.18007
G1 X51.924 Y190.788 E10.18532
G1 X51.226 Y190.778 E10.20854
G1 X50.29 Y190.724 E10.23972
G1 X49.362 Y190.592 E10.2709
G1 X48.448 Y190.38 E10.30211
G1 X47.556 Y190.091 E10.33329
G1 X46.691 Y189.728 E10.36449
G1 X45.861 Y189.292 E10.39568
G1 X45.07 Y188.787 E10.42689
G1 X44.326 Y188.216 E10.45808
G1 X43.633 Y187.584 E10.48928
G1 X42.996 Y186.896 E10.52046
G1 X42.421 Y186.155 E10.55166
G1 X41.91 Y185.369 E10.58284
G1 X41.468 Y184.541 E10.61406
G1 X41.099 Y183.679 E10.64524
G1 X40.804 Y182.789 E10.67643
G1 X40.586 Y181.877 E10.70762
G1 X40.446 Y180.949 E10.73883
G1 X40.388 Y180.077 E10.7679
G1 X40.379 Y179.745 E10.77894
G1 X40.375 Y179.447 E10.78886
G1 X40.375 Y176.513 E10.88644
G1 X40.376 Y176.355 E10.8917
G1 X40.386 Y175.658 E10.91488
G1 X40.44 Y174.722 E10.94607
G1 X40.573 Y173.793 E10.97728
G1 X40.784 Y172.88 E11.00845
G1 X41.053 Y172.04 E11.03778
G1 X41.379 Y171.148 E11.06937
G1 X42.228 Y168.74 E11.15429
G1 X42.994 Y166.358 E11.23751
G1 X43.702 Y163.924 E11.32182
G1 X44.332 Y161.5 E11.40513
G1 X44.904 Y159.015 E11.48994
G1 X45.394 Y156.576 E11.57268
G1 X45.819 Y154.078 E11.65696
G1 X46.171 Y151.608 E11.73994
G1 X46.456 Y149.103 E11.82379
G1 X46.671 Y146.561 E11.90864
G1 X46.811 Y144.1 E11.99063
G1 X46.882 Y141.55 E12.07548
G1 X46.882 Y139.025 E12.15946
G1 X46.81 Y136.529 E12.24251
G1 X46.668 Y134.013 E12.32632
G1 X46.456 Y131.523 E12.40944
G1 X46.171 Y129.013 E12.49346
G1 X45.813 Y126.504 E12.57776
G1 X45.389 Y124.033 E12.66114
G1 X44.893 Y121.56 E12.74503
G1 X44.319 Y119.067 E12.83012
G1 X43.974 Y117.704 E12.87688
G1 X43.782 Y116.786 E12.90808
G1 X43.644 Y115.4 E12.9544
G1 X43.632 Y115.067 E12.96549
G1 X43.625 Y114.671 E12.97866
G1 X43.625 Y105.707 E13.2768
G1 X43.626 Y105.549 E13.28206
G1 X43.636 Y104.852 E13.30524
G1 X43.69 Y103.916 E13.33643
G1 X43.823 Y102.987 E13.36764
G1 X43.946 Y102.411 E13.38723
G1 X44.24 Y101.202 E13.42861
G1 X44.284 Y101.03 E13.43452
G1 X44.336 Y100.829 E13.44142
G1 X44.9 Y98.374 E13.5252
G1 X45.408 Y95.853 E13.61074
G1 X45.819 Y93.433 E13.69238
G1 X46.173 Y90.937 E13.77623
G1 X46.459 Y88.418 E13.86055
G1 X46.669 Y85.929 E13.94363
G1 X46.811 Y83.4 E14.02788
G1 X46.882 Y80.875 E14.11189
G1 X46.882 Y78.35 E14.19587
G1 X46.811 Y75.864 E14.27859
G1 X46.667 Y73.346 E14.36248
G1 X46.451 Y70.821 E14.44677
G1 X46.171 Y68.358 E14.52921
G1 X45.81 Y65.829 E14.61418
G1 X45.384 Y63.349 E14.69787
G1 X44.892 Y60.902 E14.78089
G1 X44.323 Y58.431 E14.86523
G1 X43.693 Y56.014 E14.9483
G1 X42.987 Y53.589 E15.03231
G1 X42.211 Y51.175 E15.11664
G1 X41.365 Y48.785 E15.20097
G1 X41.184 Y48.305 E15.21803
G1 X41.104 Y48.088 E15.22572
G1 X41.041 Y47.91 E15.232
G1 X40.766 Y47.013 E15.26321
G1 X40.569 Y46.097 E15.29437
G1 X40.45 Y45.166 E15.32559
G1 X40.414 Y44.501 E15.34774
G1 X40.389 Y43.448 E15.38277
G1 X40.386 Y43.226 E15.39016
G1 X40.378 Y40.943 E15.46609
G1 X40.379 Y40.787 E15.47128
G1 X40.386 Y40.131 E15.4931
G1 X40.436 Y39.194 E15.52431
G1 X40.565 Y38.265 E15.5555
G1 X40.773 Y37.351 E15.58668
G1 X41.059 Y36.457 E15.6179
G1 X41.419 Y35.592 E15.64906
G1 X41.852 Y34.76 E15.68026
G1 X42.354 Y33.967 E15.71147
G1 X42.922 Y33.221 E15.74266
G0 F6000 X43.317 Y33.373
G1 F1200 X43.944 Y32.699 E15.77327
G1 X44.627 Y32.082 E15.80389
G1 X45.361 Y31.526 E15.83451
G1 X46.141 Y31.036 E15.86515
G1 X46.96 Y30.616 E15.89576
G1 X47.812 Y30.268 E15.92637
G1 X48.692 Y29.996 E15.95701
G1 X49.591 Y29.801 E15.98761
G1 X50.929 Y29.658 E16.03236
G1 X51.788 Y29.621 E16.06096
G1 X52.244 Y29.611 E16.07613
G1 X111.168 Y29.611 E18.03595
G1 X111.32 Y29.612 E18.041
G1 X112.018 Y29.622 E18.06422
G1 X112.937 Y29.675 E18.09484
G1 X113.848 Y29.808 E18.12546
G1 X114.744 Y30.019 E18.15608
G1 X115.618 Y30.307 E18.18668
G1 X116.465 Y30.67 E18.21733
G1 X117.276 Y31.105 E18.24794
G1 X118.046 Y31.609 E18.27855
G1 X118.77 Y32.178 E18.30918
G1 X119.442 Y32.808 E18.33981
G1 X120.057 Y33.493 E18.37043
G1 X120.61 Y34.229 E18.40105
G1 X121.097 Y35.01 E18.43167
G1 X121.514 Y35.831 E18.46229
G1 X121.859 Y36.685 E18.49293
G1 X122.128 Y37.565 E18.52353
G1 X122.32 Y38.466 E18.55417
G1 X122.433 Y39.379 E18.58477
G1 X122.462 Y39.923 E18.60289
G1 X122.471 Y40.243 E18.61354
G1 X122.475 Y40.541 E18.62345
G1 X122.475 Y43.487 E18.72143
G1 X122.474 Y43.639 E18.72649
G1 X122.464 Y44.337 E18.74971
G1 X122.411 Y45.256 E18.78032
G1 X122.278 Y46.167 E18.81095
G1 X122.067 Y47.063 E18.84156
G1 X121.86 Y47.714 E18.86428
G1 X120.917 Y50.385 E18.95849
G1 X120.15 Y52.771 E19.04185
G1 X119.438 Y55.219 E19.12665
G1 X118.798 Y57.68 E19.21122
G1 X118.229 Y60.147 E19.29543
G1 X117.73 Y62.629 E19.37963
G1 X117.312 Y65.08 E19.46233
G1 X116.952 Y67.603 E19.5471
G1 X116.667 Y70.109 E19.63098
G1 X116.451 Y72.646 E19.71567
G1 X116.309 Y75.151 E19.79912
G1 X116.237 Y77.696 E19.8838
G1 X116.237 Y80.207 E19.96732
G1 X116.309 Y82.763 E20.05236
G1 X116.449 Y85.251 E20.13525
G1 X116.667 Y87.808 E20.2206
G1 X116.949 Y90.29 E20.30368
G1 X117.307 Y92.806 E20.38821
G1 X117.736 Y95.312 E20.47277
G1 X118.22 Y97.729 E20.55476
G1 X118.801 Y100.248 E20.64074
G1 X119.197 Y101.769 E20.69301
G1 X119.233 Y101.911 E20.69789
G1 X119.37 Y102.468 E20.71696
G1 X119.551 Y103.371 E20.7476
G1 X119.653 Y104.286 E20.77822
G1 X119.675 Y104.779 E20.79463
G1 X119.69 Y105.497 E20.81852
G1 X119.692 Y105.717 E20.82583
G1 X119.693 Y114.266 E21.11018
G1 X119.692 Y114.418 E21.11523
G1 X119.682 Y115.12 E21.13858
G1 X119.629 Y116.039 E21.1692
G1 X119.496 Y116.95 E21.19982
G1 X119.387 Y117.457 E21.21707
G1 X119.267 Y117.954 E21.23407
G1 X119.22 Y118.139 E21.24042
G1 X118.811 Y119.707 E21.29432
G1 X118.236 Y122.207 E21.37964
G1 X117.729 Y124.719 E21.46487
G1 X117.314 Y127.154 E21.54703
G1 X116.955 Y129.67 E21.63156
G1 X116.667 Y132.204 E21.71638
G1 X116.454 Y134.689 E21.79934
G1 X116.311 Y137.217 E21.88356
G1 X116.238 Y139.768 E21.96844
G1 X116.238 Y142.28 E22.05199
G1 X116.309 Y144.828 E22.13677
G1 X116.449 Y147.318 E22.21971
G1 X116.666 Y149.858 E22.3045
G1 X116.949 Y152.361 E22.38828
G1 X117.309 Y154.895 E22.47341
G1 X117.734 Y157.38 E22.55726
G1 X118.223 Y159.821 E22.64006
G1 X118.787 Y162.274 E22.72378
G1 X119.441 Y164.788 E22.81018
G1 X120.13 Y167.159 E22.8923
G1 X120.916 Y169.607 E22.97781
G1 X121.381 Y170.926 E23.02433
G1 X121.396 Y170.969 E23.02585
G1 X121.852 Y172.282 E23.07208
G1 X122.116 Y173.164 E23.1027
G1 X122.303 Y174.066 E23.13334
G1 X122.41 Y174.98 E23.16394
G1 X122.436 Y175.508 E23.18153
G1 X122.461 Y176.561 E23.21656
G1 X122.464 Y176.774 E23.22364
G1 X122.472 Y178.974 E23.29682
G1 X122.472 Y179.113 E23.30144
G1 X122.465 Y179.852 E23.32602
G1 X122.416 Y180.772 E23.35666
G1 X122.288 Y181.683 E23.38726
G1 X122.081 Y182.581 E23.41791
G1 X121.797 Y183.456 E23.44851
G1 X121.438 Y184.304 E23.47914
G1 X121.007 Y185.118 E23.50977
G1 X120.507 Y185.891 E23.54039
G1 X119.941 Y186.617 E23.57101
G1 X119.315 Y187.292 E23.60163
G1 X118.633 Y187.91 E23.63224
G1 X117.899 Y188.467 E23.66288
G1 X117.12 Y188.957 E23.69349
G1 X116.302 Y189.379 E23.72411
G1 X115.45 Y189.727 E23.75472
G1 X114.571 Y190.001 E23.78534
G1 X113.671 Y190.197 E23.81598
G1 X112.321 Y190.342 E23.86114
G1 X111.462 Y190.379 E23.88973
G1 X111.006 Y190.389 E23.9049
G1 X52.082 Y190.389 E25.86472
G1 X51.93 Y190.388 E25.86978
G1 X51.232 Y190.378 E25.893
G1 X50.313 Y190.325 E25.92361
G1 X49.402 Y190.192 E25.95424
G1 X48.506 Y189.981 E25.98485
G1 X47.632 Y189.693 E26.01546
G1 X46.785 Y189.33 E26.04611
G1 X45.974 Y188.895 E26.07672
G1 X45.204 Y188.391 E26.10733
G1 X44.48 Y187.822 E26.13795
G1 X43.808 Y187.192 E26.16859
G1 X43.193 Y186.507 E26.19921
G1 X42.64 Y185.771 E26.22983
G1 X42.153 Y184.99 E26.26044
G1 X41.736 Y184.169 E26.29107
G1 X41.391 Y183.315 E26.3217
G1 X41.122 Y182.435 E26.35231
G1 X40.93 Y181.534 E26.38295
G1 X40.817 Y180.621 E26.41355
G1 X40.788 Y180.066 E26.43203
G1 X40.779 Y179.734 E26.44308
G1 X40.775 Y179.447 E26.45262
G1 X40.775 Y176.513 E26.55021
G1 X40.776 Y176.361 E26.55526
G1 X40.786 Y175.664 E26.57845
G1 X40.839 Y174.745 E26.60907
G1 X40.972 Y173.834 E26.63969
G1 X41.183 Y172.938 E26.6703
G1 X41.429 Y172.177 E26.6969
G1 X41.755 Y171.285 E26.72849
G1 X42.611 Y168.858 E26.81409
G1 X43.376 Y166.477 E26.89727
G1 X44.084 Y164.04 E26.98167
G1 X44.725 Y161.577 E27.06632
G1 X45.292 Y159.113 E27.15042
G1 X45.792 Y156.624 E27.23485
G1 X46.211 Y154.165 E27.31782
G1 X46.571 Y151.638 E27.40272
G1 X46.854 Y149.146 E27.48613
G1 X47.068 Y146.619 E27.57048
G1 X47.211 Y144.098 E27.65447
G1 X47.282 Y141.561 E27.73888
G1 X47.282 Y139.048 E27.82246
G1 X47.209 Y136.497 E27.90734
G1 X47.067 Y133.991 E27.99083
G1 X46.85 Y131.445 E28.07582
G1 X46.57 Y128.982 E28.15826
G1 X46.204 Y126.417 E28.24444
G1 X45.781 Y123.952 E28.32762
G1 X45.296 Y121.53 E28.40978
G1 X44.708 Y118.976 E28.49695
G1 X44.361 Y117.606 E28.54395
G1 X44.174 Y116.704 E28.57459
G1 X44.044 Y115.386 E28.61864
G1 X44.032 Y115.053 E28.62972
G1 X44.025 Y114.671 E28.64243
G1 X44.025 Y105.707 E28.94058
G1 X44.026 Y105.555 E28.94563
G1 X44.036 Y104.858 E28.96882
G1 X44.089 Y103.939 E28.99943
G1 X44.222 Y103.028 E29.03005
G1 X44.335 Y102.505 E29.04785
G1 X44.629 Y101.296 E29.08923
G1 X44.671 Y101.131 E29.0949
G1 X44.725 Y100.922 E29.10208
G1 X45.29 Y98.463 E29.18599
G1 X45.799 Y95.933 E29.27183
G1 X46.216 Y93.485 E29.35442
G1 X46.573 Y90.967 E29.43901
G1 X46.857 Y88.461 E29.52289
G1 X47.069 Y85.952 E29.60664
G1 X47.211 Y83.433 E29.69055
G1 X47.282 Y80.886 E29.7753
G1 X47.282 Y78.373 E29.85888
G1 X47.209 Y75.832 E29.94343
G1 X47.064 Y73.288 E30.02818
G1 X46.853 Y70.813 E30.1108
G1 X46.566 Y68.294 E30.19513
G1 X46.201 Y65.742 E30.28087
G1 X45.783 Y63.301 E30.36324
G1 X45.287 Y60.839 E30.44677
G1 X44.705 Y58.312 E30.53302
G1 X44.078 Y55.906 E30.61572
G1 X43.369 Y53.47 E30.7001
G1 X42.593 Y51.056 E30.78444
G1 X41.742 Y48.651 E30.86929
G1 X41.558 Y48.164 E30.8866
G1 X41.481 Y47.955 E30.89401
G1 X41.418 Y47.777 E30.90029
G1 X41.149 Y46.896 E30.93093
G1 X40.957 Y45.996 E30.96154
G1 X40.845 Y45.082 E30.99216
G1 X40.814 Y44.492 E31.01181
G1 X40.789 Y43.439 E31.04685
G1 X40.786 Y43.224 E31.054
G1 X40.778 Y40.941 E31.12993
G1 X40.779 Y40.791 E31.13492
G1 X40.786 Y40.135 E31.15674
G1 X40.835 Y39.216 E31.18735
G1 X40.965 Y38.304 E31.21799
G1 X41.173 Y37.407 E31.24862
G1 X41.458 Y36.532 E31.27922
G1 X41.818 Y35.684 E31.30986
G1 X42.25 Y34.871 E31.34048
G1 X42.751 Y34.099 E31.37109
G1 X43.317 Y33.373 E31.40171
G0 F6000 X43.711 Y33.528
G1 F1200 X44.336 Y32.876 E31.43175
G1 X45.016 Y32.281 E31.4618
G1 X45.745 Y31.749 E31.49182
G1 X46.519 Y31.283 E31.52187
G1 X47.331 Y30.888 E31.5519
G1 X48.175 Y30.566 E31.58195
G1 X49.044 Y30.32 E31.61199
G1 X49.931 Y30.152 E31.64201
G1 X50.946 Y30.057 E31.67592
G1 X51.805 Y30.02 E31.70452
G1 X52.244 Y30.011 E31.71912
G1 X111.168 Y30.011 E33.67894
G1 X111.314 Y30.012 E33.6838
G1 X112.012 Y30.022 E33.70702
G1 X112.914 Y30.075 E33.73707
G1 X113.807 Y30.207 E33.76709
G1 X114.685 Y30.418 E33.79713
G1 X115.541 Y30.706 E33.82716
G1 X116.368 Y31.068 E33.85719
G1 X117.16 Y31.503 E33.88724
G1 X117.911 Y32.005 E33.91729
G1 X118.614 Y32.572 E33.94733
G1 X119.264 Y33.199 E33.97737
G1 X119.856 Y33.881 E34.0074
G1 X120.386 Y34.612 E34.03743
G1 X120.848 Y35.388 E34.06747
G1 X121.241 Y36.201 E34.09751
G1 X121.559 Y37.046 E34.12754
G1 X121.802 Y37.916 E34.15758
G1 X121.967 Y38.804 E34.18762
