;FLAVOR:Marlin
;TIME:2481
;Filament used: 1.50911m
;Layer height: 0.2
;MINX:54.829
;MINY:51.486
;MINZ:0.2
;MAXX:137.191
;MAXY:92.497
;MAXZ:15
;Generated with Cura_SteamEngine 4.3.0
M140 S50
M105
M190 S50
M104 S200
M105
M109 S200
M82 ;absolute extrusion mode
M201 X500.00 Y500.00 Z100.00 E5000.00 ;Setup machine max acceleration
M203 X500.00 Y500.00 Z10.00 E50.00 ;Setup machine max feedrate
M204 P500.00 R1000.00 T500.00 ;Setup Print/Retract/Travel acceleration
M205 X8.00 Y8.00 Z0.40 E5.00 ;Setup Jerk
M220 S100 ;Reset Feedrate
M221 S100 ;Reset Flowrate

G28 ;Home

G92 E0 ;Reset Extruder
G1 Z2.0 F3000 ;Move Z Axis up
G1 X10.1 Y20 Z0.28 F5000.0 ;Move to start position
G1 X10.1 Y200.0 Z0.28 F1500.0 E15 ;Draw the first line
G1 X10.4 Y200.0 Z0.28 F5000.0 ;Move to side a little
G1 X10.4 Y20 Z0.28 F1500.0 E30 ;Draw the second line
G92 E0 ;Reset Extruder
G1 Z2.0 F3000 ;Move Z Axis up

G92 E0
G92 E0
G1 F2700 E-5
;LAYER_COUNT:75
;LAYER:0
M107
G0 F6000 X63.031 Y57.626 Z0.2
;TYPE:SKIRT
G1 F2700 E0
G1 F1200 X63.7 Y56.97 E0.03116
G1 X64.177 Y56.564 E0.052
G1 X64.596 Y56.228 E0.06986
G1 X64.891 Y56 E0.08226
G1 X65.109 Y55.837 E0.09131
G1 X65.883 Y55.308 E0.1225
G1 X66.942 Y54.727 E0.16267
G1 X67.255 Y54.577 E0.17422
G1 X67.471 Y54.477 E0.18213
G1 X68.554 Y53.986 E0.22168
G1 X71.361 Y52.614 E0.3256
G1 X72.221 Y52.238 E0.35682
G1 X73.109 Y51.937 E0.388
G1 X74.019 Y51.713 E0.41917
G1 X74.946 Y51.567 E0.45039
G1 X75.858 Y51.501 E0.4808
G1 X76.186 Y51.491 E0.49171
G1 X76.521 Y51.486 E0.50286
G1 X125.484 Y51.486 E2.13137
G1 X125.642 Y51.487 E2.13663
G1 X126.34 Y51.497 E2.15984
G1 X127.276 Y51.551 E2.19103
G1 X128.204 Y51.683 E2.2222
G1 X129.118 Y51.895 E2.25341
G1 X130.01 Y52.184 E2.2846
G1 X130.875 Y52.547 E2.3158
G1 X131.705 Y52.983 E2.34698
G1 X132.496 Y53.488 E2.37819
G1 X133.24 Y54.059 E2.40939
G1 X133.933 Y54.691 E2.44058
G1 X134.57 Y55.379 E2.47177
G1 X135.145 Y56.12 E2.50296
G1 X135.656 Y56.906 E2.53414
G1 X136.098 Y57.734 E2.56536
G1 X136.467 Y58.596 E2.59655
G1 X136.762 Y59.486 E2.62773
G1 X136.98 Y60.398 E2.65892
G1 X137.12 Y61.326 E2.69014
G1 X137.178 Y62.187 E2.71884
G1 X137.187 Y62.507 E2.72949
G1 X137.191 Y62.816 E2.73976
G1 X137.191 Y71.25 E3.02028
G1 X137.19 Y71.386 E3.0248
G1 X137.181 Y72.113 E3.04899
G1 X137.13 Y73.05 E3.0802
G1 X136.998 Y73.978 E3.11137
G1 X136.789 Y74.892 E3.14256
G1 X136.502 Y75.785 E3.17375
G1 X136.14 Y76.651 E3.20497
G1 X135.706 Y77.482 E3.23615
G1 X135.202 Y78.273 E3.26735
G1 X134.633 Y79.018 E3.29853
G1 X134.002 Y79.713 E3.32975
G1 X133.315 Y80.351 E3.36093
G1 X132.576 Y80.928 E3.39212
G1 X131.79 Y81.44 E3.42332
G1 X130.964 Y81.883 E3.45449
G1 X130.102 Y82.255 E3.48572
G1 X129.213 Y82.551 E3.51688
G1 X128.301 Y82.771 E3.54809
G1 X127.374 Y82.912 E3.57927
G1 X126.49 Y82.973 E3.60874
G1 X126.169 Y82.982 E3.61943
G1 X125.861 Y82.986 E3.62967
G1 X112.127 Y82.986 E4.08646
G1 X109.519 Y83.023 E4.17322
G1 X106.998 Y83.13 E4.25714
G1 X104.503 Y83.307 E4.34033
G1 X102.003 Y83.555 E4.42389
G1 X99.51 Y83.874 E4.50748
G1 X97.017 Y84.265 E4.59142
G1 X94.527 Y84.728 E4.67565
G1 X92.064 Y85.258 E4.75945
G1 X89.668 Y85.846 E4.8415
G1 X87.198 Y86.525 E4.9267
G1 X84.795 Y87.261 E5.01029
G1 X82.403 Y88.068 E5.09426
G1 X80.063 Y88.931 E5.17721
G1 X77.687 Y89.885 E5.26237
G1 X76.353 Y90.455 E5.31062
G1 X74.176 Y91.407 E5.38965
G1 X73.799 Y91.563 E5.40322
G1 X73.639 Y91.626 E5.40894
G1 X72.753 Y91.932 E5.44011
G1 X71.843 Y92.162 E5.47133
G1 X71.259 Y92.267 E5.49107
G1 X70.692 Y92.353 E5.51014
G1 X70.285 Y92.407 E5.5238
G1 X70.074 Y92.431 E5.53086
G1 X69.139 Y92.497 E5.56203
G1 X68.201 Y92.483 E5.59324
G1 X67.599 Y92.432 E5.61333
G1 X67.058 Y92.371 E5.63144
G1 X66.701 Y92.325 E5.64341
G1 X66.475 Y92.292 E5.65101
G1 X65.553 Y92.117 E5.68222
G1 X64.65 Y91.864 E5.71341
G1 X64.033 Y91.642 E5.73522
G1 X63.51 Y91.436 E5.75392
G1 X63.184 Y91.301 E5.76565
G1 X62.98 Y91.213 E5.77304
G1 X62.135 Y90.805 E5.80425
G1 X61.329 Y90.327 E5.83542
G1 X60.792 Y89.954 E5.85716
G1 X60.357 Y89.632 E5.87516
G1 X60.114 Y89.447 E5.88532
G1 X59.924 Y89.298 E5.89335
G1 X59.211 Y88.688 E5.92456
G1 X58.553 Y88.02 E5.95575
G1 X58.093 Y87.476 E5.97944
G1 X57.756 Y87.051 E5.99748
G1 X57.546 Y86.778 E6.00894
G1 X57.41 Y86.595 E6.01652
G1 X56.883 Y85.819 E6.04772
G1 X56.424 Y85.001 E6.07892
G1 X56.178 Y84.481 E6.09805
G1 X55.976 Y84.024 E6.11467
G1 X55.821 Y83.655 E6.12798
G1 X55.72 Y83.402 E6.13704
G1 X55.41 Y82.517 E6.16823
G1 X55.176 Y81.609 E6.19942
G1 X55.064 Y80.997 E6.22011
G1 X54.98 Y80.451 E6.23849
G1 X54.929 Y80.076 E6.25107
G1 X54.9 Y79.832 E6.25925
G1 X54.829 Y78.897 E6.29043
G1 X54.838 Y77.959 E6.32163
G1 X54.889 Y77.332 E6.34256
G1 X54.94 Y76.868 E6.35808
G1 X54.973 Y76.596 E6.36719
G1 X55.011 Y76.315 E6.37663
G1 X55.176 Y75.392 E6.40781
G1 X55.42 Y74.486 E6.43902
G1 X55.662 Y73.797 E6.46331
G1 X55.891 Y73.209 E6.4843
G1 X56.032 Y72.865 E6.49666
G1 X56.406 Y71.993 E6.52822
G1 X56.464 Y71.859 E6.53308
G1 X56.977 Y70.706 E6.57505
G1 X57.928 Y68.393 E6.65823
G1 X58.815 Y66.049 E6.74159
G1 X59.792 Y63.195 E6.84192
G1 X59.951 Y62.76 E6.85732
G1 X60.288 Y61.896 E6.88817
G1 X60.666 Y61.037 E6.91938
G1 X61.115 Y60.214 E6.95056
G1 X61.403 Y59.761 E6.96842
G1 X61.781 Y59.198 E6.99097
G1 X62.274 Y58.522 E7.0188
G1 X62.419 Y58.338 E7.02659
G1 X63.031 Y57.626 E7.05782
G0 F6000 X63.334 Y57.887
G1 F1200 X63.993 Y57.245 E7.08842
G1 X64.428 Y56.876 E7.10739
G1 X64.847 Y56.54 E7.12525
G1 X65.13 Y56.321 E7.13716
G1 X65.348 Y56.158 E7.14621
G1 X66.109 Y55.639 E7.17685
G1 X67.115 Y55.088 E7.215
G1 X67.428 Y54.938 E7.22654
G1 X67.636 Y54.841 E7.23417
G1 X68.73 Y54.346 E7.27411
G1 X71.537 Y52.973 E7.37804
G1 X72.381 Y52.605 E7.40867
G1 X73.253 Y52.312 E7.43926
G1 X74.148 Y52.095 E7.46989
G1 X75.058 Y51.957 E7.50051
G1 X75.87 Y51.901 E7.52758
G1 X76.198 Y51.891 E7.53849
G1 X76.521 Y51.886 E7.54924
G1 X125.484 Y51.886 E9.17775
G1 X125.636 Y51.887 E9.18281
G1 X126.334 Y51.897 E9.20603
G1 X127.253 Y51.95 E9.23664
G1 X128.164 Y52.083 E9.26726
G1 X129.06 Y52.294 E9.29788
G1 X129.934 Y52.582 E9.32849
G1 X130.781 Y52.945 E9.35914
G1 X131.592 Y53.38 E9.38975
G1 X132.362 Y53.884 E9.42035
G1 X133.086 Y54.453 E9.45098
G1 X133.758 Y55.083 E9.48162
G1 X134.373 Y55.768 E9.51224
G1 X134.926 Y56.504 E9.54286
G1 X135.413 Y57.285 E9.57347
G1 X135.83 Y58.106 E9.6041
G1 X136.175 Y58.96 E9.63473
G1 X136.444 Y59.84 E9.66534
G1 X136.636 Y60.741 E9.69598
G1 X136.749 Y61.654 E9.72657
G1 X136.778 Y62.198 E9.74469
G1 X136.787 Y62.518 E9.75534
G1 X136.791 Y62.816 E9.76525
G1 X136.791 Y71.25 E10.04577
G1 X136.79 Y71.381 E10.05013
G1 X136.781 Y72.108 E10.07431
G1 X136.73 Y73.027 E10.10492
G1 X136.599 Y73.939 E10.13557
G1 X136.389 Y74.835 E10.16618
G1 X136.103 Y75.71 E10.19679
G1 X135.742 Y76.557 E10.22742
G1 X135.308 Y77.369 E10.25804
G1 X134.806 Y78.141 E10.28867
G1 X134.238 Y78.866 E10.3193
G1 X133.61 Y79.539 E10.34992
G1 X132.926 Y80.155 E10.38053
G1 X132.191 Y80.709 E10.41114
G1 X131.411 Y81.198 E10.44176
G1 X130.591 Y81.617 E10.47239
G1 X129.738 Y81.963 E10.50301
G1 X128.858 Y82.234 E10.53363
G1 X127.958 Y82.427 E10.56425
G1 X127.044 Y82.542 E10.59489
G1 X126.479 Y82.573 E10.61371
G1 X126.158 Y82.582 E10.62439
G1 X125.861 Y82.586 E10.63427
G1 X112.121 Y82.586 E11.09126
G1 X109.496 Y82.623 E11.17858
G1 X106.988 Y82.73 E11.26207
G1 X104.468 Y82.908 E11.34609
G1 X101.953 Y83.157 E11.43015
G1 X99.464 Y83.476 E11.51361
G1 X96.912 Y83.877 E11.59954
G1 X94.481 Y84.329 E11.68178
G1 X91.982 Y84.867 E11.7668
G1 X89.546 Y85.464 E11.85022
G1 X87.08 Y86.142 E11.93528
G1 X84.687 Y86.875 E12.01852
G1 X82.273 Y87.689 E12.10325
G1 X79.923 Y88.556 E12.18657
G1 X77.506 Y89.527 E12.2732
G1 X76.151 Y90.106 E12.32221
G1 X74.015 Y91.04 E12.39975
G1 X73.653 Y91.191 E12.41279
G1 X73.493 Y91.254 E12.41851
G1 X72.622 Y91.554 E12.44915
G1 X71.729 Y91.777 E12.47977
G1 X71.199 Y91.871 E12.49767
G1 X70.632 Y91.957 E12.51674
G1 X70.24 Y92.009 E12.5299
G1 X70.029 Y92.033 E12.53696
G1 X69.111 Y92.097 E12.56757
G1 X68.19 Y92.082 E12.5982
G1 X67.643 Y92.034 E12.61646
G1 X67.102 Y91.973 E12.63457
G1 X66.758 Y91.929 E12.64611
G1 X66.532 Y91.896 E12.6537
G1 X65.628 Y91.723 E12.68432
G1 X64.742 Y91.473 E12.71494
G1 X64.179 Y91.27 E12.73484
G1 X63.656 Y91.064 E12.75354
G1 X63.342 Y90.934 E12.76484
G1 X63.138 Y90.846 E12.77223
G1 X62.31 Y90.445 E12.80283
G1 X61.519 Y89.974 E12.83345
G1 X61.03 Y89.633 E12.85328
G1 X60.595 Y89.311 E12.87128
G1 X60.361 Y89.132 E12.88108
G1 X60.171 Y88.983 E12.88911
G1 X59.472 Y88.384 E12.91972
G1 X58.827 Y87.727 E12.95035
G1 X58.406 Y87.228 E12.97206
G1 X58.069 Y86.803 E12.9901
G1 X57.867 Y86.54 E13.00113
G1 X57.731 Y86.357 E13.00871
G1 X57.215 Y85.595 E13.03932
G1 X56.766 Y84.791 E13.06995
G1 X56.544 Y84.319 E13.0873
G1 X56.342 Y83.862 E13.10392
G1 X56.192 Y83.507 E13.11674
G1 X56.091 Y83.254 E13.1258
G1 X55.788 Y82.385 E13.15641
G1 X55.56 Y81.493 E13.18703
G1 X55.459 Y80.936 E13.20586
G1 X55.375 Y80.39 E13.22423
G1 X55.326 Y80.029 E13.23635
G1 X55.297 Y79.785 E13.24452
G1 X55.228 Y78.867 E13.27514
G1 X55.239 Y77.946 E13.30577
G1 X55.286 Y77.376 E13.3248
G1 X55.337 Y76.912 E13.34032
G1 X55.37 Y76.649 E13.34914
G1 X55.408 Y76.368 E13.35857
G1 X55.57 Y75.462 E13.38918
G1 X55.811 Y74.574 E13.41978
G1 X56.035 Y73.942 E13.44209
G1 X56.264 Y73.354 E13.46307
G1 X56.399 Y73.023 E13.47496
G1 X56.773 Y72.151 E13.50652
G1 X56.83 Y72.022 E13.51121
G1 X57.336 Y70.884 E13.55264
G1 X58.296 Y68.55 E13.63657
G1 X59.192 Y66.183 E13.72075
G1 X60.17 Y63.325 E13.82122
G1 X60.324 Y62.905 E13.8361
G1 X60.661 Y62.041 E13.86695
G1 X61.032 Y61.199 E13.89755
G1 X61.475 Y60.392 E13.92817
G1 X61.736 Y59.984 E13.94428
G1 X62.114 Y59.421 E13.96683
G1 X62.588 Y58.769 E13.99364
G1 X62.733 Y58.585 E14.00143
G1 X63.334 Y57.887 E14.03207
G0 F6000 X63.637 Y58.149
G1 F1200 X64.285 Y57.52 E14.06211
G1 X64.678 Y57.189 E14.0792
G1 X65.097 Y56.853 E14.09706
G1 X65.37 Y56.641 E14.10856
G1 X65.588 Y56.478 E14.11761
G1 X66.335 Y55.97 E14.14766
G1 X67.288 Y55.449 E14.18378
G1 X67.601 Y55.299 E14.19532
G1 X67.801 Y55.206 E14.20266
G1 X68.905 Y54.706 E14.24297
G1 X71.713 Y53.333 E14.34693
G1 X72.541 Y52.972 E14.37697
G1 X73.397 Y52.687 E14.40698
G1 X74.276 Y52.478 E14.43703
G1 X75.17 Y52.347 E14.46708
G1 X75.882 Y52.301 E14.49081
G1 X76.21 Y52.291 E14.50173
G1 X76.521 Y52.286 E14.51207
G1 X125.484 Y52.286 E16.14059
G1 X125.63 Y52.287 E16.14545
G1 X126.328 Y52.297 E16.16866
G1 X127.23 Y52.35 E16.19872
G1 X128.123 Y52.482 E16.22874
G1 X129.001 Y52.693 E16.25877
G1 X129.857 Y52.981 E16.28881
G1 X130.684 Y53.343 E16.31884
G1 X131.476 Y53.778 E16.34889
G1 X132.227 Y54.28 E16.37894
G1 X132.93 Y54.847 E16.40898
G1 X133.58 Y55.474 E16.43901
G1 X134.172 Y56.156 E16.46905
G1 X134.702 Y56.887 E16.49908
G1 X135.164 Y57.663 E16.52912
G1 X135.557 Y58.476 E16.55915
G1 X135.875 Y59.321 E16.58918
G1 X136.118 Y60.191 E16.61923
G1 X136.283 Y61.079 E16.64927
G1 X136.378 Y62.209 E16.68698
G1 X136.387 Y62.529 E16.69763
G1 X136.391 Y62.816 E16.70718
G1 X136.391 Y71.25 E16.98769
G1 X136.39 Y71.376 E16.99189
G1 X136.381 Y72.103 E17.01607
G1 X136.33 Y73.005 E17.04612
G1 X136.199 Y73.899 E17.07617
G1 X135.99 Y74.777 E17.10619
G1 X135.704 Y75.634 E17.13624
G1 X135.343 Y76.462 E17.16628
G1 X134.911 Y77.254 E17.19628
G1 X134.41 Y78.006 E17.22634
G1 X133.844 Y78.71 E17.25638
G1 X133.219 Y79.361 E17.2864
G1 X132.538 Y79.955 E17.31645
G1 X131.807 Y80.486 E17.34651
G1 X131.033 Y80.95 E17.37652
G1 X130.22 Y81.344 E17.40657
G1 X129.376 Y81.664 E17.43659
G1 X128.506 Y81.909 E17.46665
G1 X127.619 Y82.075 E17.49667
G1 X126.468 Y82.173 E17.53509
G1 X126.147 Y82.182 E17.54577
G1 X125.861 Y82.186 E17.55528
G1 X112.115 Y82.186 E18.01247
G1 X109.509 Y82.223 E18.09916
G1 X106.944 Y82.332 E18.18455
G1 X104.437 Y82.51 E18.26814
G1 X101.896 Y82.761 E18.35307
G1 X99.388 Y83.082 E18.43716
G1 X96.883 Y83.476 E18.5215
G1 X94.396 Y83.938 E18.60564
G1 X91.875 Y84.481 E18.69141
G1 X89.45 Y85.076 E18.77446
G1 X86.984 Y85.753 E18.85951
G1 X84.557 Y86.496 E18.94393
G1 X82.155 Y87.307 E19.02825
G1 X79.742 Y88.197 E19.1138
G1 X77.379 Y89.146 E19.19849
G1 X76.069 Y89.706 E19.24588
G1 X73.855 Y90.674 E19.32624
G1 X73.506 Y90.819 E19.33881
G1 X73.346 Y90.882 E19.34453
G1 X72.492 Y91.175 E19.37456
G1 X71.615 Y91.392 E19.40461
G1 X71.139 Y91.476 E19.42069
G1 X70.572 Y91.562 E19.43976
G1 X70.195 Y91.612 E19.45241
G1 X69.984 Y91.636 E19.45947
G1 X69.083 Y91.698 E19.48951
G1 X68.18 Y91.68 E19.51955
G1 X67.688 Y91.637 E19.53598
G1 X67.147 Y91.576 E19.55409
G1 X66.816 Y91.533 E19.56519
G1 X66.59 Y91.5 E19.57278
G1 X65.703 Y91.33 E19.60282
G1 X64.835 Y91.082 E19.63285
G1 X64.326 Y90.897 E19.65086
G1 X63.803 Y90.691 E19.66956
G1 X63.501 Y90.567 E19.68042
G1 X63.297 Y90.479 E19.6878
G1 X62.484 Y90.085 E19.71785
G1 X61.71 Y89.62 E19.74789
G1 X61.268 Y89.311 E19.76582
G1 X60.833 Y88.989 E19.78382
G1 X60.608 Y88.817 E19.79324
G1 X60.418 Y88.668 E19.80127
G1 X59.732 Y88.08 E19.83132
G1 X59.102 Y87.434 E19.86134
G1 X58.72 Y86.979 E19.8811
G1 X58.383 Y86.554 E19.89914
G1 X58.188 Y86.301 E19.90976
G1 X58.052 Y86.118 E19.91734
G1 X57.546 Y85.37 E19.94738
G1 X57.108 Y84.58 E19.97742
G1 X56.91 Y84.158 E19.99293
G1 X56.708 Y83.701 E20.00955
G1 X56.564 Y83.359 E20.02189
G1 X56.463 Y83.106 E20.03095
G1 X56.166 Y82.253 E20.06099
G1 X55.945 Y81.377 E20.09104
G1 X55.855 Y80.875 E20.108
G1 X55.771 Y80.329 E20.12638
G1 X55.723 Y79.982 E20.13803
G1 X55.694 Y79.738 E20.1462
G1 X55.628 Y78.837 E20.17625
G1 X55.641 Y77.934 E20.20628
G1 X55.684 Y77.42 E20.22344
G1 X55.735 Y76.956 E20.23897
G1 X55.766 Y76.703 E20.24744
G1 X55.804 Y76.422 E20.25687
G1 X55.965 Y75.533 E20.28692
G1 X56.203 Y74.662 E20.31696
G1 X56.407 Y74.087 E20.33725
G1 X56.636 Y73.499 E20.35824
G1 X56.767 Y73.18 E20.36971
G1 X57.141 Y72.308 E20.40126
G1 X57.195 Y72.184 E20.40576
G1 X57.713 Y71.02 E20.44814
G1 X58.669 Y68.696 E20.53172
G1 X59.571 Y66.31 E20.61656
G1 X60.549 Y63.454 E20.71696
G1 X60.696 Y63.05 E20.73126
G1 X61.033 Y62.186 E20.76211
G1 X61.398 Y61.36 E20.79214
G1 X62.068 Y60.207 E20.8365
G1 X62.446 Y59.644 E20.85905
G1 X62.903 Y59.017 E20.88486
G1 X63.048 Y58.833 E20.89265
G1 X63.637 Y58.149 E20.92267
G1 F2700 E15.92267
;MESH:tail-wheel-swivel.stl
G0 F6000 X68.006 Y74.95
G0 X68.148 Y76.023
G0 X69.983 Y77.677
G0 X70.162 Y78.012
G0 X70.244 Y78.376
G0 X70.231 Y78.751
G0 X70.122 Y79.111
G0 X70.011 Y79.29
G0 X69.376 Y80.015
;TYPE:WALL-INNER
G1 F2700 E20.92267
G1 F1200 X69.744 Y79.818 E20.93655
G1 X70.051 Y79.532 E20.95051
G1 X70.27 Y79.178 E20.96436
G1 X70.391 Y78.778 E20.97825
G1 X70.406 Y78.361 E20.99213
G1 X70.314 Y77.954 E21.00601
G1 X70.115 Y77.583 E21.02001
G1 X69.831 Y77.276 E21.03392
G1 X69.471 Y77.052 E21.04803
G1 X69.07 Y76.93 E21.06197
G1 X68.65 Y76.917 E21.07594
G1 X68.243 Y77.011 E21.08984
G1 X67.872 Y77.209 E21.10382
G1 X67.568 Y77.497 E21.11775
G1 X67.348 Y77.85 E21.13159
G1 X67.227 Y78.25 E21.14549
G1 X67.212 Y78.663 E21.15923
G1 X67.303 Y79.073 E21.1732
G1 X67.503 Y79.446 E21.18728
G1 X67.787 Y79.751 E21.20114
G1 X68.146 Y79.976 E21.21523
G1 X68.549 Y80.098 E21.22923
G1 X68.968 Y80.111 E21.24318
G1 X69.376 Y80.015 E21.25712
G0 F6000 X69.233 Y79.638
;TYPE:WALL-OUTER
G1 F1200 X69.509 Y79.49 E21.26753
G1 X69.739 Y79.276 E21.27798
G1 X69.902 Y79.012 E21.2883
G1 X69.993 Y78.712 E21.29873
G1 X70.004 Y78.398 E21.30918
G1 X69.936 Y78.095 E21.31951
G1 X69.787 Y77.817 E21.33
G1 X69.574 Y77.587 E21.34042
G1 X69.304 Y77.419 E21.351
G1 X69.004 Y77.328 E21.36143
G1 X68.69 Y77.318 E21.37188
G1 X68.385 Y77.389 E21.38229
G1 X68.108 Y77.537 E21.39274
G1 X67.88 Y77.752 E21.40316
G1 X67.716 Y78.016 E21.4135
G1 X67.625 Y78.316 E21.42393
G1 X67.614 Y78.626 E21.43424
G1 X67.682 Y78.933 E21.4447
G1 X67.831 Y79.211 E21.45519
G1 X68.044 Y79.44 E21.46559
G1 X68.313 Y79.609 E21.47616
G1 X68.614 Y79.7 E21.48662
G1 X68.928 Y79.71 E21.49707
G1 X69.233 Y79.638 E21.50749
G0 F6000 X69.388 Y80.049
G0 X69.43 Y80.827
;TYPE:WALL-INNER
G1 F1200 X68.809 Y80.909 E21.52832
G1 X68.193 Y80.828 E21.54899
G1 X67.611 Y80.587 E21.56994
G1 X67.116 Y80.207 E21.5907
G1 X66.741 Y79.717 E21.61122
G1 X66.498 Y79.136 E21.63216
G1 X66.415 Y78.521 E21.65281
G1 X66.493 Y77.902 E21.67356
G1 X66.732 Y77.324 E21.69436
G1 X67.112 Y76.825 E21.71522
G1 X67.612 Y76.44 E21.73621
